presentation/src/main/assets/luts/frost.cube
LUT_3D_SIZE 16
-0.107426 -0.107714 -0.133961
-0.096042 -0.107322 -0.133675
0.018400 -0.106646 -0.135097
0.064009 -0.105973 -0.134614
0.111781 -0.104450 -0.133580
0.167495 -0.101510 -0.131512
0.233882 -0.096177 -0.127870
0.310717 -0.087062 -0.121963
0.397466 -0.070891 -0.112660
0.491109 -0.032350 -0.098313
0.588106 0.076382 -0.075058
0.684744 0.108934 0.034573
0.777316 0.132946 0.101705
0.864043 0.151839 0.128882
0.935393 0.167911 0.148230
0.972152 0.177062 0.158764
-0.106086 -0.095200 -0.132982
-0.094474 -0.094733 -0.132693
0.020556 -0.096086 -0.134661
0.064707 -0.097956 -0.134279
0.111897 -0.095912 -0.133237
0.167599 -0.091485 -0.131129
0.234035 -0.083628 -0.127407
0.310841 -0.070143 -0.121414
0.397578 -0.041254 -0.111986
0.491182 0.066289 -0.097433
0.588220 0.099190 -0.073717
0.683646 0.124858 0.043688
0.777245 0.144576 0.103283
0.864009 0.161350 0.129387
0.935317 0.176177 0.148831
0.972219 0.184363 0.159276
-0.099935 0.050345 -0.127493
-0.089918 0.051878 -0.127176
0.026161 0.056918 -0.125721
0.066107 -0.039092 -0.132894
0.113118 -0.021264 -0.131563
0.167705 0.056566 -0.128748
0.233625 0.085176 -0.123743
0.309974 0.107677 -0.116340
0.396508 0.127662 -0.105183
0.490077 0.145544 -0.087978
0.587084 0.161679 -0.058535
0.682506 0.177138 0.084462
0.776735 0.188174 0.112707
0.862406 0.198315 0.135800
0.934837 0.208862 0.154282
0.971956 0.213792 0.163706
-0.090581 0.136449 -0.121050
-0.081767 0.136737 -0.120785
0.026161 0.137517 -0.119667
0.070348 0.139943 -0.117690
0.112265 0.146329 -0.113808
0.163456 0.161585 -0.105503
0.228000 0.177894 -0.096747
0.304130 0.193952 -0.085578
0.390881 0.208891 -0.066231
0.484767 0.222171 0.032088
0.582044 0.233483 0.093300
0.677900 0.243584 0.124036
0.772308 0.250950 0.139457
0.858180 0.257528 0.157353
0.932055 0.262076 0.171188
0.969831 0.263580 0.178446
-0.065065 0.208727 -0.105977
-0.048859 0.208864 -0.105649
0.051060 0.209749 -0.104251
0.082679 0.210915 -0.101872
0.119544 0.212064 -0.097671
0.169129 0.225871 -0.084491
0.230945 0.243758 -0.055061
0.302786 0.261465 0.084387
0.386450 0.277956 0.115394
0.479119 0.291666 0.133721
0.575002 0.301986 0.148273
0.674146 0.309658 0.161648
0.766572 0.316601 0.175250
0.853940 0.318456 0.183876
0.927821 0.321547 0.194356
0.966605 0.320464 0.199138
0.043854 0.282412 -0.067605
0.052215 0.282502 -0.066919
0.077530 0.282412 -0.063916
0.103649 0.283521 -0.058511
0.138192 0.284561 -0.045809
0.176633 0.286940 0.013164
0.237382 0.304534 0.096701
0.308336 0.322836 0.128672
0.389253 0.340437 0.155868
0.477321 0.356070 0.178850
0.571280 0.368011 0.193196
0.667612 0.375657 0.202703
0.759750 0.380819 0.209835
0.846018 0.383629 0.217916
0.922668 0.382791 0.222153
0.962447 0.379686 0.224566
0.081160 0.358168 0.111579
0.086362 0.358244 0.112099
0.104580 0.358168 0.114493
0.128426 0.359203 0.116958
0.160635 0.360129 0.123044
0.200728 0.361137 0.130502
0.245554 0.363082 0.139487
0.315564 0.382703 0.162296
0.395573 0.401087 0.184229
0.482419 0.416845 0.205236
0.572557 0.428278 0.224190
0.664952 0.439143 0.238420
0.755130 0.443646 0.246456
0.841401 0.445043 0.249632
0.917275 0.443646 0.253064
0.957878 0.439239 0.253408
0.114345 0.434915 0.166402
0.118525 0.435002 0.166669
0.133656 0.435872 0.167352
0.154664 0.435002 0.170501
0.186752 0.436132 0.172864
0.225037 0.437173 0.177798
0.272140 0.439023 0.184343
0.324325 0.441054 0.192139
0.403368 0.460503 0.211621
0.489440 0.476823 0.230313
0.578765 0.489324 0.248571
0.667852 0.498849 0.264312
0.755119 0.504988 0.277443
0.837247 0.505292 0.283987
0.912752 0.503069 0.284958
0.953577 0.497622 0.283987
0.147083 0.511436 0.209934
0.150682 0.511495 0.210141
0.163149 0.511436 0.210904
0.183289 0.512454 0.212030
0.213743 0.512015 0.215447
0.252447 0.512863 0.219064
0.299343 0.514888 0.223983
0.352890 0.516674 0.230447
0.412559 0.518991 0.238261
0.497683 0.535993 0.255554
0.585302 0.548434 0.271276
0.674357 0.556898 0.285676
0.759247 0.561562 0.299106
0.838876 0.563901 0.310466
0.911023 0.560610 0.315030
0.950973 0.554410 0.314204
0.179218 0.585216 0.248413
0.182425 0.585262 0.248590
0.193279 0.585216 0.249355
0.212698 0.585262 0.250480
0.240904 0.586348 0.252624
0.279167 0.586967 0.255379
0.325515 0.588260 0.260172
0.379474 0.589797 0.265747
0.440274 0.591811 0.272605
0.507159 0.594366 0.280722
0.594742 0.606893 0.295150
0.683266 0.615051 0.307933
0.767087 0.619907 0.320724
0.845347 0.618810 0.330485
0.913915 0.616132 0.338487
0.951209 0.609447 0.340774
0.210151 0.654502 0.282999
0.213014 0.654478 0.283149
0.222853 0.654502 0.283941
0.239590 0.654478 0.285014
0.267041 0.656140 0.286538
0.303917 0.655674 0.289542
0.349318 0.657110 0.293088
0.402756 0.658464 0.297995
0.463561 0.660204 0.304066
0.530903 0.662488 0.311380
0.603627 0.664871 0.320000
0.691016 0.674613 0.332893
0.775571 0.677363 0.342882
0.852964 0.675896 0.350993
0.919633 0.670788 0.357759
0.955399 0.662831 0.360351
0.239434 0.718417 0.314217
0.242046 0.718490 0.314343
0.250625 0.719383 0.315145
0.267449 0.719457 0.316191
0.291966 0.718901 0.317397
0.327645 0.720075 0.319854
0.370540 0.720726 0.323016
0.422675 0.721897 0.327326
0.482427 0.723525 0.332722
0.549182 0.725443 0.339288
0.623587 0.728143 0.346745
0.702113 0.731071 0.356038
0.783639 0.732795 0.365783
0.861682 0.731748 0.372914
0.925977 0.725447 0.377854
0.960343 0.716119 0.379388
0.266588 0.776328 0.342036
0.268951 0.776375 0.342157
0.277079 0.776328 0.342966
0.291035 0.776375 0.343077
0.314346 0.777401 0.345105
0.347079 0.777511 0.347061
0.388974 0.778356 0.349776
0.438952 0.779356 0.353552
0.496878 0.780757 0.358369
0.561927 0.782452 0.364285
0.633162 0.784429 0.370516
0.710948 0.787079 0.379137
0.792482 0.789938 0.388407
0.870058 0.788625 0.395449
0.932923 0.779878 0.398630
0.965835 0.769253 0.399169
0.291058 0.827440 0.366409
0.293238 0.827487 0.366540
0.300782 0.827440 0.367345
0.313743 0.827487 0.367465
0.334934 0.827462 0.368553
0.365129 0.828373 0.371025
0.404215 0.829366 0.373199
0.451529 0.830177 0.376589
0.506754 0.831430 0.380904
0.569217 0.832994 0.386175
0.637769 0.835060 0.392054
0.713758 0.836598 0.400090
0.792715 0.839809 0.407959
0.879273 0.842615 0.416835
0.940523 0.834338 0.420016
0.971741 0.822466 0.419608
0.312751 0.871944 0.387523
0.314654 0.871979 0.387636
0.321645 0.871944 0.387523
0.333495 0.872881 0.388550
0.351827 0.872671 0.389818
0.381145 0.872502 0.390955
0.416586 0.873572 0.393513
0.460792 0.874352 0.396507
0.512896 0.875382 0.400259
0.572187 0.876699 0.404996
0.638492 0.878100 0.410473
0.708846 0.879430 0.417008
0.787632 0.882237 0.425134
0.869531 0.885643 0.433134
0.948508 0.888668 0.441788
0.977804 0.875634 0.440518
0.329710 0.906101 0.403748
0.331401 0.906144 0.403746
0.338675 0.906101 0.404644
0.348414 0.906144 0.404712
0.366300 0.906674 0.405298
0.391750 0.907435 0.407089
0.425245 0.907571 0.409042
0.466481 0.908333 0.411695
0.515413 0.909181 0.415093
0.571405 0.910417 0.419297
0.633127 0.911847 0.423418
0.703224 0.913117 0.430397
0.776127 0.915554 0.437173
0.854703 0.917816 0.443995
0.934354 0.921021 0.452877
0.983363 0.923241 0.459671
-0.107174 -0.107464 -0.118767
-0.095758 -0.107080 -0.118425
0.018934 -0.106532 -0.121917
0.064707 -0.105886 -0.124641
0.111812 -0.104359 -0.123064
0.167489 -0.101404 -0.119426
0.233946 -0.096057 -0.113385
0.310710 -0.086902 -0.104249
0.397469 -0.070649 -0.089995
0.491136 -0.031568 -0.065767
0.588108 0.076382 0.058722
0.684770 0.108934 0.105023
0.777331 0.133045 0.130557
0.863998 0.151912 0.149578
0.935408 0.167999 0.164265
0.972164 0.177151 0.172614
-0.105835 -0.094895 -0.117598
-0.094171 -0.094441 -0.117253
0.021105 -0.093466 -0.118238
0.064707 -0.092659 -0.117655
0.112736 -0.090805 -0.116384
0.167608 -0.087207 -0.113865
0.234084 -0.080495 -0.109368
0.310852 -0.068296 -0.101897
0.397608 -0.041518 -0.089535
0.491195 0.063802 -0.067960
0.588240 0.097010 0.046707
0.683659 0.122394 0.101117
0.777252 0.144005 0.127874
0.864020 0.161154 0.148573
0.935325 0.175627 0.163523
0.972228 0.184192 0.172565
-0.099654 0.051311 -0.114699
-0.087182 0.053300 -0.111272
0.026740 0.057879 -0.109647
0.066813 -0.021251 -0.116046
0.113761 0.037057 -0.114520
0.167662 0.066819 -0.110162
0.233452 0.089503 -0.104537
0.309923 0.109179 -0.095358
0.396536 0.127562 -0.080229
0.490127 0.144602 -0.051155
0.587104 0.159469 0.076574
0.682558 0.176198 0.115737
0.776701 0.186593 0.133434
0.862444 0.198131 0.152426
0.934801 0.208358 0.168078
0.971987 0.213611 0.176420
-0.090328 0.136637 -0.110593
-0.075517 0.137184 -0.103355
0.032044 0.138770 -0.102021
0.070348 0.139316 -0.099733
0.113063 0.147634 -0.094352
0.163481 0.162184 -0.083595
0.228022 0.179175 -0.069355
0.304150 0.194545 -0.048246
0.390916 0.208887 0.063477
0.484775 0.221733 0.098352
0.582091 0.232461 0.121342
0.679087 0.242146 0.139142
0.772368 0.249566 0.155062
0.858216 0.256390 0.171341
0.932118 0.261719 0.182859
0.969863 0.263463 0.189483
-0.064659 0.208827 -0.092584
-0.034452 0.209119 -0.083585
0.054407 0.209854 -0.081669
0.084158 0.211170 -0.078401
0.119645 0.212670 -0.072117
0.169208 0.227197 -0.048033
0.231035 0.244350 0.075963
0.302860 0.261763 0.113562
0.386524 0.277992 0.134796
0.479207 0.291463 0.149559
0.575053 0.302032 0.162727
0.674283 0.310468 0.174516
0.766618 0.315350 0.186666
0.855174 0.318385 0.194057
0.927882 0.321309 0.203817
0.966639 0.320377 0.208345
0.044135 0.282490 -0.024597
0.055216 0.282639 0.057709
0.078579 0.282490 0.063698
0.104012 0.283641 0.072606
0.139078 0.284844 0.083165
0.176719 0.287143 0.094615
0.237452 0.304850 0.121261
0.308402 0.323037 0.145098
0.389246 0.340462 0.168143
0.477372 0.355959 0.188769
0.571307 0.367041 0.200617
0.667662 0.374625 0.210665
0.761000 0.381607 0.219317
0.846057 0.383585 0.225458
0.922724 0.382606 0.229740
0.962480 0.379642 0.232091
0.081324 0.358203 0.128680
0.087575 0.358339 0.132218
0.104752 0.358203 0.133517
0.128130 0.359298 0.136079
0.161548 0.360201 0.140547
0.200776 0.361181 0.146990
0.245612 0.363154 0.154034
0.315616 0.382799 0.173856
0.395618 0.401066 0.193744
0.482460 0.416842 0.213251
0.572605 0.428263 0.231749
0.664992 0.439107 0.245441
0.755115 0.444540 0.252523
0.841391 0.444964 0.256705
0.917259 0.443590 0.259128
0.957911 0.439169 0.259537
0.114470 0.434992 0.176769
0.118991 0.435043 0.177845
0.133785 0.434992 0.178696
0.155163 0.435043 0.180714
0.186867 0.436130 0.183359
0.225055 0.437233 0.188662
0.272255 0.439043 0.193875
0.324351 0.441107 0.201045
0.403404 0.460531 0.219323
0.489485 0.476783 0.237016
0.578816 0.489372 0.253374
0.667894 0.497850 0.270035
0.755155 0.504912 0.282378
0.837281 0.505281 0.289026
0.912729 0.503036 0.289879
0.953607 0.497611 0.289026
0.147174 0.511494 0.217866
0.150724 0.511508 0.217953
0.164087 0.511494 0.218817
0.183345 0.512466 0.219841
0.213819 0.512073 0.222513
0.252514 0.512920 0.226763
0.299455 0.514948 0.231039
0.352955 0.516732 0.237186
0.412638 0.519016 0.244649
0.497696 0.535991 0.261277
0.585354 0.548461 0.276704
0.674334 0.556895 0.291378
0.759154 0.562466 0.303243
0.838909 0.563920 0.314639
0.910956 0.560531 0.319177
0.950921 0.554438 0.318404
0.179298 0.585245 0.254952
0.182242 0.585306 0.254565
0.193385 0.585245 0.254952
0.212513 0.585306 0.256451
0.240884 0.586374 0.258206
0.279139 0.586992 0.261722
0.325496 0.588285 0.265741
0.379436 0.589823 0.271129
0.440276 0.591832 0.277792
0.507213 0.594394 0.285677
0.594744 0.606915 0.300333
0.683346 0.615079 0.312839
0.767109 0.619880 0.325348
0.845380 0.618840 0.334161
0.913875 0.616105 0.342171
0.951242 0.609449 0.344408
0.210208 0.654500 0.288573
0.212740 0.654499 0.288034
0.222924 0.654500 0.288573
0.239324 0.654499 0.289909
0.266908 0.656163 0.291168
0.303834 0.655731 0.294064
0.349168 0.657133 0.297721
0.402715 0.658522 0.302498
0.463507 0.660228 0.308441
0.530900 0.662478 0.315568
0.603578 0.664895 0.324360
0.691013 0.674602 0.336145
0.775588 0.677307 0.346218
0.852839 0.675900 0.355310
0.919654 0.670766 0.361174
0.955257 0.662835 0.363700
0.239523 0.718463 0.319015
0.241754 0.718522 0.318446
0.250715 0.719430 0.319015
0.267137 0.719487 0.319391
0.291849 0.718933 0.321374
0.326531 0.720040 0.323734
0.370443 0.720759 0.326991
0.422544 0.721950 0.331227
0.482380 0.723448 0.336523
0.549100 0.725522 0.342979
0.623545 0.728110 0.350531
0.702062 0.731027 0.359732
0.783664 0.733736 0.368908
0.860456 0.731756 0.375935
0.926003 0.725415 0.381026
0.960368 0.716127 0.382486
0.266649 0.776358 0.346225
0.268664 0.776387 0.345801
0.277138 0.776358 0.345308
0.290748 0.776387 0.346734
0.314220 0.777422 0.348622
0.346963 0.777532 0.350523
0.388813 0.778378 0.353293
0.438853 0.779363 0.357033
0.496769 0.780779 0.361781
0.561795 0.782474 0.367562
0.633030 0.784451 0.374815
0.710757 0.787101 0.382447
0.792508 0.789954 0.391334
0.870089 0.788634 0.397442
0.932950 0.779875 0.401538
0.965861 0.769262 0.402069
0.291159 0.827469 0.370171
0.293010 0.827507 0.369842
0.300884 0.827469 0.370171
0.313531 0.827507 0.370773
0.334853 0.827484 0.371793
0.364987 0.828395 0.373225
0.404102 0.829349 0.376475
0.451419 0.830199 0.379751
0.506665 0.831452 0.383971
0.569154 0.832945 0.389138
0.638833 0.835082 0.395119
0.713848 0.836620 0.402140
0.792744 0.839819 0.410589
0.879304 0.842629 0.419478
0.940519 0.834348 0.422655
0.971766 0.822480 0.422236
0.312848 0.871962 0.390821
0.314537 0.871936 0.390630
0.321719 0.871962 0.391745
0.333366 0.872904 0.391556
0.352764 0.872694 0.391815
0.380102 0.872525 0.393849
0.416471 0.873595 0.396466
0.460771 0.874375 0.399406
0.512818 0.875338 0.403114
0.572108 0.876722 0.407753
0.638425 0.878123 0.413313
0.708705 0.880372 0.419768
0.787663 0.882264 0.427590
0.869563 0.885663 0.434648
0.948538 0.888695 0.444244
0.977828 0.875609 0.442971
0.329733 0.906128 0.406638
0.331380 0.906170 0.406599
0.338698 0.906128 0.406638
0.348393 0.906170 0.407497
0.366286 0.906700 0.408111
0.391737 0.907371 0.409820
0.425233 0.907597 0.411796
0.466492 0.908358 0.414420
0.515401 0.909206 0.417804
0.571407 0.910442 0.421940
0.633117 0.911872 0.426128
0.703227 0.913143 0.433056
0.776049 0.915539 0.439525
0.854736 0.917843 0.447227
0.934375 0.921005 0.455233
0.983387 0.923268 0.461983
-0.106310 -0.106603 0.077046
-0.096892 -0.106271 0.077867
0.009879 -0.105106 0.081974
0.064707 -0.105513 -0.053575
0.112011 -0.103944 -0.040560
0.168122 -0.101518 0.069146
0.236017 -0.098344 0.103159
0.313401 -0.091583 0.125906
0.400348 -0.078786 0.144951
0.493786 -0.052554 0.161428
0.590083 0.064392 0.176631
0.686486 0.103520 0.189194
0.779013 0.127496 0.198499
0.863003 0.152711 0.209936
0.935890 0.166765 0.216557
0.972408 0.176893 0.220380
-0.105184 -0.096268 0.079759
-0.093129 -0.093399 0.081225
0.017340 -0.092036 0.084687
0.065410 -0.092228 -0.033085
0.112585 -0.090558 0.048879
0.169206 -0.088528 0.086140
0.236690 -0.084272 0.109082
0.313642 -0.075045 0.128069
0.400401 -0.055935 0.145125
0.493777 0.045446 0.160578
0.590107 0.089428 0.174891
0.685236 0.119415 0.188325
0.778962 0.138775 0.198021
0.863023 0.161000 0.208944
0.935837 0.174666 0.216093
0.972423 0.184035 0.220333
-0.099469 0.056146 0.089361
-0.086742 0.057546 0.090177
0.029072 0.061613 0.093280
0.071064 0.059734 0.096059
0.116327 0.063486 0.096882
0.170136 0.071167 0.100591
0.235517 0.082007 0.107628
0.311786 0.095077 0.117151
0.398147 0.110284 0.128895
0.491560 0.126526 0.141948
0.587714 0.141457 0.154923
0.685186 0.158462 0.168872
0.777448 0.173647 0.182132
0.863077 0.187139 0.193306
0.935540 0.198608 0.204067
0.972418 0.205787 0.210447
-0.089268 0.137384 0.042398
-0.074202 0.137894 0.067914
0.041314 0.139524 0.104750
0.071064 0.141091 0.107214
0.114024 0.152788 0.114648
0.164704 0.165188 0.123077
0.229150 0.178019 0.131136
0.305581 0.190257 0.139532
0.392453 0.202192 0.149403
0.486381 0.213460 0.160409
0.583727 0.223779 0.173393
0.680841 0.232926 0.182449
0.774474 0.241733 0.194283
0.861631 0.246577 0.202621
0.932865 0.254929 0.214257
0.970531 0.257728 0.219734
-0.062887 0.209223 0.097416
-0.029960 0.209476 0.106519
0.058481 0.210255 0.124688
0.086383 0.210519 0.126920
0.119803 0.212530 0.129610
0.170197 0.227655 0.140175
0.231244 0.244223 0.152757
0.303015 0.260195 0.167101
0.387135 0.274836 0.178234
0.480147 0.287096 0.187808
0.576874 0.296886 0.197327
0.675270 0.305083 0.205931
0.767439 0.310759 0.215317
0.854750 0.313428 0.222228
0.928702 0.316736 0.230512
0.967212 0.316415 0.234534
0.045270 0.282767 0.139709
0.056080 0.282935 0.144644
0.079863 0.283763 0.150311
0.105776 0.283954 0.152347
0.138462 0.285909 0.154660
0.177685 0.286399 0.159312
0.237682 0.304912 0.171936
0.308536 0.322303 0.186131
0.389264 0.338899 0.201982
0.477540 0.353534 0.216998
0.572407 0.364512 0.227600
0.667831 0.373207 0.235013
0.760438 0.378360 0.242416
0.849196 0.378871 0.246644
0.923346 0.379350 0.251861
0.963010 0.376873 0.254197
0.081964 0.358486 0.178361
0.088172 0.358598 0.180645
0.104654 0.359454 0.179307
0.127965 0.359566 0.180645
0.161732 0.360408 0.183901
0.200897 0.360932 0.187574
0.245821 0.363382 0.192475
0.315748 0.382531 0.206634
0.395674 0.400223 0.221867
0.482394 0.415393 0.237659
0.572643 0.428389 0.254023
0.666111 0.436733 0.264091
0.755739 0.441322 0.269824
0.843202 0.442991 0.274229
0.917775 0.441322 0.277339
0.958355 0.437204 0.277996
0.114984 0.435215 0.214666
0.119460 0.435262 0.215534
0.131871 0.435215 0.209923
0.153963 0.435262 0.211742
0.185842 0.436281 0.213771
0.225234 0.437393 0.217704
0.272125 0.439169 0.222307
0.324538 0.441267 0.228133
0.403457 0.460246 0.243092
0.489402 0.476038 0.258156
0.578879 0.487129 0.272327
0.667815 0.497139 0.286401
0.754358 0.501459 0.296692
0.838997 0.503841 0.302650
0.913171 0.501459 0.305163
0.953967 0.496188 0.304515
0.147602 0.511634 0.249504
0.151130 0.511729 0.249543
0.161108 0.512593 0.242890
0.181139 0.512655 0.244824
0.212299 0.513134 0.246626
0.251329 0.513941 0.249155
0.298766 0.515034 0.253232
0.352703 0.516810 0.258590
0.412742 0.519113 0.265155
0.497774 0.535727 0.279756
0.585496 0.547653 0.293362
0.674434 0.556613 0.306021
0.759420 0.561414 0.318372
0.839094 0.562909 0.327995
0.911129 0.559537 0.332376
0.951131 0.553452 0.331745
0.179684 0.585427 0.282299
0.182621 0.585467 0.281901
0.191971 0.585427 0.274761
0.209269 0.586408 0.275332
0.238908 0.586477 0.277258
0.277517 0.587095 0.280263
0.324370 0.588347 0.283827
0.378769 0.589891 0.288732
0.439947 0.591912 0.294786
0.507327 0.594502 0.302009
0.593245 0.606996 0.314464
0.683425 0.615196 0.327285
0.767080 0.619114 0.338551
0.845394 0.618122 0.347088
0.913908 0.615369 0.354363
0.951256 0.608731 0.356356
0.210550 0.654651 0.312540
0.213074 0.654690 0.311982
0.220518 0.654651 0.305033
0.237803 0.654690 0.305418
0.265545 0.655318 0.307369
0.301869 0.655756 0.309012
0.347713 0.657188 0.312972
0.401651 0.658518 0.317418
0.462865 0.660297 0.322997
0.530585 0.662529 0.329622
0.604008 0.664964 0.337004
0.690686 0.673742 0.348301
0.775580 0.675821 0.358480
0.852838 0.675401 0.366456
0.919645 0.670238 0.372441
0.955256 0.662344 0.374850
0.239826 0.718510 0.340185
0.242029 0.718566 0.339621
0.249151 0.718510 0.332705
0.264581 0.718566 0.334012
0.289384 0.718929 0.334621
0.324335 0.720148 0.337710
0.368851 0.720754 0.340227
0.421286 0.721979 0.344225
0.481447 0.723489 0.349265
0.548500 0.725524 0.355387
0.621427 0.728148 0.362348
0.700297 0.731030 0.371200
0.783684 0.734230 0.379417
0.860486 0.731494 0.386452
0.926026 0.724966 0.391508
0.960394 0.715729 0.392928
0.266913 0.776423 0.364972
0.268963 0.776458 0.364458
0.274543 0.776423 0.358483
0.289097 0.776458 0.358903
0.312658 0.777467 0.360412
0.345660 0.777565 0.362113
0.387178 0.778422 0.365052
0.437465 0.779397 0.368648
0.495672 0.780814 0.373225
0.561015 0.782514 0.378710
0.631854 0.784486 0.385288
0.711072 0.787140 0.393570
0.792544 0.790621 0.401913
0.870117 0.786438 0.407119
0.932989 0.779575 0.411189
0.965884 0.768989 0.411724
0.291387 0.827616 0.386786
0.293310 0.827653 0.386367
0.299150 0.827616 0.381160
0.311838 0.827653 0.381728
0.333388 0.827531 0.383407
0.363769 0.828400 0.384716
0.402651 0.829396 0.387147
0.450138 0.830204 0.390285
0.505578 0.831462 0.394430
0.568268 0.832998 0.399363
0.637712 0.835089 0.405504
0.712852 0.836673 0.412340
0.792723 0.839761 0.419652
0.879294 0.843444 0.429419
0.940499 0.834290 0.431714
0.971718 0.822424 0.431272
0.313042 0.872039 0.405465
0.314802 0.872077 0.405261
0.319925 0.872940 0.401769
0.331610 0.872979 0.401549
0.351553 0.872681 0.402696
0.378964 0.872576 0.404577
0.415226 0.873647 0.406397
0.459555 0.874426 0.409199
0.511828 0.875391 0.412812
0.571300 0.876777 0.417271
0.637373 0.878176 0.423012
0.708967 0.880427 0.428349
0.786468 0.882237 0.436054
0.869663 0.885658 0.444030
0.948523 0.888669 0.452679
0.977908 0.875604 0.451416
0.329959 0.906226 0.419813
0.331603 0.906217 0.419706
0.335944 0.906226 0.416138
0.347627 0.906217 0.416933
0.365233 0.906709 0.418433
0.390798 0.907407 0.419079
0.424161 0.907607 0.421208
0.465506 0.908304 0.423715
0.514570 0.909264 0.427023
0.570689 0.910410 0.431002
0.634508 0.911931 0.436273
0.702463 0.913203 0.441172
0.776109 0.915543 0.447639
0.854834 0.917938 0.455164
0.934333 0.921009 0.463345
0.983458 0.923362 0.469918
-0.104975 -0.105274 0.177328
-0.097716 -0.105013 0.177474
-0.049684 -0.103911 0.178296
0.062616 -0.102673 0.179401
0.119138 -0.109230 0.196756
0.190738 -0.125538 0.220978
0.258428 -0.128332 0.229041
0.333146 -0.125684 0.237083
0.417505 -0.119153 0.246172
0.508734 -0.107647 0.255059
0.603052 -0.086040 0.262216
0.697831 -0.051914 0.270145
0.787857 0.083303 0.275943
0.873752 0.119283 0.279661
0.942599 0.141579 0.281585
0.977353 0.155579 0.281533
-0.104104 -0.097319 0.177832
-0.091518 -0.091794 0.178315
-0.035409 -0.090508 0.178778
0.064009 -0.089092 0.181183
0.118370 -0.094891 0.198882
0.189873 -0.114559 0.221379
0.258465 -0.118363 0.230202
0.333181 -0.115396 0.237470
0.417439 -0.107798 0.245944
0.508612 -0.094096 0.254441
0.602974 -0.066462 0.261983
0.697707 0.047980 0.269519
0.787794 0.103316 0.274640
0.873759 0.131330 0.279616
0.942536 0.151598 0.281227
0.977358 0.164210 0.281496
-0.100246 -0.039134 0.179860
-0.087066 -0.019453 0.180292
0.031444 0.064392 0.181780
0.066813 0.066573 0.182182
0.116817 0.063299 0.200693
0.187945 -0.053234 0.222463
0.256625 -0.062085 0.226350
0.330988 -0.051140 0.230987
0.415048 0.030072 0.237696
0.506224 0.076738 0.245162
0.600408 0.107565 0.252815
0.696315 0.128703 0.259319
0.786590 0.149058 0.266201
0.871643 0.166889 0.270562
0.941412 0.182680 0.274670
0.976729 0.191938 0.276217
-0.089404 0.139529 0.183529
-0.074154 0.139903 0.183781
0.041952 0.140589 0.184493
0.071782 0.142035 0.185693
0.118428 0.142253 0.191987
0.180721 0.136245 0.192612
0.243539 0.141186 0.191030
0.317882 0.147952 0.193544
0.402957 0.156626 0.198347
0.495384 0.166967 0.204834
0.591803 0.178665 0.212604
0.686988 0.192020 0.221937
0.779902 0.200951 0.229248
0.864151 0.214412 0.238927
0.936567 0.223575 0.246290
0.973248 0.229789 0.251211
-0.061603 0.210374 0.194181
-0.026101 0.210632 0.196300
0.059165 0.211420 0.200852
0.082679 0.211661 0.193436
0.120953 0.212359 0.194064
0.170035 0.223087 0.198885
0.231644 0.234907 0.204556
0.306746 0.245523 0.209356
0.393039 0.255733 0.215004
0.486575 0.265167 0.221504
0.583234 0.273907 0.229209
0.681060 0.282263 0.236664
0.772290 0.286418 0.244063
0.859351 0.291554 0.250754
0.932992 0.295432 0.257279
0.970624 0.296537 0.261135
0.046506 0.283565 0.217375
0.057062 0.283742 0.219258
0.080528 0.283565 0.222115
0.099936 0.284736 0.206912
0.135894 0.285605 0.208100
0.177295 0.288055 0.211556
0.237576 0.301590 0.218549
0.308103 0.315998 0.227681
0.388926 0.330277 0.238337
0.479608 0.342266 0.246228
0.575425 0.351020 0.252512
0.672388 0.358019 0.259444
0.765884 0.363138 0.265442
0.851989 0.364158 0.269834
0.927225 0.365076 0.274867
0.966026 0.363195 0.277349
0.082814 0.359071 0.244601
0.088967 0.359144 0.245759
0.105547 0.359071 0.245546
0.119959 0.359144 0.224949
0.156146 0.360757 0.227140
0.198147 0.361419 0.230347
0.246213 0.363709 0.233752
0.315661 0.380047 0.243579
0.395285 0.395590 0.254859
0.481935 0.409206 0.267204
0.572252 0.419943 0.278407
0.666770 0.428646 0.286040
0.758896 0.432367 0.290454
0.845261 0.432374 0.294202
0.920734 0.431409 0.297038
