presentation/src/main/assets/luts/frost.cube
LUT_3D_SIZE 6
-0.107426 -0.107714 -0.133961
0.064009 -0.105973 -0.134614
0.233882 -0.096177 -0.127870
0.491109 -0.032350 -0.098313
0.777316 0.132946 0.101705
0.972152 0.177062 0.158764
-0.090581 0.136449 -0.121050
0.070348 0.139943 -0.117690
0.228000 0.177894 -0.096747
0.484767 0.222171 0.032088
0.772308 0.250950 0.139457
0.969831 0.263580 0.178446
0.081160 0.358168 0.111579
0.128426 0.359203 0.116958
0.245554 0.363082 0.139487
0.482419 0.416845 0.205236
0.755130 0.443646 0.246456
0.957878 0.439239 0.253408
0.179218 0.585216 0.248413
0.212698 0.585262 0.250480
0.325515 0.588260 0.260172
0.507159 0.594366 0.280722
0.767087 0.619907 0.320724
0.951209 0.609447 0.340774
0.266588 0.776328 0.342036
0.291035 0.776375 0.343077
0.388974 0.778356 0.349776
0.561927 0.782452 0.364285
0.792482 0.789938 0.388407
0.965835 0.769253 0.399169
0.329710 0.906101 0.403748
0.348414 0.906144 0.404712
0.425245 0.907571 0.409042
0.571405 0.910417 0.419297
0.776127 0.915554 0.437173
0.983363 0.923241 0.459671
-0.104975 -0.105274 0.177328
0.062616 -0.102673 0.179401
0.258428 -0.128332 0.229041
0.508734 -0.107647 0.255059
0.787857 0.083303 0.275943
0.977353 0.155579 0.281533
-0.089404 0.139529 0.183529
0.071782 0.142035 0.185693
0.243539 0.141186 0.191030
0.495384 0.166967 0.204834
0.779902 0.200951 0.229248
0.973248 0.229789 0.251211
0.082814 0.359071 0.244601
0.119959 0.359144 0.224949
0.246213 0.363709 0.233752
0.481935 0.409206 0.267204
0.758896 0.432367 0.290454
0.960912 0.427537 0.297955
0.180256 0.585770 0.329771
0.200866 0.585809 0.299558
0.319246 0.588369 0.307801
0.507500 0.594646 0.324334
0.766889 0.615995 0.356050
0.951593 0.605390 0.371836
0.267362 0.776738 0.400376
0.281815 0.776708 0.376731
0.381039 0.778399 0.381586
0.557873 0.782525 0.394485
0.794854 0.790695 0.416728
0.965764 0.767900 0.425444
0.330261 0.906341 0.446142
0.341962 0.906381 0.430398
0.419278 0.907611 0.434598
0.567216 0.910412 0.443957
0.775496 0.915643 0.459471
0.983482 0.923507 0.481538
-0.089155 -0.089540 0.429644
0.086383 -0.084941 0.430611
0.231042 -0.063335 0.434870
0.548588 -0.192693 0.532663
0.849884 -0.217517 0.526754
1.000863 -0.173095 0.495689
-0.062194 0.174703 0.431482
0.081204 0.152913 0.432486
0.233447 0.163766 0.436199
0.549275 -0.129562 0.520994
0.841617 -0.145846 0.507510
0.999194 -0.016538 0.482650
0.084831 0.362747 0.439735
0.122064 0.362848 0.440718
0.248634 0.367036 0.443426
0.532577 0.352214 0.462332
0.805913 0.365559 0.456556
0.986737 0.378275 0.461718
0.182522 0.588087 0.509248
0.202282 0.588127 0.500902
0.296903 0.589583 0.472227
0.509381 0.596238 0.481807
0.766236 0.606688 0.496744
0.962782 0.593225 0.497488
0.269566 0.778177 0.554908
0.283083 0.778214 0.545548
0.357972 0.779118 0.514201
0.546793 0.783275 0.522764
0.795522 0.792244 0.538413
0.966191 0.765720 0.543248
0.332076 0.907422 0.573204
0.344736 0.907463 0.564943
0.408011 0.908362 0.549745
0.559483 0.911156 0.556347
0.771540 0.916436 0.568292
0.984158 0.924235 0.584090
0.027516 0.047294 0.675480
0.117336 0.063281 0.675479
0.275802 0.099925 0.679006
0.485885 0.137749 0.687604
0.862872 -0.253714 0.768487
1.048299 -0.297386 0.732240
0.056002 0.216006 0.676602
0.100352 0.176358 0.676592
0.269923 0.188105 0.679433
0.486786 0.207080 0.687972
0.862872 -0.215363 0.763062
1.046282 -0.263457 0.725101
0.114187 0.410531 0.681526
0.142365 0.402673 0.681514
0.255553 0.373617 0.682345
0.492683 0.382834 0.690278
0.862872 0.298617 0.747670
1.034755 0.281876 0.705050
0.184161 0.591793 0.692469
0.203944 0.591831 0.693438
0.298671 0.593842 0.694263
0.512967 0.599749 0.700013
0.845272 0.580957 0.732823
1.010977 0.582463 0.719982
0.271367 0.780905 0.726544
0.284881 0.780942 0.722933
0.360100 0.781962 0.713726
0.551272 0.786151 0.720037
0.798150 0.794226 0.729420
0.977632 0.773533 0.728810
0.334386 0.909398 0.726062
0.346079 0.910327 0.722350
0.410309 0.910225 0.715620
0.586299 0.913822 0.741662
0.787623 0.919433 0.749818
0.985670 0.926282 0.759204
0.085090 0.141239 0.930058
0.144663 0.144835 0.930996
0.295877 0.161415 0.932473
0.506496 0.190726 0.937267
0.774396 0.206105 0.951446
1.035383 -0.286902 0.940168
0.097995 0.245673 0.930814
0.127840 0.209306 0.930835
0.287007 0.219106 0.932732
0.502741 0.239026 0.937520
0.774301 0.250058 0.951383
1.035823 -0.257236 0.937456
0.140780 0.429677 0.933863
0.163940 0.417885 0.933017
0.267942 0.385086 0.934328
0.495682 0.394463 0.939296
0.776016 0.404090 0.952101
1.035283 0.260173 0.930712
0.201979 0.611067 0.940190
0.219100 0.607266 0.940218
0.307140 0.598053 0.940844
0.519566 0.605261 0.945375
0.784928 0.613997 0.955239
1.024914 0.566865 0.936862
0.275005 0.785509 0.951151
0.289535 0.785546 0.951188
0.363177 0.786842 0.952246
0.554032 0.790707 0.955589
0.804552 0.797712 0.963463
0.997108 0.790099 0.997780
0.335444 0.912155 0.887021
0.347132 0.912193 0.884313
0.411467 0.913045 0.881471
0.587261 0.916516 0.897394
0.826012 0.923785 0.972208
0.993209 0.926330 0.988779
0.115493 0.182962 1.119621
0.160741 0.185303 1.119978
0.291043 0.195192 1.121968
0.482431 0.214831 1.126714
0.724667 0.234803 1.138458
1.006268 -0.227074 1.227955
0.124392 0.259635 1.120121
0.149289 0.235249 1.120245
0.284079 0.242020 1.122090
0.478286 0.256673 1.126837
0.722114 0.274045 1.138059
1.005978 -0.180498 1.227682
0.157434 0.423241 1.122063
0.178942 0.414490 1.122050
0.279536 0.395798 1.123241
0.475256 0.403126 1.128087
0.720688 0.414203 1.137488
1.004113 0.322007 1.226021
0.209428 0.593554 1.126189
0.225670 0.588865 1.126197
0.312841 0.582414 1.127180
0.525963 0.610572 1.132894
0.747132 0.616190 1.142255
0.999949 0.583923 1.221037
0.274362 0.759493 1.133468
0.287922 0.757711 1.133584
0.361105 0.755893 1.134333
0.554576 0.768617 1.138540
0.807465 0.800426 1.149553
0.996736 0.788895 1.211908
0.347175 0.916726 1.144918
0.358878 0.916767 1.145046
0.421202 0.917833 1.145805
0.594413 0.921015 1.148570
0.830067 0.926480 1.154333
0.993353 0.926726 1.193419
