presentation/src/main/assets/luts/kodak.cube
TITLE "Kodak 64 (Test LUT)"
LUT_3D_SIZE 17
DOMAIN_MIN 0.0 0.0 0.0
DOMAIN_MAX 1.0 1.0 1.0
0.000000 0.000000 0.000000
0.000000 0.000000 0.000000
0.088411 0.000000 0.000000
0.188175 0.000000 0.000000
0.286216 0.000000 0.000000
0.382907 0.000000 0.000000
0.478266 0.000000 0.000000
0.572150 0.000000 0.000000
0.664356 0.000000 0.000000
0.754665 0.000000 0.000000
0.842880 0.000000 0.000000
0.928840 0.000000 0.000000
1.000000 0.000000 0.000000
1.000000 0.000000 0.000000
1.000000 0.000000 0.000000
1.000000 0.000000 0.000000
1.000000 0.000000 0.000000
0.000000 0.000000 0.000000
0.000000 0.000000 0.000000
0.078929 0.000000 0.000000
0.178899 0.000000 0.000000
0.277077 0.000000 0.000000
0.373891 0.000000 0.000000
0.469379 0.000000 0.000000
0.563409 0.000000 0.000000
0.655782 0.000000 0.000000
0.746279 0.000000 0.000000
0.834697 0.000000 0.000000
0.920874 0.000000 0.000000
1.000000 0.000000 0.000000
1.000000 0.000000 0.000000
1.000000 0.000000 0.000000
1.000000 0.000000 0.000000
1.000000 0.000000 0.000000
0.000000 0.045824 0.000000
0.000000 0.041501 0.000000
0.069419 0.037178 0.000000
0.169608 0.032854 0.000000
0.267926 0.028531 0.000000
0.364863 0.024207 0.000000
0.460479 0.019882 0.000000
0.554654 0.015557 0.000000
0.647192 0.011231 0.000000
0.737873 0.006905 0.000000
0.826495 0.002577 0.000000
0.912888 0.000000 0.000000
0.996937 0.000000 0.000000
1.000000 0.000000 0.000000
1.000000 0.000000 0.000000
1.000000 0.000000 0.000000
1.000000 0.000000 0.000000
0.000000 0.132196 0.000000
0.000000 0.127863 0.000000
0.059880 0.123531 0.000000
0.160301 0.119200 0.000000
0.258764 0.114870 0.000000
0.355824 0.110540 0.000000
0.451567 0.106211 0.000000
0.545885 0.101883 0.000000
0.638585 0.097555 0.000000
0.729450 0.093228 0.000000
0.818273 0.088902 0.000000
0.904881 0.084576 0.000000
0.989153 0.080250 0.000000
1.000000 0.075925 0.000000
1.000000 0.071600 0.000000
1.000000 0.067276 0.000000
1.000000 0.062952 0.000000
0.000000 0.218845 0.000000
0.000000 0.214497 0.000000
0.050310 0.210149 0.000000
0.150977 0.205803 0.000000
0.249590 0.201457 0.000000
0.346773 0.197112 0.000000
0.442642 0.192768 0.000000
0.537101 0.188424 0.000000
0.629963 0.184081 0.000000
0.721009 0.179739 0.000000
0.810031 0.175398 0.000000
0.896853 0.171058 0.000000
0.981348 0.166718 0.000000
1.000000 0.162379 0.000000
1.000000 0.158041 0.000000
1.000000 0.153704 0.000000
1.000000 0.149368 0.000000
0.000000 0.305762 0.000000
0.000000 0.301403 0.000000
0.040706 0.297045 0.000000
0.141637 0.292687 0.000000
0.240403 0.288330 0.000000
0.337710 0.283973 0.000000
0.433705 0.279616 0.000000
0.528304 0.275260 0.000000
0.621324 0.270904 0.000000
0.712550 0.266549 0.000000
0.801770 0.262194 0.000000
0.888804 0.257840 0.000000
0.973521 0.253486 0.000000
1.000000 0.249133 0.000000
1.000000 0.244780 0.000000
1.000000 0.240428 0.000000
1.000000 0.236077 0.000000
0.000000 0.392786 0.000000
0.000000 0.388427 0.000000
0.031064 0.384068 0.000000
0.132278 0.379709 0.000000
0.231204 0.375350 0.000000
0.328637 0.370990 0.000000
0.424756 0.366631 0.000000
0.519492 0.362271 0.000000
0.612670 0.357911 0.000000
0.704073 0.353551 0.000000
0.793490 0.349191 0.000000
0.880736 0.344831 0.000000
0.965674 0.340471 0.000000
1.000000 0.336111 0.000000
1.000000 0.331751 0.000000
1.000000 0.327391 0.000000
1.000000 0.323031 0.000000
0.000000 0.479677 0.000000
0.000000 0.475332 0.000000
0.021381 0.470985 0.000000
0.122900 0.466638 0.000000
0.221992 0.462289 0.000000
0.319552 0.457940 0.000000
0.415794 0.453590 0.000000
0.510667 0.449239 0.000000
0.604000 0.444887 0.000000
0.695579 0.440535 0.000000
0.785190 0.436182 0.000000
0.872646 0.431828 0.000000
0.957806 0.427473 0.000000
1.000000 0.423118 0.000000
1.000000 0.418763 0.000000
1.000000 0.414407 0.000000
1.000000 0.410050 0.000000
0.000000 0.566157 0.000000
0.000000 0.561839 0.000000
0.011653 0.557520 0.000000
0.113503 0.553198 0.000000
0.212767 0.548875 0.000000
0.310455 0.544551 0.000000
0.406821 0.540224 0.000000
0.501828 0.535896 0.000000
0.595314 0.531567 0.000000
0.687067 0.527236 0.000000
0.776872 0.522904 0.000000
0.864537 0.518570 0.000000
0.949916 0.514235 0.000000
1.000000 0.509899 0.000000
1.000000 0.505562 0.000000
1.000000 0.501223 0.000000
1.000000 0.496883 0.000000
0.000000 0.651934 0.000000
0.000000 0.647658 0.000000
0.001875 0.643380 0.000000
0.104084 0.639099 0.000000
0.203528 0.634816 0.000000
0.301347 0.630530 0.000000
0.397836 0.626243 0.000000
0.492976 0.621953 0.000000
0.586613 0.617660 0.000000
0.678538 0.613366 0.000000
0.768534 0.609069 0.000000
0.856407 0.604771 0.000000
0.942006 0.600470 0.000000
1.000000 0.596167 0.000000
1.000000 0.591862 0.000000
1.000000 0.587555 0.000000
1.000000 0.583246 0.000000
0.000000 0.736721 0.000000
0.000000 0.732501 0.000000
0.000000 0.728278 0.000000
0.094642 0.724052 0.000000
0.194276 0.719823 0.000000
0.292227 0.715591 0.000000
0.388839 0.711356 0.000000
0.484111 0.707118 0.000000
0.577898 0.702877 0.000000
0.669992 0.698633 0.000000
0.760178 0.694387 0.000000
0.848258 0.690137 0.000000
0.934075 0.685885 0.000000
1.000000 0.681630 0.000000
1.000000 0.677372 0.000000
1.000000 0.673112 0.000000
1.000000 0.668848 0.000000
0.000000 0.820257 0.000000
0.000000 0.816106 0.000000
0.000000 0.811951 0.000000
0.085176 0.807792 0.000000
0.185009 0.803629 0.000000
0.283096 0.799463 0.000000
0.379830 0.795294 0.000000
0.475232 0.791121 0.000000
0.569167 0.786944 0.000000
0.661430 0.782764 0.000000
0.751804 0.778580 0.000000
0.840088 0.774393 0.000000
0.926123 0.770203 0.000000
1.000000 0.766009 0.000000
1.000000 0.761812 0.000000
1.000000 0.757611 0.000000
1.000000 0.753407 0.000000
0.000000 0.902316 0.000000
0.000000 0.898244 0.000000
0.000000 0.894167 0.000000
0.075685 0.890086 0.000000
0.175728 0.886001 0.000000
0.273954 0.881911 0.000000
0.370810 0.877818 0.000000
0.466341 0.873721 0.000000
0.560421 0.869620 0.000000
0.652851 0.865514 0.000000
0.743410 0.861405 0.000000
0.831899 0.857292 0.000000
0.918150 0.853174 0.000000
1.000000 0.849053 0.000000
1.000000 0.844928 0.000000
1.000000 0.840799 0.000000
1.000000 0.836667 0.000000
0.000000 0.982721 0.000000
0.000000 0.978735 0.000000
0.000000 0.974744 0.000000
0.066165 0.970748 0.000000
0.166431 0.966749 0.000000
0.264799 0.962744 0.000000
0.361778 0.958736 0.000000
0.457437 0.954723 0.000000
0.551662 0.950705 0.000000
0.644255 0.946684 0.000000
0.734999 0.942657 0.000000
0.823689 0.938627 0.000000
0.910156 0.934592 0.000000
0.994281 0.930553 0.000000
1.000000 0.926510 0.000000
1.000000 0.922462 0.000000
1.000000 0.918410 0.000000
0.000000 1.000000 0.000000
0.000000 1.000000 0.000000
0.000000 1.000000 0.000000
0.056616 1.000000 0.000000
0.157119 1.000000 0.000000
0.255633 1.000000 0.000000
0.352734 1.000000 0.000000
0.448521 1.000000 0.000000
0.542887 1.000000 0.000000
0.635643 1.000000 0.000000
0.726570 1.000000 0.000000
0.815460 1.000000 0.000000
0.902142 1.000000 0.000000
0.986490 1.000000 0.000000
1.000000 1.000000 0.000000
1.000000 1.000000 0.000000
1.000000 0.998470 0.000000
0.000000 1.000000 0.000000
0.000000 1.000000 0.000000
0.000000 1.000000 0.000000
0.047034 1.000000 0.000000
0.147790 1.000000 0.000000
0.246454 1.000000 0.000000
0.343680 1.000000 0.000000
0.439592 1.000000 0.000000
0.534099 1.000000 0.000000
0.627015 1.000000 0.000000
0.718122 1.000000 0.000000
0.807212 1.000000 0.000000
0.894107 1.000000 0.000000
0.978678 1.000000 0.000000
1.000000 1.000000 0.000000
1.000000 1.000000 0.000000
1.000000 1.000000 0.000000
0.000000 1.000000 0.000000
0.000000 1.000000 0.000000
0.000000 1.000000 0.000000
0.037418 1.000000 0.000000
0.138443 1.000000 0.000000
0.237263 1.000000 0.000000
0.334613 1.000000 0.000000
0.430651 1.000000 0.000000
0.525296 1.000000 0.000000
0.618371 1.000000 0.000000
0.709657 1.000000 0.000000
0.798945 1.000000 0.000000
0.886051 1.000000 0.000000
0.970844 1.000000 0.000000
1.000000 1.000000 0.000000
1.000000 1.000000 0.000000
1.000000 1.000000 0.000000
0.000000 0.000000 0.000000
0.000000 0.000000 0.000000
0.086572 0.000000 0.000000
0.186375 0.000000 0.000000
0.284442 0.000000 0.000000
0.381157 0.000000 0.000000
0.476541 0.000000 0.000000
0.570454 0.000000 0.000000
0.662692 0.000000 0.000000
0.753038 0.000000 0.000000
0.841292 0.000000 0.000000
0.927295 0.000000 0.000000
1.000000 0.000000 0.000000
1.000000 0.000000 0.000000
1.000000 0.000000 0.000000
1.000000 0.000000 0.000000
1.000000 0.000000 0.000000
0.000000 0.000000 0.000000
0.000000 0.000000 0.000000
0.077084 0.000000 0.000000
0.177096 0.000000 0.000000
0.275301 0.000000 0.000000
0.372139 0.000000 0.000000
0.467651 0.000000 0.000000
0.561710 0.000000 0.000000
0.654115 0.000000 0.000000
0.744648 0.000000 0.000000
0.833106 0.000000 0.000000
0.919325 0.000000 0.000000
1.000000 0.000000 0.000000
1.000000 0.000000 0.000000
1.000000 0.000000 0.000000
1.000000 0.000000 0.000000
1.000000 0.000000 0.000000
0.000000 0.044176 0.000000
0.000000 0.039853 0.000000
0.067569 0.035529 0.000000
0.167802 0.031206 0.000000
0.266148 0.026882 0.000000
0.363109 0.022558 0.000000
0.458749 0.018233 0.000000
0.552952 0.013908 0.000000
0.645522 0.009582 0.000000
0.736239 0.005255 0.000000
0.824899 0.000927 0.000000
0.911334 0.000000 0.000000
0.995427 0.000000 0.000000
1.000000 0.000000 0.000000
1.000000 0.000000 0.000000
1.000000 0.000000 0.000000
1.000000 0.000000 0.000000
0.000000 0.130544 0.000000
0.000000 0.126211 0.000000
0.058024 0.121880 0.000000
0.158491 0.117549 0.000000
0.256983 0.113219 0.000000
0.354067 0.108890 0.000000
0.449835 0.104561 0.000000
0.544180 0.100233 0.000000
0.636912 0.095905 0.000000
0.727812 0.091578 0.000000
0.816674 0.087252 0.000000
0.903323 0.082926 0.000000
0.987639 0.078601 0.000000
1.000000 0.074276 0.000000
1.000000 0.069952 0.000000
1.000000 0.065628 0.000000
1.000000 0.061304 0.000000
0.000000 0.217187 0.000000
0.000000 0.212839 0.000000
0.048448 0.208492 0.000000
0.149165 0.204146 0.000000
0.247806 0.199800 0.000000
0.345014 0.195455 0.000000
0.440907 0.191111 0.000000
0.535394 0.186768 0.000000
0.628286 0.182426 0.000000
0.719367 0.178084 0.000000
0.808428 0.173743 0.000000
0.895291 0.169403 0.000000
0.979829 0.165064 0.000000
1.000000 0.160725 0.000000
1.000000 0.156387 0.000000
1.000000 0.152051 0.000000
1.000000 0.147714 0.000000
0.000000 0.304100 0.000000
0.000000 0.299742 0.000000
0.038836 0.295384 0.000000
0.139821 0.291026 0.000000
0.238617 0.286669 0.000000
0.335949 0.282312 0.000000
0.431968 0.277955 0.000000
0.526594 0.273599 0.000000
0.619645 0.269243 0.000000
0.710905 0.264888 0.000000
0.800163 0.260534 0.000000
0.887239 0.256180 0.000000
0.971999 0.251826 0.000000
1.000000 0.247473 0.000000
1.000000 0.243121 0.000000
1.000000 0.238769 0.000000
1.000000 0.234418 0.000000
0.000000 0.391124 0.000000
0.000000 0.386765 0.000000
0.029187 0.382406 0.000000
0.130458 0.378047 0.000000
0.229416 0.373688 0.000000
0.326873 0.369328 0.000000
0.423016 0.364968 0.000000
0.517779 0.360608 0.000000
0.610987 0.356248 0.000000
0.702425 0.351888 0.000000
0.791879 0.347528 0.000000
0.879166 0.343168 0.000000
0.964148 0.338808 0.000000
1.000000 0.334448 0.000000
1.000000 0.330089 0.000000
1.000000 0.325729 0.000000
1.000000 0.321369 0.000000
0.000000 0.478021 0.000000
0.000000 0.473675 0.000000
0.019496 0.469328 0.000000
0.121077 0.464980 0.000000
0.220201 0.460631 0.000000
0.317786 0.456282 0.000000
0.414053 0.451931 0.000000
0.508951 0.447580 0.000000
0.602314 0.443228 0.000000
0.693927 0.438875 0.000000
0.783576 0.434522 0.000000
0.871073 0.430168 0.000000
0.956275 0.425813 0.000000
1.000000 0.421458 0.000000
1.000000 0.417102 0.000000
1.000000 0.412746 0.000000
1.000000 0.408389 0.000000
0.000000 0.564511 0.000000
0.000000 0.560193 0.000000
0.009758 0.555872 0.000000
0.111675 0.551550 0.000000
0.210973 0.547227 0.000000
0.308687 0.542901 0.000000
0.405077 0.538574 0.000000
0.500110 0.534246 0.000000
0.593626 0.529916 0.000000
0.685412 0.525585 0.000000
0.775254 0.521252 0.000000
0.862960 0.516918 0.000000
0.948382 0.512582 0.000000
1.000000 0.508246 0.000000
1.000000 0.503907 0.000000
1.000000 0.499568 0.000000
1.000000 0.495228 0.000000
0.000000 0.650304 0.000000
0.000000 0.646027 0.000000
0.000000 0.641748 0.000000
0.102252 0.637466 0.000000
0.201732 0.633182 0.000000
0.299577 0.628896 0.000000
0.396089 0.624607 0.000000
0.491255 0.620316 0.000000
0.584922 0.616023 0.000000
0.676880 0.611728 0.000000
0.766913 0.607431 0.000000
0.854826 0.603131 0.000000
0.940467 0.598830 0.000000
1.000000 0.594526 0.000000
1.000000 0.590220 0.000000
1.000000 0.585913 0.000000
1.000000 0.581603 0.000000
0.000000 0.735112 0.000000
0.000000 0.730891 0.000000
0.000000 0.726667 0.000000
0.092806 0.722440 0.000000
0.192477 0.718210 0.000000
0.290455 0.713977 0.000000
0.387090 0.709741 0.000000
0.482388 0.705502 0.000000
0.576203 0.701260 0.000000
0.668331 0.697015 0.000000
0.758553 0.692767 0.000000
0.846673 0.688516 0.000000
0.932532 0.684263 0.000000
1.000000 0.680007 0.000000
1.000000 0.675748 0.000000
1.000000 0.671486 0.000000
1.000000 0.667222 0.000000
0.000000 0.818675 0.000000
0.000000 0.814522 0.000000
0.000000 0.810365 0.000000
0.083335 0.806205 0.000000
0.183208 0.802041 0.000000
0.281322 0.797874 0.000000
0.378079 0.793703 0.000000
0.473507 0.789529 0.000000
0.567470 0.785351 0.000000
0.659765 0.781169 0.000000
0.750175 0.776984 0.000000
0.838499 0.772796 0.000000
0.924576 0.768604 0.000000
1.000000 0.764409 0.000000
1.000000 0.760211 0.000000
1.000000 0.756009 0.000000
1.000000 0.751804 0.000000
0.000000 0.900764 0.000000
0.000000 0.896690 0.000000
0.000000 0.892611 0.000000
0.073838 0.888529 0.000000
0.173924 0.884442 0.000000
0.272177 0.880351 0.000000
0.369056 0.876256 0.000000
0.464613 0.872158 0.000000
0.558721 0.868055 0.000000
0.651182 0.863948 0.000000
0.741778 0.859837 0.000000
0.830306 0.855722 0.000000
0.916599 0.851604 0.000000
1.000000 0.847481 0.000000
1.000000 0.843355 0.000000
1.000000 0.839224 0.000000
1.000000 0.835090 0.000000
0.000000 0.981202 0.000000
0.000000 0.977214 0.000000
0.000000 0.973221 0.000000
0.064313 0.969224 0.000000
0.164624 0.965222 0.000000
0.263020 0.961217 0.000000
0.360022 0.957206 0.000000
0.455707 0.953192 0.000000
0.549959 0.949173 0.000000
0.642584 0.945149 0.000000
0.733363 0.941121 0.000000
0.822093 0.937089 0.000000
0.908601 0.933053 0.000000
0.992770 0.929012 0.000000
1.000000 0.924967 0.000000
1.000000 0.920918 0.000000
1.000000 0.916864 0.000000
0.000000 1.000000 0.000000
0.000000 1.000000 0.000000
0.000000 1.000000 0.000000
0.054758 1.000000 0.000000
0.155308 1.000000 0.000000
0.253851 1.000000 0.000000
0.350977 1.000000 0.000000
0.446788 1.000000 0.000000
0.541182 1.000000 0.000000
0.633968 1.000000 0.000000
0.724931 1.000000 0.000000
0.813860 1.000000 0.000000
0.900583 1.000000 0.000000
0.984974 1.000000 0.000000
1.000000 1.000000 0.000000
1.000000 1.000000 0.000000
1.000000 0.996958 0.000000
0.000000 1.000000 0.000000
0.000000 1.000000 0.000000
0.000000 1.000000 0.000000
0.045170 1.000000 0.000000
0.145976 1.000000 0.000000
0.244670 1.000000 0.000000
0.341920 1.000000 0.000000
0.437856 1.000000 0.000000
0.532390 1.000000 0.000000
0.625337 1.000000 0.000000
0.716480 1.000000 0.000000
0.805608 1.000000 0.000000
0.892544 1.000000 0.000000
0.977158 1.000000 0.000000
1.000000 1.000000 0.000000
1.000000 1.000000 0.000000
1.000000 1.000000 0.000000
0.000000 1.000000 0.000000
0.000000 1.000000 0.000000
0.000000 1.000000 0.000000
0.035546 1.000000 0.000000
0.136626 1.000000 0.000000
0.235477 1.000000 0.000000
0.332851 1.000000 0.000000
0.428913 1.000000 0.000000
0.523585 1.000000 0.000000
0.616690 1.000000 0.000000
0.708011 1.000000 0.000000
0.797337 1.000000 0.000000
0.884485 1.000000 0.000000
0.969320 1.000000 0.000000
1.000000 1.000000 0.000000
1.000000 1.000000 0.000000
1.000000 1.000000 0.000000
0.000000 0.000000 0.013833
0.000000 0.000000 0.010472
0.084731 0.000000 0.007119
0.184574 0.000000 0.003776
0.282667 0.000000 0.000442
0.379407 0.000000 0.000000
0.474815 0.000000 0.000000
0.568757 0.000000 0.000000
0.661027 0.000000 0.000000
0.751410 0.000000 0.000000
0.839704 0.000000 0.000000
0.925749 0.000000 0.000000
1.000000 0.000000 0.000000
1.000000 0.000000 0.000000
1.000000 0.000000 0.000000
1.000000 0.000000 0.000000
1.000000 0.000000 0.000000
0.000000 0.000000 0.007243
0.000000 0.000000 0.003899
0.075238 0.000000 0.000565
0.175292 0.000000 0.000000
0.273524 0.000000 0.000000
0.370386 0.000000 0.000000
0.465924 0.000000 0.000000
0.560011 0.000000 0.000000
0.652447 0.000000 0.000000
0.743016 0.000000 0.000000
0.831514 0.000000 0.000000
0.917775 0.000000 0.000000
1.000000 0.000000 0.000000
1.000000 0.000000 0.000000
1.000000 0.000000 0.000000
1.000000 0.000000 0.000000
1.000000 0.000000 0.000000
0.000000 0.042528 0.000687
0.000000 0.038204 0.000000
0.065718 0.033881 0.000000
0.165995 0.029557 0.000000
0.264369 0.025233 0.000000
0.361353 0.020909 0.000000
0.457019 0.016584 0.000000
0.551250 0.012258 0.000000
0.643851 0.007932 0.000000
0.734604 0.003605 0.000000
0.823303 0.000000 0.000000
0.909780 0.000000 0.000000
0.993916 0.000000 0.000000
1.000000 0.000000 0.000000
1.000000 0.000000 0.000000
1.000000 0.000000 0.000000
1.000000 0.000000 0.000000
0.000000 0.128892 0.000000
0.000000 0.124560 0.000000
0.056167 0.120229 0.000000
0.156681 0.115898 0.000000
0.255202 0.111568 0.000000
0.352310 0.107239 0.000000
0.448102 0.102911 0.000000
0.542475 0.098583 0.000000
0.635238 0.094255 0.000000
0.726174 0.089929 0.000000
0.815074 0.085603 0.000000
0.901765 0.081277 0.000000
0.986124 0.076952 0.000000
1.000000 0.072627 0.000000
1.000000 0.068303 0.000000
1.000000 0.063979 0.000000
1.000000 0.059655 0.000000
0.000000 0.215529 0.000000
0.000000 0.211182 0.000000
0.046584 0.206835 0.000000
0.147351 0.202489 0.000000
0.246023 0.198144 0.000000
0.343254 0.193799 0.000000
0.439172 0.189455 0.000000
0.533686 0.185112 0.000000
0.626609 0.180770 0.000000
0.717725 0.176429 0.000000
0.806825 0.172088 0.000000
0.893729 0.167748 0.000000
0.978310 0.163409 0.000000
1.000000 0.159071 0.000000
1.000000 0.154734 0.000000
1.000000 0.150397 0.000000
1.000000 0.146061 0.000000
0.000000 0.302438 0.000000
0.000000 0.298080 0.000000
0.036965 0.293722 0.000000
0.138004 0.289365 0.000000
0.236831 0.285007 0.000000
0.334187 0.280651 0.000000
0.430230 0.276294 0.000000
0.524883 0.271938 0.000000
0.617964 0.267583 0.000000
0.709259 0.263228 0.000000
0.798556 0.258874 0.000000
0.885673 0.254520 0.000000
0.970476 0.250166 0.000000
1.000000 0.245814 0.000000
1.000000 0.241462 0.000000
1.000000 0.237110 0.000000
1.000000 0.232759 0.000000
0.000000 0.389462 0.000000
0.000000 0.385104 0.000000
0.027308 0.380744 0.000000
0.128638 0.376385 0.000000
0.227627 0.372026 0.000000
0.325109 0.367666 0.000000
0.421276 0.363306 0.000000
0.516066 0.358946 0.000000
0.609304 0.354586 0.000000
0.700776 0.350226 0.000000
0.790268 0.345866 0.000000
0.877596 0.341506 0.000000
0.962620 0.337146 0.000000
1.000000 0.332786 0.000000
1.000000 0.328426 0.000000
1.000000 0.324067 0.000000
1.000000 0.319707 0.000000
0.000000 0.476364 0.000000
0.000000 0.472018 0.000000
0.017608 0.467670 0.000000
0.119253 0.463322 0.000000
0.218410 0.458973 0.000000
0.316020 0.454623 0.000000
0.412310 0.450272 0.000000
0.507235 0.445921 0.000000
0.600628 0.441569 0.000000
0.692275 0.437216 0.000000
0.781961 0.432862 0.000000
0.869499 0.428508 0.000000
0.954744 0.424153 0.000000
1.000000 0.419797 0.000000
1.000000 0.415441 0.000000
1.000000 0.411085 0.000000
1.000000 0.406728 0.000000
0.000000 0.562865 0.000000
0.000000 0.558546 0.000000
0.007862 0.554225 0.000000
0.109847 0.549902 0.000000
0.209180 0.545578 0.000000
0.306919 0.541252 0.000000
0.403332 0.536924 0.000000
0.498392 0.532595 0.000000
0.591936 0.528265 0.000000
0.683756 0.523933 0.000000
0.773635 0.519600 0.000000
0.861382 0.515265 0.000000
0.946846 0.510929 0.000000
1.000000 0.506592 0.000000
1.000000 0.502253 0.000000
1.000000 0.497913 0.000000
1.000000 0.493572 0.000000
0.000000 0.648673 0.000000
0.000000 0.644396 0.000000
0.000000 0.640116 0.000000
0.100419 0.635833 0.000000
0.199936 0.631548 0.000000
0.297806 0.627261 0.000000
0.394343 0.622972 0.000000
0.489534 0.618680 0.000000
0.583230 0.614386 0.000000
0.675221 0.610090 0.000000
0.765291 0.605792 0.000000
0.853244 0.601491 0.000000
0.938928 0.597189 0.000000
1.000000 0.592884 0.000000
1.000000 0.588578 0.000000
1.000000 0.584270 0.000000
1.000000 0.579959 0.000000
0.000000 0.733503 0.000000
0.000000 0.729281 0.000000
0.000000 0.725056 0.000000
0.090968 0.720828 0.000000
0.190678 0.716596 0.000000
0.288682 0.712362 0.000000
0.385341 0.708125 0.000000
0.480664 0.703885 0.000000
0.574508 0.699641 0.000000
0.666669 0.695395 0.000000
0.756927 0.691147 0.000000
0.845087 0.686895 0.000000
0.930988 0.682640 0.000000
1.000000 0.678383 0.000000
1.000000 0.674124 0.000000
1.000000 0.669861 0.000000
1.000000 0.665596 0.000000
0.000000 0.817092 0.000000
0.000000 0.812937 0.000000
0.000000 0.808780 0.000000
0.081493 0.804618 0.000000
0.181406 0.800453 0.000000
0.279547 0.796284 0.000000
0.376328 0.792112 0.000000
0.471781 0.787936 0.000000
0.565772 0.783757 0.000000
0.658099 0.779574 0.000000
0.748546 0.775388 0.000000
0.836909 0.771198 0.000000
0.923028 0.767005 0.000000
1.000000 0.762809 0.000000
1.000000 0.758609 0.000000
1.000000 0.754406 0.000000
1.000000 0.750199 0.000000
0.000000 0.899211 0.000000
0.000000 0.895135 0.000000
0.000000 0.891055 0.000000
0.071991 0.886971 0.000000
0.172119 0.882883 0.000000
0.270399 0.878790 0.000000
0.367303 0.874694 0.000000
0.462884 0.870594 0.000000
0.557021 0.866489 0.000000
0.649514 0.862381 0.000000
0.740146 0.858269 0.000000
0.828712 0.854152 0.000000
0.915047 0.850032 0.000000
0.999036 0.845908 0.000000
1.000000 0.841780 0.000000
1.000000 0.837648 0.000000
1.000000 0.833513 0.000000
0.000000 0.979682 0.000000
0.000000 0.975692 0.000000
0.000000 0.971698 0.000000
0.062460 0.967699 0.000000
0.162816 0.963696 0.000000
0.261240 0.959688 0.000000
0.358266 0.955676 0.000000
0.453975 0.951660 0.000000
0.548255 0.947639 0.000000
0.640912 0.943614 0.000000
0.731727 0.939584 0.000000
0.820495 0.935551 0.000000
0.907046 0.931513 0.000000
0.991257 0.927470 0.000000
1.000000 0.923424 0.000000
1.000000 0.919373 0.000000
1.000000 0.915318 0.000000
0.000000 1.000000 0.000000
0.000000 1.000000 0.000000
0.000000 1.000000 0.000000
0.052898 1.000000 0.000000
0.153497 1.000000 0.000000
0.252069 1.000000 0.000000
0.349219 1.000000 0.000000
0.445054 1.000000 0.000000
0.539475 1.000000 0.000000
0.632293 1.000000 0.000000
0.723291 1.000000 0.000000
0.812259 1.000000 0.000000
0.899023 1.000000 0.000000
0.983458 1.000000 0.000000
1.000000 1.000000 0.000000
1.000000 0.999412 0.000000
1.000000 0.995444 0.000000
0.000000 1.000000 0.000000
0.000000 1.000000 0.000000
0.000000 1.000000 0.000000
0.043303 1.000000 0.000000
0.144161 1.000000 0.000000
0.242885 1.000000 0.000000
0.340159 1.000000 0.000000
0.436120 1.000000 0.000000
0.530681 1.000000 0.000000
0.623659 1.000000 0.000000
0.714836 1.000000 0.000000
0.804003 1.000000 0.000000
0.890980 1.000000 0.000000
0.975637 1.000000 0.000000
1.000000 1.000000 0.000000
1.000000 1.000000 0.000000
1.000000 1.000000 0.000000
0.000000 1.000000 0.000000
0.000000 1.000000 0.000000
0.000000 1.000000 0.000000
0.033672 1.000000 0.000000
0.134808 1.000000 0.000000
0.233690 1.000000 0.000000
0.331089 1.000000 0.000000
0.427174 1.000000 0.000000
0.521874 1.000000 0.000000
0.615009 1.000000 0.000000
0.706364 1.000000 0.000000
0.795728 1.000000 0.000000
0.882917 1.000000 0.000000
0.967796 1.000000 0.000000
1.000000 1.000000 0.000000
1.000000 1.000000 0.000000
1.000000 1.000000 0.000000
0.000000 0.000000 0.088269
0.000000 0.000000 0.084735
0.082890 0.000000 0.081209
0.182773 0.000000 0.077689
0.280893 0.000000 0.074177
0.377656 0.000000 0.070673
0.473090 0.000000 0.067176
0.567059 0.000000 0.063686
0.659362 0.000000 0.060204
0.749781 0.000000 0.056729
0.838115 0.000000 0.053262
0.924202 0.000000 0.049804
1.000000 0.000000 0.046353
1.000000 0.000000 0.042909
1.000000 0.000000 0.039475
1.000000 0.000000 0.036048
1.000000 0.000000 0.032629
0.000000 0.000000 0.081338
