presentation/src/main/assets/luts/kodak.cube
TITLE "Kodak 64 (Test LUT)"
LUT_3D_SIZE 9
DOMAIN_MIN 0.0 0.0 0.0
DOMAIN_MAX 1.0 1.0 1.0
0.000000 0.000000 0.000000
0.088411 0.000000 0.000000
0.286216 0.000000 0.000000
0.478266 0.000000 0.000000
0.664356 0.000000 0.000000
0.842880 0.000000 0.000000
1.000000 0.000000 0.000000
1.000000 0.000000 0.000000
1.000000 0.000000 0.000000
0.000000 0.045824 0.000000
0.069419 0.037178 0.000000
0.267926 0.028531 0.000000
0.460479 0.019882 0.000000
0.647192 0.011231 0.000000
0.826495 0.002577 0.000000
0.996937 0.000000 0.000000
1.000000 0.000000 0.000000
1.000000 0.000000 0.000000
0.000000 0.218845 0.000000
0.050310 0.210149 0.000000
0.249590 0.201457 0.000000
0.442642 0.192768 0.000000
0.629963 0.184081 0.000000
0.810031 0.175398 0.000000
0.981348 0.166718 0.000000
1.000000 0.158041 0.000000
1.000000 0.149368 0.000000
0.000000 0.392786 0.000000
0.031064 0.384068 0.000000
0.231204 0.375350 0.000000
0.424756 0.366631 0.000000
0.612670 0.357911 0.000000
0.793490 0.349191 0.000000
0.965674 0.340471 0.000000
1.000000 0.331751 0.000000
1.000000 0.323031 0.000000
0.000000 0.566157 0.000000
0.011653 0.557520 0.000000
0.212767 0.548875 0.000000
0.406821 0.540224 0.000000
0.595314 0.531567 0.000000
0.776872 0.522904 0.000000
0.949916 0.514235 0.000000
1.000000 0.505562 0.000000
1.000000 0.496883 0.000000
0.000000 0.736721 0.000000
0.000000 0.728278 0.000000
0.194276 0.719823 0.000000
0.388839 0.711356 0.000000
0.577898 0.702877 0.000000
0.760178 0.694387 0.000000
0.934075 0.685885 0.000000
1.000000 0.677372 0.000000
1.000000 0.668848 0.000000
0.000000 0.902316 0.000000
0.000000 0.894167 0.000000
0.175728 0.886001 0.000000
0.370810 0.877818 0.000000
0.560421 0.869620 0.000000
0.743410 0.861405 0.000000
0.918150 0.853174 0.000000
1.000000 0.844928 0.000000
1.000000 0.836667 0.000000
0.000000 1.000000 0.000000
0.000000 1.000000 0.000000
0.157119 1.000000 0.000000
0.352734 1.000000 0.000000
0.542887 1.000000 0.000000
0.726570 1.000000 0.000000
0.902142 1.000000 0.000000
1.000000 1.000000 0.000000
1.000000 0.998470 0.000000
0.000000 1.000000 0.000000
0.000000 1.000000 0.000000
0.138443 1.000000 0.000000
0.334613 1.000000 0.000000
0.525296 1.000000 0.000000
0.709657 1.000000 0.000000
0.886051 1.000000 0.000000
1.000000 1.000000 0.000000
1.000000 1.000000 0.000000
0.000000 0.000000 0.013833
0.084731 0.000000 0.007119
0.282667 0.000000 0.000442
0.474815 0.000000 0.000000
0.661027 0.000000 0.000000
0.839704 0.000000 0.000000
1.000000 0.000000 0.000000
1.000000 0.000000 0.000000
1.000000 0.000000 0.000000
0.000000 0.042528 0.000687
0.065718 0.033881 0.000000
0.264369 0.025233 0.000000
0.457019 0.016584 0.000000
0.643851 0.007932 0.000000
0.823303 0.000000 0.000000
0.993916 0.000000 0.000000
1.000000 0.000000 0.000000
1.000000 0.000000 0.000000
0.000000 0.215529 0.000000
0.046584 0.206835 0.000000
0.246023 0.198144 0.000000
0.439172 0.189455 0.000000
0.626609 0.180770 0.000000
0.806825 0.172088 0.000000
0.978310 0.163409 0.000000
1.000000 0.154734 0.000000
1.000000 0.146061 0.000000
0.000000 0.389462 0.000000
0.027308 0.380744 0.000000
0.227627 0.372026 0.000000
0.421276 0.363306 0.000000
0.609304 0.354586 0.000000
0.790268 0.345866 0.000000
0.962620 0.337146 0.000000
1.000000 0.328426 0.000000
1.000000 0.319707 0.000000
0.000000 0.562865 0.000000
0.007862 0.554225 0.000000
0.209180 0.545578 0.000000
0.403332 0.536924 0.000000
0.591936 0.528265 0.000000
0.773635 0.519600 0.000000
0.946846 0.510929 0.000000
1.000000 0.502253 0.000000
1.000000 0.493572 0.000000
0.000000 0.733503 0.000000
0.000000 0.725056 0.000000
0.190678 0.716596 0.000000
0.385341 0.708125 0.000000
0.574508 0.699641 0.000000
0.756927 0.691147 0.000000
0.930988 0.682640 0.000000
1.000000 0.674124 0.000000
1.000000 0.665596 0.000000
0.000000 0.899211 0.000000
0.000000 0.891055 0.000000
0.172119 0.882883 0.000000
0.367303 0.874694 0.000000
0.557021 0.866489 0.000000
0.740146 0.858269 0.000000
0.915047 0.850032 0.000000
1.000000 0.841780 0.000000
1.000000 0.833513 0.000000
0.000000 1.000000 0.000000
0.000000 1.000000 0.000000
0.153497 1.000000 0.000000
0.349219 1.000000 0.000000
0.539475 1.000000 0.000000
0.723291 1.000000 0.000000
0.899023 1.000000 0.000000
1.000000 1.000000 0.000000
1.000000 0.995444 0.000000
0.000000 1.000000 0.000000
0.000000 1.000000 0.000000
0.134808 1.000000 0.000000
0.331089 1.000000 0.000000
0.521874 1.000000 0.000000
0.706364 1.000000 0.000000
0.882917 1.000000 0.000000
1.000000 1.000000 0.000000
1.000000 1.000000 0.000000
0.000000 0.000000 0.166006
0.081047 0.000000 0.158667
0.279117 0.000000 0.151352
0.471363 0.000000 0.144061
0.657697 0.000000 0.136795
0.836525 0.000000 0.129554
1.000000 0.000000 0.122338
1.000000 0.000000 0.115147
1.000000 0.000000 0.107984
0.000000 0.039231 0.151621
0.062012 0.030584 0.144329
0.260810 0.021936 0.137062
0.453557 0.013286 0.129820
0.640507 0.004632 0.122603
0.820109 0.000000 0.115411
0.990892 0.000000 0.108247
1.000000 0.000000 0.101109
1.000000 0.000000 0.093998
0.000000 0.212214 0.137329
0.042852 0.203521 0.130085
0.242454 0.194831 0.122868
0.435701 0.186144 0.115676
0.623253 0.177460 0.108510
0.803615 0.168779 0.101371
0.975270 0.160101 0.094259
1.000000 0.151427 0.087175
1.000000 0.142756 0.080120
0.000000 0.386139 0.123133
0.023546 0.377420 0.115940
0.224049 0.368701 0.108773
0.417795 0.359981 0.101633
0.605936 0.351261 0.094520
0.787044 0.342541 0.087435
0.959563 0.333821 0.080379
1.000000 0.325102 0.073351
1.000000 0.316383 0.066353
0.000000 0.559571 0.109036
0.004062 0.550928 0.101895
0.205591 0.542279 0.094781
0.399842 0.533623 0.087696
0.588556 0.524962 0.080638
0.770396 0.516294 0.073609
0.943773 0.507622 0.066610
1.000000 0.498944 0.059640
1.000000 0.490261 0.052702
0.000000 0.730284 0.095043
0.000000 0.721832 0.087956
0.187079 0.713368 0.080897
0.381841 0.704892 0.073867
0.571117 0.696404 0.066867
0.753674 0.687905 0.059896
0.927899 0.679394 0.052956
1.000000 0.670873 0.046048
1.000000 0.662342 0.039171
0.000000 0.896103 0.081156
0.000000 0.887941 0.074125
0.168508 0.879763 0.067124
0.363794 0.871568 0.060152
0.553618 0.863357 0.053211
0.736878 0.855130 0.046301
0.911942 0.846888 0.039424
1.000000 0.838630 0.032579
1.000000 0.830357 0.025767
0.000000 1.000000 0.067381
0.000000 1.000000 0.060408
0.149873 1.000000 0.053466
0.345701 1.000000 0.046555
0.536061 1.000000 0.039676
0.720009 1.000000 0.032830
0.895902 1.000000 0.026017
1.000000 1.000000 0.019239
1.000000 0.992416 0.012496
0.000000 1.000000 0.053721
0.000000 1.000000 0.046809
0.131170 1.000000 0.039929
0.327563 1.000000 0.033081
0.518449 1.000000 0.026267
0.703069 1.000000 0.019488
0.879780 1.000000 0.012743
1.000000 1.000000 0.006035
1.000000 1.000000 0.000000
0.000000 0.000000 0.329132
0.077359 0.000000 0.321375
0.275566 0.000000 0.313634
0.467909 0.000000 0.305909
0.654364 0.000000 0.298200
0.833343 0.000000 0.290507
1.000000 0.000000 0.282832
1.000000 0.000000 0.275175
1.000000 0.000000 0.267535
0.000000 0.035934 0.313918
0.058301 0.027287 0.306193
0.257249 0.018638 0.298483
0.450093 0.009987 0.290790
0.637162 0.001332 0.283114
0.816912 0.000000 0.275456
0.987864 0.000000 0.267816
1.000000 0.000000 0.260193
1.000000 0.000000 0.252589
0.000000 0.208899 0.298766
0.039115 0.200207 0.291073
0.238884 0.191518 0.283396
0.432227 0.182832 0.275738
0.619895 0.174150 0.268096
0.800403 0.165470 0.260473
0.972226 0.156794 0.252869
1.000000 0.148120 0.245283
1.000000 0.139450 0.237717
0.000000 0.382815 0.283679
0.019777 0.374096 0.276019
0.220468 0.365377 0.268377
0.414312 0.356657 0.260753
0.602565 0.347937 0.253148
0.783817 0.339217 0.245562
0.956503 0.330497 0.237995
1.000000 0.321778 0.230448
1.000000 0.313059 0.222920
0.000000 0.556277 0.268658
0.000254 0.547631 0.261034
0.202000 0.538980 0.253428
0.396350 0.530322 0.245841
0.585174 0.521658 0.238273
0.767155 0.512988 0.230725
0.940697 0.504314 0.223197
1.000000 0.495634 0.215689
1.000000 0.486950 0.208202
0.000000 0.727063 0.253707
0.000000 0.718606 0.246120
0.183477 0.710137 0.238551
0.378340 0.701657 0.231002
0.567723 0.693165 0.223473
0.750418 0.684661 0.215965
0.924806 0.676147 0.208477
1.000000 0.667622 0.201010
1.000000 0.659086 0.193564
0.000000 0.892993 0.238829
0.000000 0.884825 0.231280
0.164894 0.876640 0.223750
0.360284 0.868439 0.216241
0.550213 0.860222 0.208752
0.733607 0.851990 0.201284
0.908833 0.843741 0.193838
1.000000 0.835477 0.186414
1.000000 0.827198 0.179011
0.000000 1.000000 0.224027
0.000000 1.000000 0.216516
0.146246 1.000000 0.209027
0.342182 1.000000 0.201558
0.532645 1.000000 0.194111
0.716725 1.000000 0.186686
0.892777 1.000000 0.179283
1.000000 0.997329 0.171903
1.000000 0.989385 0.164545
0.000000 1.000000 0.209302
0.000000 1.000000 0.201833
0.127529 1.000000 0.194385
0.324035 1.000000 0.186959
0.515022 1.000000 0.179555
0.699771 1.000000 0.172174
0.876639 1.000000 0.164816
1.000000 1.000000 0.157481
1.000000 1.000000 0.150169
0.000000 0.000000 0.499359
0.073667 0.000000 0.491352
0.272012 0.000000 0.483354
0.464453 0.000000 0.475364
0.651028 0.000000 0.467382
0.830158 0.000000 0.459409
1.000000 0.000000 0.451446
1.000000 0.000000 0.443492
1.000000 0.000000 0.435548
0.000000 0.032637 0.483648
0.054586 0.023990 0.475657
0.253686 0.015340 0.467675
0.446627 0.006688 0.459702
0.633813 0.000000 0.451739
0.813712 0.000000 0.443784
0.984834 0.000000 0.435840
1.000000 0.000000 0.427906
1.000000 0.000000 0.419983
0.000000 0.205585 0.467969
0.035372 0.196894 0.459996
0.235311 0.188206 0.452031
0.428752 0.179521 0.444077
0.616534 0.170840 0.436132
0.797188 0.162162 0.428198
0.969179 0.153486 0.420275
1.000000 0.144814 0.412362
1.000000 0.136146 0.404461
0.000000 0.379491 0.452324
0.016001 0.370772 0.444369
0.216886 0.362052 0.436424
0.410828 0.353332 0.428490
0.599193 0.344612 0.420566
0.780587 0.335892 0.412653
0.953440 0.327172 0.404752
1.000000 0.318453 0.396862
1.000000 0.309735 0.388985
0.000000 0.552981 0.436716
0.000000 0.544334 0.428781
0.198407 0.535679 0.420857
0.392856 0.527019 0.412944
0.581790 0.518353 0.405042
0.763910 0.509682 0.397152
0.937617 0.501005 0.389274
1.000000 0.492324 0.381409
1.000000 0.483638 0.373556
0.000000 0.723840 0.421148
0.000000 0.715379 0.413235
0.179873 0.706905 0.405333
0.374837 0.698420 0.397442
0.564327 0.689924 0.389564
0.747159 0.681416 0.381698
0.921711 0.672898 0.373845
1.000000 0.664369 0.366005
1.000000 0.655829 0.358179
0.000000 0.889881 0.405623
0.000000 0.881706 0.397732
0.161277 0.873515 0.389853
0.356772 0.865308 0.381987
0.546805 0.857085 0.374134
0.730334 0.848846 0.366294
0.905721 0.840592 0.358467
1.000000 0.832323 0.350654
1.000000 0.824038 0.342856
0.000000 1.000000 0.390143
0.000000 1.000000 0.382276
0.142617 1.000000 0.374422
0.338661 1.000000 0.366582
0.529227 1.000000 0.358755
0.713438 1.000000 0.350941
0.889649 1.000000 0.343142
1.000000 0.994302 0.335358
1.000000 0.986351 0.327589
0.000000 1.000000 0.374711
0.000000 1.000000 0.366870
0.123885 1.000000 0.359042
0.320505 1.000000 0.351229
0.511593 1.000000 0.343429
0.696470 1.000000 0.335644
0.873496 1.000000 0.327874
1.000000 1.000000 0.320120
1.000000 1.000000 0.312381
0.000000 0.000000 0.673051
0.069971 0.000000 0.664964
0.268457 0.000000 0.656877
0.460995 0.000000 0.648791
0.647690 0.000000 0.640705
0.826970 0.000000 0.632621
0.997387 0.000000 0.624538
1.000000 0.000000 0.616456
1.000000 0.000000 0.608378
0.000000 0.029340 0.657175
0.050865 0.020692 0.649088
0.250121 0.012041 0.641003
0.443159 0.003388 0.632918
0.630463 0.000000 0.624835
0.810509 0.000000 0.616754
0.981800 0.000000 0.608675
1.000000 0.000000 0.600598
1.000000 0.000000 0.592525
0.000000 0.202271 0.641300
0.031623 0.193581 0.633215
0.231737 0.184895 0.625132
0.425274 0.176211 0.617051
0.613171 0.167531 0.608972
0.793970 0.158854 0.600895
0.966129 0.150180 0.592822
1.000000 0.141509 0.584751
1.000000 0.132841 0.576684
0.000000 0.376166 0.625430
0.012218 0.367447 0.617348
0.213301 0.358727 0.609269
0.407341 0.350007 0.601192
0.595818 0.341287 0.593119
0.777354 0.332567 0.585048
0.950374 0.323848 0.576981
1.000000 0.315129 0.568918
1.000000 0.306411 0.560859
0.000000 0.549685 0.609566
0.000000 0.541035 0.601489
0.194812 0.532378 0.593416
0.389360 0.523716 0.585345
0.578403 0.515047 0.577278
0.760663 0.506374 0.569214
0.934535 0.497696 0.561156
1.000000 0.489012 0.553101
1.000000 0.480325 0.545052
0.000000 0.720616 0.593712
0.000000 0.712150 0.585642
0.176266 0.703672 0.577574
0.371332 0.695182 0.569511
0.560928 0.686682 0.561452
0.743897 0.678170 0.553398
0.918612 0.669647 0.545348
1.000000 0.661114 0.537304
1.000000 0.652571 0.529266
0.000000 0.886766 0.577871
0.000000 0.878585 0.569808
0.157659 0.870388 0.561748
0.353258 0.862175 0.553694
0.543396 0.853946 0.545644
0.727058 0.845701 0.537600
0.902606 0.837441 0.529561
1.000000 0.829166 0.521529
1.000000 0.820875 0.513503
0.000000 1.000000 0.562045
0.000000 1.000000 0.553990
0.138985 1.000000 0.545940
0.335139 1.000000 0.537896
0.525807 1.000000 0.529857
0.710148 1.000000 0.521824
0.886519 0.999213 0.513798
1.000000 0.991273 0.505779
1.000000 0.983315 0.497766
0.000000 1.000000 0.546236
0.000000 1.000000 0.538192
0.120238 1.000000 0.530153
0.316973 1.000000 0.522120
0.508162 1.000000 0.514093
0.693167 1.000000 0.506074
0.870349 1.000000 0.498061
1.000000 1.000000 0.490056
1.000000 1.000000 0.482059
0.000000 0.000000 0.846673
0.066270 0.000000 0.838662
0.264900 0.000000 0.830645
0.457535 0.000000 0.822621
0.644349 0.000000 0.814592
0.823780 0.000000 0.806556
0.994366 0.000000 0.798515
1.000000 0.000000 0.790469
1.000000 0.000000 0.782418
0.000000 0.026043 0.830940
0.047140 0.017394 0.822917
0.246555 0.008742 0.814887
0.439690 0.000087 0.806852
0.627109 0.000000 0.798811
0.807303 0.000000 0.790765
0.978763 0.000000 0.782714
1.000000 0.000000 0.774659
1.000000 0.000000 0.766599
0.000000 0.198957 0.815183
0.027868 0.190269 0.807148
0.228160 0.181583 0.799107
0.421795 0.172901 0.791061
0.609806 0.164222 0.783010
0.790749 0.155546 0.774955
0.963076 0.146873 0.766895
1.000000 0.138204 0.758832
1.000000 0.129537 0.750764
0.000000 0.372842 0.799403
0.008427 0.364123 0.791357
0.209715 0.355403 0.783307
0.403853 0.346683 0.775251
0.592440 0.337963 0.767192
0.774118 0.329243 0.759128
0.947304 0.320524 0.751061
1.000000 0.311805 0.742990
1.000000 0.303088 0.734916
0.000000 0.546388 0.783603
0.000000 0.537735 0.775548
0.191215 0.529076 0.767488
0.385863 0.520411 0.759425
0.575014 0.511741 0.751358
0.757412 0.503066 0.743287
0.931449 0.494386 0.735213
1.000000 0.485701 0.727137
1.000000 0.477011 0.719058
0.000000 0.717389 0.767785
0.000000 0.708919 0.759722
0.172657 0.700436 0.751655
0.367826 0.691943 0.743584
0.557528 0.683438 0.735511
0.740633 0.674922 0.727434
0.915510 0.666395 0.719355
1.000000 0.657858 0.711274
1.000000 0.649311 0.703191
0.000000 0.883649 0.751951
0.000000 0.875462 0.743881
0.154038 0.867258 0.735808
0.349743 0.859039 0.727731
0.539984 0.850804 0.719652
0.723780 0.842554 0.711571
0.899488 0.834288 0.703489
1.000000 0.826007 0.695404
1.000000 0.817710 0.687319
0.000000 1.000000 0.736105
0.000000 1.000000 0.728028
0.135350 1.000000 0.719950
0.331614 1.000000 0.711869
0.522384 1.000000 0.703786
0.706856 1.000000 0.695702
0.883385 0.996188 0.687616
1.000000 0.988241 0.679530
1.000000 0.980276 0.671443
0.000000 1.000000 0.720247
0.000000 1.000000 0.712166
0.116588 1.000000 0.704083
0.313440 1.000000 0.695999
0.504729 1.000000 0.687914
0.689861 1.000000 0.679828
0.867199 1.000000 0.671741
1.000000 1.000000 0.663654
1.000000 1.000000 0.655567
0.000000 0.000000 1.000000
0.062565 0.000000 1.000000
0.261341 0.000000 1.000000
0.454073 0.000000 0.993714
0.641006 0.000000 0.985870
0.820586 0.000000 0.978015
0.991343 0.000000 0.970149
1.000000 0.000000 0.962272
1.000000 0.000000 0.954386
0.000000 0.022746 1.000000
0.043409 0.014096 0.994003
0.242986 0.005443 0.986159
0.436218 0.000000 0.978304
0.623754 0.000000 0.970438
0.804094 0.000000 0.962562
0.975723 0.000000 0.954676
1.000000 0.000000 0.946780
1.000000 0.000000 0.938874
0.000000 0.195644 0.986448
0.024107 0.186957 0.978593
0.224582 0.178273 0.970728
0.418315 0.169592 0.962852
0.606438 0.160914 0.954967
0.787525 0.152239 0.947071
0.960020 0.143568 0.939165
1.000000 0.134899 0.931250
1.000000 0.126234 0.923325
0.000000 0.369518 0.971017
0.004629 0.360798 0.963142
0.206126 0.352078 0.955257
0.400363 0.343358 0.947361
0.589061 0.334638 0.939456
0.770880 0.325918 0.931541
0.944232 0.317199 0.923617
1.000000 0.308481 0.915683
1.000000 0.299764 0.907740
0.000000 0.543089 0.955547
0.000000 0.534434 0.947652
0.187616 0.525773 0.939747
0.382363 0.517106 0.931832
0.571622 0.508434 0.923908
0.754159 0.499757 0.915975
0.928360 0.491075 0.908033
1.000000 0.482388 0.900081
1.000000 0.473697 0.892122
0.000000 0.714161 0.940038
0.000000 0.705686 0.932124
0.169046 0.697199 0.924200
0.364318 0.688701 0.916267
0.554125 0.680192 0.908325
0.737365 0.671672 0.900374
0.912405 0.663141 0.892415
1.000000 0.654600 0.884447
1.000000 0.646049 0.876471
0.000000 0.880529 0.924492
0.000000 0.872336 0.916559
0.150414 0.864127 0.908617
0.346226 0.855901 0.900667
0.536571 0.847660 0.892708
0.720499 0.839404 0.884740
0.896367 0.831132 0.876765
1.000000 0.822845 0.868781
1.000000 0.814543 0.860790
0.000000 1.000000 0.908910
0.000000 1.000000 0.900959
0.131712 1.000000 0.893001
0.328088 1.000000 0.885033
0.518960 1.000000 0.877058
0.703561 1.000000 0.869075
0.880248 0.993160 0.861084
1.000000 0.985206 0.853086
1.000000 0.977234 0.845081
0.000000 1.000000 0.893293
0.000000 1.000000 0.885327
0.112934 1.000000 0.877352
0.309905 1.000000 0.869369
0.501294 1.000000 0.861378
0.686553 1.000000 0.853381
0.864047 1.000000 0.845376
1.000000 1.000000 0.837364
1.000000 1.000000 0.829345
0.000000 0.000000 1.000000
0.058855 0.000000 1.000000
0.257780 0.000000 1.000000
0.450610 0.000000 1.000000
0.637661 0.000000 1.000000
0.817389 0.000000 1.000000
0.988316 0.000000 1.000000
1.000000 0.000000 1.000000
1.000000 0.000000 1.000000
0.000000 0.019448 1.000000
0.039673 0.010797 1.000000
0.239416 0.002143 1.000000
0.432745 0.000000 1.000000
0.620396 0.000000 1.000000
0.800882 0.000000 1.000000
0.972680 0.000000 1.000000
1.000000 0.000000 1.000000
1.000000 0.000000 1.000000
0.000000 0.192332 1.000000
0.020339 0.183646 1.000000
0.221002 0.174962 1.000000
0.414832 0.166283 1.000000
0.603068 0.157606 1.000000
0.784298 0.148933 1.000000
0.956960 0.140262 1.000000
1.000000 0.131595 1.000000
1.000000 0.122931 1.000000
0.000000 0.366193 1.000000
0.000823 0.357473 1.000000
0.202536 0.348753 1.000000
0.396871 0.340033 1.000000
0.585679 0.331313 1.000000
0.767638 0.322594 1.000000
0.941156 0.313875 1.000000
1.000000 0.305158 1.000000
1.000000 0.296441 1.000000
0.000000 0.539790 1.000000
0.000000 0.531133 1.000000
0.184014 0.522469 1.000000
0.378862 0.513800 1.000000
0.568229 0.505126 1.000000
0.750904 0.496447 1.000000
0.925268 0.487763 1.000000
1.000000 0.479075 1.000000
1.000000 0.470383 1.000000
0.000000 0.710931 1.000000
0.000000 0.702452 1.000000
0.165433 0.693960 1.000000
0.360808 0.685458 1.000000
0.550721 0.676945 1.000000
0.734095 0.668421 1.000000
0.909297 0.659886 1.000000
1.000000 0.651341 1.000000
1.000000 0.642786 1.000000
0.000000 0.877407 1.000000
0.000000 0.869208 1.000000
0.146787 0.860992 1.000000
0.342707 0.852761 1.000000
0.533155 0.844514 1.000000
0.717215 0.836252 1.000000
0.893243 0.827974 1.000000
1.000000 0.819682 1.000000
1.000000 0.811374 1.000000
0.000000 1.000000 1.000000
0.000000 1.000000 1.000000
0.128072 1.000000 1.000000
0.324561 1.000000 1.000000
0.515533 1.000000 1.000000
0.700263 0.998072 1.000000
0.877108 0.990130 1.000000
1.000000 0.982169 1.000000
1.000000 0.974190 1.000000
0.000000 1.000000 1.000000
0.000000 1.000000 1.000000
0.109278 1.000000 1.000000
0.306369 1.000000 1.000000
0.497857 1.000000 1.000000
0.683241 1.000000 1.000000
0.860891 1.000000 1.000000
1.000000 1.000000 1.000000
1.000000 1.000000 1.000000
