presentation/src/main/assets/luts/kodak.cube
TITLE "Kodak 64 (Test LUT)"
LUT_3D_SIZE 5
DOMAIN_MIN 0.0 0.0 0.0
DOMAIN_MAX 1.0 1.0 1.0
0.000000 0.000000 0.000000
0.286216 0.000000 0.000000
0.664356 0.000000 0.000000
1.000000 0.000000 0.000000
1.000000 0.000000 0.000000
0.000000 0.218845 0.000000
0.249590 0.201457 0.000000
0.629963 0.184081 0.000000
0.981348 0.166718 0.000000
1.000000 0.149368 0.000000
0.000000 0.566157 0.000000
0.212767 0.548875 0.000000
0.595314 0.531567 0.000000
0.949916 0.514235 0.000000
1.000000 0.496883 0.000000
0.000000 0.902316 0.000000
0.175728 0.886001 0.000000
0.560421 0.869620 0.000000
0.918150 0.853174 0.000000
1.000000 0.836667 0.000000
0.000000 1.000000 0.000000
0.138443 1.000000 0.000000
0.525296 1.000000 0.000000
0.886051 1.000000 0.000000
1.000000 1.000000 0.000000
0.000000 0.000000 0.166006
0.279117 0.000000 0.151352
0.657697 0.000000 0.136795
1.000000 0.000000 0.122338
1.000000 0.000000 0.107984
0.000000 0.212214 0.137329
0.242454 0.194831 0.122868
0.623253 0.177460 0.108510
0.975270 0.160101 0.094259
1.000000 0.142756 0.080120
0.000000 0.559571 0.109036
0.205591 0.542279 0.094781
0.588556 0.524962 0.080638
0.943773 0.507622 0.066610
1.000000 0.490261 0.052702
0.000000 0.896103 0.081156
0.168508 0.879763 0.067124
0.553618 0.863357 0.053211
0.911942 0.846888 0.039424
1.000000 0.830357 0.025767
0.000000 1.000000 0.053721
0.131170 1.000000 0.039929
0.518449 1.000000 0.026267
0.879780 1.000000 0.012743
1.000000 1.000000 0.000000
0.000000 0.000000 0.499359
0.272012 0.000000 0.483354
0.651028 0.000000 0.467382
1.000000 0.000000 0.451446
1.000000 0.000000 0.435548
0.000000 0.205585 0.467969
0.235311 0.188206 0.452031
0.616534 0.170840 0.436132
0.969179 0.153486 0.420275
1.000000 0.136146 0.404461
0.000000 0.552981 0.436716
0.198407 0.535679 0.420857
0.581790 0.518353 0.405042
0.937617 0.501005 0.389274
1.000000 0.483638 0.373556
0.000000 0.889881 0.405623
0.161277 0.873515 0.389853
0.546805 0.857085 0.374134
0.905721 0.840592 0.358467
1.000000 0.824038 0.342856
0.000000 1.000000 0.374711
0.123885 1.000000 0.359042
0.511593 1.000000 0.343429
0.873496 1.000000 0.327874
1.000000 1.000000 0.312381
0.000000 0.000000 0.846673
0.264900 0.000000 0.830645
0.644349 0.000000 0.814592
0.994366 0.000000 0.798515
1.000000 0.000000 0.782418
0.000000 0.198957 0.815183
0.228160 0.181583 0.799107
0.609806 0.164222 0.783010
0.963076 0.146873 0.766895
1.000000 0.129537 0.750764
0.000000 0.546388 0.783603
0.191215 0.529076 0.767488
0.575014 0.511741 0.751358
0.931449 0.494386 0.735213
1.000000 0.477011 0.719058
0.000000 0.883649 0.751951
0.154038 0.867258 0.735808
0.539984 0.850804 0.719652
0.899488 0.834288 0.703489
1.000000 0.817710 0.687319
0.000000 1.000000 0.720247
0.116588 1.000000 0.704083
0.504729 1.000000 0.687914
0.867199 1.000000 0.671741
1.000000 1.000000 0.655567
0.000000 0.000000 1.000000
0.257780 0.000000 1.000000
0.637661 0.000000 1.000000
0.988316 0.000000 1.000000
1.000000 0.000000 1.000000
0.000000 0.192332 1.000000
0.221002 0.174962 1.000000
0.603068 0.157606 1.000000
0.956960 0.140262 1.000000
1.000000 0.122931 1.000000
0.000000 0.539790 1.000000
0.184014 0.522469 1.000000
0.568229 0.505126 1.000000
0.925268 0.487763 1.000000
1.000000 0.470383 1.000000
0.000000 0.877407 1.000000
0.146787 0.860992 1.000000
0.533155 0.844514 1.000000
0.893243 0.827974 1.000000
1.000000 0.811374 1.000000
0.000000 1.000000 1.000000
0.109278 1.000000 1.000000
0.497857 1.000000 1.000000
0.860891 1.000000 1.000000
1.000000 1.000000 1.000000
