presentation/src/main/res/raw/cool_blue_steel.cube
# © 2026 luttie. All rights reserved.
# This LUT is licensed for use within the luttie platform only.
# Unauthorized redistribution or resale is prohibited.
TITLE "Cool Blue Steel"
LUT_3D_SIZE 9
0.000000 0.000000 0.000000
0.066000 0.000000 0.000000
0.192000 0.000000 0.000000
0.318000 0.000000 0.000000
0.444000 0.000000 0.000000
0.570000 0.000000 0.000000
0.696000 0.000000 0.000000
0.822000 0.000000 0.000000
0.948000 0.000000 0.000000
0.000000 0.070200 0.000000
0.066000 0.070200 0.000000
0.192000 0.070200 0.000000
0.318000 0.070200 0.000000
0.444000 0.070200 0.000000
0.570000 0.070200 0.000000
0.696000 0.070200 0.000000
0.822000 0.070200 0.000000
0.948000 0.070200 0.000000
0.000000 0.200400 0.000000
0.066000 0.200400 0.000000
0.192000 0.200400 0.000000
0.318000 0.200400 0.000000
0.444000 0.200400 0.000000
0.570000 0.200400 0.000000
0.696000 0.200400 0.000000
0.822000 0.200400 0.000000
0.948000 0.200400 0.000000
0.000000 0.330600 0.000000
0.066000 0.330600 0.000000
0.192000 0.330600 0.000000
0.318000 0.330600 0.000000
0.444000 0.330600 0.000000
0.570000 0.330600 0.000000
0.696000 0.330600 0.000000
0.822000 0.330600 0.000000
0.948000 0.330600 0.000000
0.000000 0.460800 0.000000
0.066000 0.460800 0.000000
0.192000 0.460800 0.000000
0.318000 0.460800 0.000000
0.444000 0.460800 0.000000
0.570000 0.460800 0.000000
0.696000 0.460800 0.000000
0.822000 0.460800 0.000000
0.948000 0.460800 0.000000
0.000000 0.591000 0.000000
0.066000 0.591000 0.000000
0.192000 0.591000 0.000000
0.318000 0.591000 0.000000
0.444000 0.591000 0.000000
0.570000 0.591000 0.000000
0.696000 0.591000 0.000000
0.822000 0.591000 0.000000
0.948000 0.591000 0.000000
0.000000 0.721200 0.000000
0.066000 0.721200 0.000000
0.192000 0.721200 0.000000
0.318000 0.721200 0.000000
0.444000 0.721200 0.000000
0.570000 0.721200 0.000000
0.696000 0.721200 0.000000
0.822000 0.721200 0.000000
0.948000 0.721200 0.000000
0.000000 0.851400 0.000000
0.066000 0.851400 0.000000
0.192000 0.851400 0.000000
0.318000 0.851400 0.000000
0.444000 0.851400 0.000000
0.570000 0.851400 0.000000
0.696000 0.851400 0.000000
0.822000 0.851400 0.000000
0.948000 0.851400 0.000000
0.000000 0.981600 0.000000
0.066000 0.981600 0.000000
0.192000 0.981600 0.000000
0.318000 0.981600 0.000000
0.444000 0.981600 0.000000
0.570000 0.981600 0.000000
0.696000 0.981600 0.000000
0.822000 0.981600 0.000000
0.948000 0.981600 0.000000
0.000000 0.000000 0.120600
0.066000 0.000000 0.120600
0.192000 0.000000 0.120600
0.318000 0.000000 0.120600
0.444000 0.000000 0.120600
0.570000 0.000000 0.120600
0.696000 0.000000 0.120600
0.822000 0.000000 0.120600
0.948000 0.000000 0.120600
0.000000 0.070200 0.120600
0.066000 0.070200 0.120600
0.192000 0.070200 0.120600
0.318000 0.070200 0.120600
0.444000 0.070200 0.120600
0.570000 0.070200 0.120600
0.696000 0.070200 0.120600
0.822000 0.070200 0.120600
0.948000 0.070200 0.120600
0.000000 0.200400 0.120600
0.066000 0.200400 0.120600
0.192000 0.200400 0.120600
0.318000 0.200400 0.120600
0.444000 0.200400 0.120600
0.570000 0.200400 0.120600
0.696000 0.200400 0.120600
0.822000 0.200400 0.120600
0.948000 0.200400 0.120600
0.000000 0.330600 0.120600
0.066000 0.330600 0.120600
0.192000 0.330600 0.120600
0.318000 0.330600 0.120600
0.444000 0.330600 0.120600
0.570000 0.330600 0.120600
0.696000 0.330600 0.120600
0.822000 0.330600 0.120600
0.948000 0.330600 0.120600
0.000000 0.460800 0.120600
0.066000 0.460800 0.120600
0.192000 0.460800 0.120600
0.318000 0.460800 0.120600
0.444000 0.460800 0.120600
0.570000 0.460800 0.120600
0.696000 0.460800 0.120600
0.822000 0.460800 0.120600
0.948000 0.460800 0.120600
0.000000 0.591000 0.120600
0.066000 0.591000 0.120600
0.192000 0.591000 0.120600
0.318000 0.591000 0.120600
0.444000 0.591000 0.120600
0.570000 0.591000 0.120600
0.696000 0.591000 0.120600
0.822000 0.591000 0.120600
0.948000 0.591000 0.120600
0.000000 0.721200 0.120600
0.066000 0.721200 0.120600
0.192000 0.721200 0.120600
0.318000 0.721200 0.120600
0.444000 0.721200 0.120600
0.570000 0.721200 0.120600
0.696000 0.721200 0.120600
0.822000 0.721200 0.120600
0.948000 0.721200 0.120600
0.000000 0.851400 0.120600
0.066000 0.851400 0.120600
0.192000 0.851400 0.120600
0.318000 0.851400 0.120600
0.444000 0.851400 0.120600
0.570000 0.851400 0.120600
0.696000 0.851400 0.120600
0.822000 0.851400 0.120600
0.948000 0.851400 0.120600
0.000000 0.981600 0.120600
0.066000 0.981600 0.120600
0.192000 0.981600 0.120600
0.318000 0.981600 0.120600
0.444000 0.981600 0.120600
0.570000 0.981600 0.120600
0.696000 0.981600 0.120600
0.822000 0.981600 0.120600
0.948000 0.981600 0.120600
0.000000 0.000000 0.267600
0.066000 0.000000 0.267600
0.192000 0.000000 0.267600
0.318000 0.000000 0.267600
0.444000 0.000000 0.267600
0.570000 0.000000 0.267600
0.696000 0.000000 0.267600
0.822000 0.000000 0.267600
0.948000 0.000000 0.267600
0.000000 0.070200 0.267600
0.066000 0.070200 0.267600
0.192000 0.070200 0.267600
0.318000 0.070200 0.267600
0.444000 0.070200 0.267600
0.570000 0.070200 0.267600
0.696000 0.070200 0.267600
0.822000 0.070200 0.267600
0.948000 0.070200 0.267600
0.000000 0.200400 0.267600
0.066000 0.200400 0.267600
0.192000 0.200400 0.267600
0.318000 0.200400 0.267600
0.444000 0.200400 0.267600
0.570000 0.200400 0.267600
0.696000 0.200400 0.267600
0.822000 0.200400 0.267600
0.948000 0.200400 0.267600
0.000000 0.330600 0.267600
0.066000 0.330600 0.267600
0.192000 0.330600 0.267600
0.318000 0.330600 0.267600
0.444000 0.330600 0.267600
0.570000 0.330600 0.267600
0.696000 0.330600 0.267600
0.822000 0.330600 0.267600
0.948000 0.330600 0.267600
0.000000 0.460800 0.267600
0.066000 0.460800 0.267600
0.192000 0.460800 0.267600
0.318000 0.460800 0.267600
0.444000 0.460800 0.267600
0.570000 0.460800 0.267600
0.696000 0.460800 0.267600
0.822000 0.460800 0.267600
0.948000 0.460800 0.267600
0.000000 0.591000 0.267600
0.066000 0.591000 0.267600
0.192000 0.591000 0.267600
0.318000 0.591000 0.267600
0.444000 0.591000 0.267600
0.570000 0.591000 0.267600
0.696000 0.591000 0.267600
0.822000 0.591000 0.267600
0.948000 0.591000 0.267600
0.000000 0.721200 0.267600
0.066000 0.721200 0.267600
0.192000 0.721200 0.267600
0.318000 0.721200 0.267600
0.444000 0.721200 0.267600
0.570000 0.721200 0.267600
0.696000 0.721200 0.267600
0.822000 0.721200 0.267600
0.948000 0.721200 0.267600
0.000000 0.851400 0.267600
0.066000 0.851400 0.267600
0.192000 0.851400 0.267600
0.318000 0.851400 0.267600
0.444000 0.851400 0.267600
0.570000 0.851400 0.267600
0.696000 0.851400 0.267600
0.822000 0.851400 0.267600
0.948000 0.851400 0.267600
0.000000 0.981600 0.267600
0.066000 0.981600 0.267600
0.192000 0.981600 0.267600
0.318000 0.981600 0.267600
0.444000 0.981600 0.267600
0.570000 0.981600 0.267600
0.696000 0.981600 0.267600
0.822000 0.981600 0.267600
0.948000 0.981600 0.267600
0.000000 0.000000 0.414600
0.066000 0.000000 0.414600
0.192000 0.000000 0.414600
0.318000 0.000000 0.414600
0.444000 0.000000 0.414600
0.570000 0.000000 0.414600
0.696000 0.000000 0.414600
0.822000 0.000000 0.414600
0.948000 0.000000 0.414600
0.000000 0.070200 0.414600
0.066000 0.070200 0.414600
0.192000 0.070200 0.414600
0.318000 0.070200 0.414600
0.444000 0.070200 0.414600
0.570000 0.070200 0.414600
0.696000 0.070200 0.414600
0.822000 0.070200 0.414600
0.948000 0.070200 0.414600
0.000000 0.200400 0.414600
0.066000 0.200400 0.414600
0.192000 0.200400 0.414600
0.318000 0.200400 0.414600
0.444000 0.200400 0.414600
0.570000 0.200400 0.414600
0.696000 0.200400 0.414600
0.822000 0.200400 0.414600
0.948000 0.200400 0.414600
0.000000 0.330600 0.414600
0.066000 0.330600 0.414600
0.192000 0.330600 0.414600
0.318000 0.330600 0.414600
0.444000 0.330600 0.414600
0.570000 0.330600 0.414600
0.696000 0.330600 0.414600
0.822000 0.330600 0.414600
0.948000 0.330600 0.414600
0.000000 0.460800 0.414600
0.066000 0.460800 0.414600
0.192000 0.460800 0.414600
0.318000 0.460800 0.414600
0.444000 0.460800 0.414600
0.570000 0.460800 0.414600
0.696000 0.460800 0.414600
0.822000 0.460800 0.414600
0.948000 0.460800 0.414600
0.000000 0.591000 0.414600
0.066000 0.591000 0.414600
0.192000 0.591000 0.414600
0.318000 0.591000 0.414600
0.444000 0.591000 0.414600
0.570000 0.591000 0.414600
0.696000 0.591000 0.414600
0.822000 0.591000 0.414600
0.948000 0.591000 0.414600
0.000000 0.721200 0.414600
0.066000 0.721200 0.414600
0.192000 0.721200 0.414600
0.318000 0.721200 0.414600
0.444000 0.721200 0.414600
0.570000 0.721200 0.414600
0.696000 0.721200 0.414600
0.822000 0.721200 0.414600
0.948000 0.721200 0.414600
0.000000 0.851400 0.414600
0.066000 0.851400 0.414600
0.192000 0.851400 0.414600
0.318000 0.851400 0.414600
0.444000 0.851400 0.414600
0.570000 0.851400 0.414600
0.696000 0.851400 0.414600
0.822000 0.851400 0.414600
0.948000 0.851400 0.414600
0.000000 0.981600 0.414600
0.066000 0.981600 0.414600
0.192000 0.981600 0.414600
0.318000 0.981600 0.414600
0.444000 0.981600 0.414600
0.570000 0.981600 0.414600
0.696000 0.981600 0.414600
0.822000 0.981600 0.414600
0.948000 0.981600 0.414600
0.000000 0.000000 0.561600
0.066000 0.000000 0.561600
0.192000 0.000000 0.561600
0.318000 0.000000 0.561600
0.444000 0.000000 0.561600
0.570000 0.000000 0.561600
0.696000 0.000000 0.561600
0.822000 0.000000 0.561600
0.948000 0.000000 0.561600
0.000000 0.070200 0.561600
0.066000 0.070200 0.561600
0.192000 0.070200 0.561600
0.318000 0.070200 0.561600
0.444000 0.070200 0.561600
0.570000 0.070200 0.561600
0.696000 0.070200 0.561600
0.822000 0.070200 0.561600
0.948000 0.070200 0.561600
0.000000 0.200400 0.561600
0.066000 0.200400 0.561600
0.192000 0.200400 0.561600
0.318000 0.200400 0.561600
0.444000 0.200400 0.561600
0.570000 0.200400 0.561600
0.696000 0.200400 0.561600
0.822000 0.200400 0.561600
0.948000 0.200400 0.561600
0.000000 0.330600 0.561600
0.066000 0.330600 0.561600
0.192000 0.330600 0.561600
0.318000 0.330600 0.561600
0.444000 0.330600 0.561600
0.570000 0.330600 0.561600
0.696000 0.330600 0.561600
0.822000 0.330600 0.561600
0.948000 0.330600 0.561600
0.000000 0.460800 0.561600
0.066000 0.460800 0.561600
0.192000 0.460800 0.561600
0.318000 0.460800 0.561600
0.444000 0.460800 0.561600
0.570000 0.460800 0.561600
0.696000 0.460800 0.561600
0.822000 0.460800 0.561600
0.948000 0.460800 0.561600
0.000000 0.591000 0.561600
0.066000 0.591000 0.561600
0.192000 0.591000 0.561600
0.318000 0.591000 0.561600
0.444000 0.591000 0.561600
0.570000 0.591000 0.561600
0.696000 0.591000 0.561600
0.822000 0.591000 0.561600
0.948000 0.591000 0.561600
0.000000 0.721200 0.561600
0.066000 0.721200 0.561600
0.192000 0.721200 0.561600
0.318000 0.721200 0.561600
0.444000 0.721200 0.561600
0.570000 0.721200 0.561600
0.696000 0.721200 0.561600
0.822000 0.721200 0.561600
0.948000 0.721200 0.561600
0.000000 0.851400 0.561600
0.066000 0.851400 0.561600
0.192000 0.851400 0.561600
0.318000 0.851400 0.561600
0.444000 0.851400 0.561600
0.570000 0.851400 0.561600
0.696000 0.851400 0.561600
0.822000 0.851400 0.561600
0.948000 0.851400 0.561600
0.000000 0.981600 0.561600
0.066000 0.981600 0.561600
0.192000 0.981600 0.561600
0.318000 0.981600 0.561600
0.444000 0.981600 0.561600
0.570000 0.981600 0.561600
0.696000 0.981600 0.561600
0.822000 0.981600 0.561600
0.948000 0.981600 0.561600
0.000000 0.000000 0.708600
0.066000 0.000000 0.708600
0.192000 0.000000 0.708600
0.318000 0.000000 0.708600
0.444000 0.000000 0.708600
0.570000 0.000000 0.708600
0.696000 0.000000 0.708600
0.822000 0.000000 0.708600
0.948000 0.000000 0.708600
0.000000 0.070200 0.708600
0.066000 0.070200 0.708600
0.192000 0.070200 0.708600
0.318000 0.070200 0.708600
0.444000 0.070200 0.708600
0.570000 0.070200 0.708600
0.696000 0.070200 0.708600
0.822000 0.070200 0.708600
0.948000 0.070200 0.708600
0.000000 0.200400 0.708600
0.066000 0.200400 0.708600
0.192000 0.200400 0.708600
0.318000 0.200400 0.708600
0.444000 0.200400 0.708600
0.570000 0.200400 0.708600
0.696000 0.200400 0.708600
0.822000 0.200400 0.708600
0.948000 0.200400 0.708600
0.000000 0.330600 0.708600
0.066000 0.330600 0.708600
0.192000 0.330600 0.708600
0.318000 0.330600 0.708600
0.444000 0.330600 0.708600
0.570000 0.330600 0.708600
0.696000 0.330600 0.708600
0.822000 0.330600 0.708600
0.948000 0.330600 0.708600
0.000000 0.460800 0.708600
0.066000 0.460800 0.708600
0.192000 0.460800 0.708600
0.318000 0.460800 0.708600
0.444000 0.460800 0.708600
0.570000 0.460800 0.708600
0.696000 0.460800 0.708600
0.822000 0.460800 0.708600
0.948000 0.460800 0.708600
0.000000 0.591000 0.708600
0.066000 0.591000 0.708600
0.192000 0.591000 0.708600
0.318000 0.591000 0.708600
0.444000 0.591000 0.708600
0.570000 0.591000 0.708600
0.696000 0.591000 0.708600
0.822000 0.591000 0.708600
0.948000 0.591000 0.708600
0.000000 0.721200 0.708600
0.066000 0.721200 0.708600
0.192000 0.721200 0.708600
0.318000 0.721200 0.708600
0.444000 0.721200 0.708600
0.570000 0.721200 0.708600
0.696000 0.721200 0.708600
0.822000 0.721200 0.708600
0.948000 0.721200 0.708600
0.000000 0.851400 0.708600
0.066000 0.851400 0.708600
0.192000 0.851400 0.708600
0.318000 0.851400 0.708600
0.444000 0.851400 0.708600
0.570000 0.851400 0.708600
0.696000 0.851400 0.708600
0.822000 0.851400 0.708600
0.948000 0.851400 0.708600
0.000000 0.981600 0.708600
0.066000 0.981600 0.708600
0.192000 0.981600 0.708600
0.318000 0.981600 0.708600
0.444000 0.981600 0.708600
0.570000 0.981600 0.708600
0.696000 0.981600 0.708600
0.822000 0.981600 0.708600
0.948000 0.981600 0.708600
0.000000 0.000000 0.855600
0.066000 0.000000 0.855600
0.192000 0.000000 0.855600
0.318000 0.000000 0.855600
0.444000 0.000000 0.855600
0.570000 0.000000 0.855600
0.696000 0.000000 0.855600
0.822000 0.000000 0.855600
0.948000 0.000000 0.855600
0.000000 0.070200 0.855600
0.066000 0.070200 0.855600
0.192000 0.070200 0.855600
0.318000 0.070200 0.855600
0.444000 0.070200 0.855600
0.570000 0.070200 0.855600
0.696000 0.070200 0.855600
0.822000 0.070200 0.855600
0.948000 0.070200 0.855600
0.000000 0.200400 0.855600
0.066000 0.200400 0.855600
0.192000 0.200400 0.855600
0.318000 0.200400 0.855600
0.444000 0.200400 0.855600
0.570000 0.200400 0.855600
0.696000 0.200400 0.855600
0.822000 0.200400 0.855600
0.948000 0.200400 0.855600
0.000000 0.330600 0.855600
0.066000 0.330600 0.855600
0.192000 0.330600 0.855600
0.318000 0.330600 0.855600
0.444000 0.330600 0.855600
0.570000 0.330600 0.855600
0.696000 0.330600 0.855600
0.822000 0.330600 0.855600
0.948000 0.330600 0.855600
0.000000 0.460800 0.855600
0.066000 0.460800 0.855600
0.192000 0.460800 0.855600
0.318000 0.460800 0.855600
0.444000 0.460800 0.855600
0.570000 0.460800 0.855600
0.696000 0.460800 0.855600
0.822000 0.460800 0.855600
0.948000 0.460800 0.855600
0.000000 0.591000 0.855600
0.066000 0.591000 0.855600
0.192000 0.591000 0.855600
0.318000 0.591000 0.855600
0.444000 0.591000 0.855600
0.570000 0.591000 0.855600
0.696000 0.591000 0.855600
0.822000 0.591000 0.855600
0.948000 0.591000 0.855600
0.000000 0.721200 0.855600
0.066000 0.721200 0.855600
0.192000 0.721200 0.855600
0.318000 0.721200 0.855600
0.444000 0.721200 0.855600
0.570000 0.721200 0.855600
0.696000 0.721200 0.855600
0.822000 0.721200 0.855600
0.948000 0.721200 0.855600
0.000000 0.851400 0.855600
0.066000 0.851400 0.855600
0.192000 0.851400 0.855600
0.318000 0.851400 0.855600
0.444000 0.851400 0.855600
0.570000 0.851400 0.855600
0.696000 0.851400 0.855600
0.822000 0.851400 0.855600
0.948000 0.851400 0.855600
0.000000 0.981600 0.855600
0.066000 0.981600 0.855600
0.192000 0.981600 0.855600
0.318000 0.981600 0.855600
0.444000 0.981600 0.855600
0.570000 0.981600 0.855600
0.696000 0.981600 0.855600
0.822000 0.981600 0.855600
0.948000 0.981600 0.855600
0.000000 0.000000 1.000000
0.066000 0.000000 1.000000
0.192000 0.000000 1.000000
0.318000 0.000000 1.000000
0.444000 0.000000 1.000000
0.570000 0.000000 1.000000
0.696000 0.000000 1.000000
0.822000 0.000000 1.000000
0.948000 0.000000 1.000000
0.000000 0.070200 1.000000
0.066000 0.070200 1.000000
0.192000 0.070200 1.000000
0.318000 0.070200 1.000000
0.444000 0.070200 1.000000
0.570000 0.070200 1.000000
0.696000 0.070200 1.000000
0.822000 0.070200 1.000000
0.948000 0.070200 1.000000
0.000000 0.200400 1.000000
0.066000 0.200400 1.000000
0.192000 0.200400 1.000000
0.318000 0.200400 1.000000
0.444000 0.200400 1.000000
0.570000 0.200400 1.000000
0.696000 0.200400 1.000000
0.822000 0.200400 1.000000
0.948000 0.200400 1.000000
0.000000 0.330600 1.000000
0.066000 0.330600 1.000000
0.192000 0.330600 1.000000
0.318000 0.330600 1.000000
0.444000 0.330600 1.000000
0.570000 0.330600 1.000000
0.696000 0.330600 1.000000
0.822000 0.330600 1.000000
0.948000 0.330600 1.000000
0.000000 0.460800 1.000000
0.066000 0.460800 1.000000
0.192000 0.460800 1.000000
0.318000 0.460800 1.000000
0.444000 0.460800 1.000000
0.570000 0.460800 1.000000
0.696000 0.460800 1.000000
0.822000 0.460800 1.000000
0.948000 0.460800 1.000000
0.000000 0.591000 1.000000
0.066000 0.591000 1.000000
0.192000 0.591000 1.000000
0.318000 0.591000 1.000000
0.444000 0.591000 1.000000
0.570000 0.591000 1.000000
0.696000 0.591000 1.000000
0.822000 0.591000 1.000000
0.948000 0.591000 1.000000
0.000000 0.721200 1.000000
0.066000 0.721200 1.000000
0.192000 0.721200 1.000000
0.318000 0.721200 1.000000
0.444000 0.721200 1.000000
0.570000 0.721200 1.000000
0.696000 0.721200 1.000000
0.822000 0.721200 1.000000
0.948000 0.721200 1.000000
0.000000 0.851400 1.000000
0.066000 0.851400 1.000000
0.192000 0.851400 1.000000
0.318000 0.851400 1.000000
0.444000 0.851400 1.000000
0.570000 0.851400 1.000000
0.696000 0.851400 1.000000
0.822000 0.851400 1.000000
0.948000 0.851400 1.000000
0.000000 0.981600 1.000000
0.066000 0.981600 1.000000
0.192000 0.981600 1.000000
0.318000 0.981600 1.000000
0.444000 0.981600 1.000000
0.570000 0.981600 1.000000
0.696000 0.981600 1.000000
0.822000 0.981600 1.000000
0.948000 0.981600 1.000000
0.000000 0.000000 1.000000
0.066000 0.000000 1.000000
0.192000 0.000000 1.000000
0.318000 0.000000 1.000000
0.444000 0.000000 1.000000
0.570000 0.000000 1.000000
0.696000 0.000000 1.000000
0.822000 0.000000 1.000000
0.948000 0.000000 1.000000
0.000000 0.070200 1.000000
0.066000 0.070200 1.000000
0.192000 0.070200 1.000000
0.318000 0.070200 1.000000
0.444000 0.070200 1.000000
0.570000 0.070200 1.000000
0.696000 0.070200 1.000000
0.822000 0.070200 1.000000
0.948000 0.070200 1.000000
0.000000 0.200400 1.000000
0.066000 0.200400 1.000000
0.192000 0.200400 1.000000
0.318000 0.200400 1.000000
0.444000 0.200400 1.000000
0.570000 0.200400 1.000000
0.696000 0.200400 1.000000
0.822000 0.200400 1.000000
0.948000 0.200400 1.000000
0.000000 0.330600 1.000000
0.066000 0.330600 1.000000
0.192000 0.330600 1.000000
0.318000 0.330600 1.000000
0.444000 0.330600 1.000000
0.570000 0.330600 1.000000
0.696000 0.330600 1.000000
0.822000 0.330600 1.000000
0.948000 0.330600 1.000000
0.000000 0.460800 1.000000
0.066000 0.460800 1.000000
0.192000 0.460800 1.000000
0.318000 0.460800 1.000000
0.444000 0.460800 1.000000
0.570000 0.460800 1.000000
0.696000 0.460800 1.000000
0.822000 0.460800 1.000000
0.948000 0.460800 1.000000
0.000000 0.591000 1.000000
0.066000 0.591000 1.000000
0.192000 0.591000 1.000000
0.318000 0.591000 1.000000
0.444000 0.591000 1.000000
0.570000 0.591000 1.000000
0.696000 0.591000 1.000000
0.822000 0.591000 1.000000
0.948000 0.591000 1.000000
0.000000 0.721200 1.000000
0.066000 0.721200 1.000000
0.192000 0.721200 1.000000
0.318000 0.721200 1.000000
0.444000 0.721200 1.000000
0.570000 0.721200 1.000000
0.696000 0.721200 1.000000
0.822000 0.721200 1.000000
0.948000 0.721200 1.000000
0.000000 0.851400 1.000000
0.066000 0.851400 1.000000
0.192000 0.851400 1.000000
0.318000 0.851400 1.000000
0.444000 0.851400 1.000000
0.570000 0.851400 1.000000
0.696000 0.851400 1.000000
0.822000 0.851400 1.000000
0.948000 0.851400 1.000000
0.000000 0.981600 1.000000
0.066000 0.981600 1.000000
0.192000 0.981600 1.000000
0.318000 0.981600 1.000000
0.444000 0.981600 1.000000
0.570000 0.981600 1.000000
0.696000 0.981600 1.000000
0.822000 0.981600 1.000000
0.948000 0.981600 1.000000
