presentation/src/main/res/raw/cool_blue_steel.cube
# © 2026 luttie. All rights reserved.
# This LUT is licensed for use within the luttie platform only.
# Unauthorized redistribution or resale is prohibited.
TITLE "Cool Blue Steel"
LUT_3D_SIZE 5
0.000000 0.000000 0.000000
0.192000 0.000000 0.000000
0.444000 0.000000 0.000000
0.696000 0.000000 0.000000
0.948000 0.000000 0.000000
0.000000 0.200400 0.000000
0.192000 0.200400 0.000000
0.444000 0.200400 0.000000
0.696000 0.200400 0.000000
0.948000 0.200400 0.000000
0.000000 0.460800 0.000000
0.192000 0.460800 0.000000
0.444000 0.460800 0.000000
0.696000 0.460800 0.000000
0.948000 0.460800 0.000000
0.000000 0.721200 0.000000
0.192000 0.721200 0.000000
0.444000 0.721200 0.000000
0.696000 0.721200 0.000000
0.948000 0.721200 0.000000
0.000000 0.981600 0.000000
0.192000 0.981600 0.000000
0.444000 0.981600 0.000000
0.696000 0.981600 0.000000
0.948000 0.981600 0.000000
0.000000 0.000000 0.267600
0.192000 0.000000 0.267600
0.444000 0.000000 0.267600
0.696000 0.000000 0.267600
0.948000 0.000000 0.267600
0.000000 0.200400 0.267600
0.192000 0.200400 0.267600
0.444000 0.200400 0.267600
0.696000 0.200400 0.267600
0.948000 0.200400 0.267600
0.000000 0.460800 0.267600
0.192000 0.460800 0.267600
0.444000 0.460800 0.267600
0.696000 0.460800 0.267600
0.948000 0.460800 0.267600
0.000000 0.721200 0.267600
0.192000 0.721200 0.267600
0.444000 0.721200 0.267600
0.696000 0.721200 0.267600
0.948000 0.721200 0.267600
0.000000 0.981600 0.267600
0.192000 0.981600 0.267600
0.444000 0.981600 0.267600
0.696000 0.981600 0.267600
0.948000 0.981600 0.267600
0.000000 0.000000 0.561600
0.192000 0.000000 0.561600
0.444000 0.000000 0.561600
0.696000 0.000000 0.561600
0.948000 0.000000 0.561600
0.000000 0.200400 0.561600
0.192000 0.200400 0.561600
0.444000 0.200400 0.561600
0.696000 0.200400 0.561600
0.948000 0.200400 0.561600
0.000000 0.460800 0.561600
0.192000 0.460800 0.561600
0.444000 0.460800 0.561600
0.696000 0.460800 0.561600
0.948000 0.460800 0.561600
0.000000 0.721200 0.561600
0.192000 0.721200 0.561600
0.444000 0.721200 0.561600
0.696000 0.721200 0.561600
0.948000 0.721200 0.561600
0.000000 0.981600 0.561600
0.192000 0.981600 0.561600
0.444000 0.981600 0.561600
0.696000 0.981600 0.561600
0.948000 0.981600 0.561600
0.000000 0.000000 0.855600
0.192000 0.000000 0.855600
0.444000 0.000000 0.855600
0.696000 0.000000 0.855600
0.948000 0.000000 0.855600
0.000000 0.200400 0.855600
0.192000 0.200400 0.855600
0.444000 0.200400 0.855600
0.696000 0.200400 0.855600
0.948000 0.200400 0.855600
0.000000 0.460800 0.855600
0.192000 0.460800 0.855600
0.444000 0.460800 0.855600
0.696000 0.460800 0.855600
0.948000 0.460800 0.855600
0.000000 0.721200 0.855600
0.192000 0.721200 0.855600
0.444000 0.721200 0.855600
0.696000 0.721200 0.855600
0.948000 0.721200 0.855600
0.000000 0.981600 0.855600
0.192000 0.981600 0.855600
0.444000 0.981600 0.855600
0.696000 0.981600 0.855600
0.948000 0.981600 0.855600
0.000000 0.000000 1.000000
0.192000 0.000000 1.000000
0.444000 0.000000 1.000000
0.696000 0.000000 1.000000
0.948000 0.000000 1.000000
0.000000 0.200400 1.000000
0.192000 0.200400 1.000000
0.444000 0.200400 1.000000
0.696000 0.200400 1.000000
0.948000 0.200400 1.000000
0.000000 0.460800 1.000000
0.192000 0.460800 1.000000
0.444000 0.460800 1.000000
0.696000 0.460800 1.000000
0.948000 0.460800 1.000000
0.000000 0.721200 1.000000
0.192000 0.721200 1.000000
0.444000 0.721200 1.000000
0.696000 0.721200 1.000000
0.948000 0.721200 1.000000
0.000000 0.981600 1.000000
0.192000 0.981600 1.000000
0.444000 0.981600 1.000000
0.696000 0.981600 1.000000
0.948000 0.981600 1.000000
