presentation/src/main/res/raw/cool_blue_steel.cube
# © 2026 luttie. All rights reserved.
# This LUT is licensed for use within the luttie platform only.
# Unauthorized redistribution or resale is prohibited.
TITLE "Cool Blue Steel"
LUT_3D_SIZE 33
0.000000 0.000000 0.000000
0.000000 0.000000 0.000000
0.003000 0.000000 0.000000
0.034500 0.000000 0.000000
0.066000 0.000000 0.000000
0.097500 0.000000 0.000000
0.129000 0.000000 0.000000
0.160500 0.000000 0.000000
0.192000 0.000000 0.000000
0.223500 0.000000 0.000000
0.255000 0.000000 0.000000
0.286500 0.000000 0.000000
0.318000 0.000000 0.000000
0.349500 0.000000 0.000000
0.381000 0.000000 0.000000
0.412500 0.000000 0.000000
0.444000 0.000000 0.000000
0.475500 0.000000 0.000000
0.507000 0.000000 0.000000
0.538500 0.000000 0.000000
0.570000 0.000000 0.000000
0.601500 0.000000 0.000000
0.633000 0.000000 0.000000
0.664500 0.000000 0.000000
0.696000 0.000000 0.000000
0.727500 0.000000 0.000000
0.759000 0.000000 0.000000
0.790500 0.000000 0.000000
0.822000 0.000000 0.000000
0.853500 0.000000 0.000000
0.885000 0.000000 0.000000
0.916500 0.000000 0.000000
0.948000 0.000000 0.000000
0.000000 0.000000 0.000000
0.000000 0.000000 0.000000
0.003000 0.000000 0.000000
0.034500 0.000000 0.000000
0.066000 0.000000 0.000000
0.097500 0.000000 0.000000
0.129000 0.000000 0.000000
0.160500 0.000000 0.000000
0.192000 0.000000 0.000000
0.223500 0.000000 0.000000
0.255000 0.000000 0.000000
0.286500 0.000000 0.000000
0.318000 0.000000 0.000000
0.349500 0.000000 0.000000
0.381000 0.000000 0.000000
0.412500 0.000000 0.000000
0.444000 0.000000 0.000000
0.475500 0.000000 0.000000
0.507000 0.000000 0.000000
0.538500 0.000000 0.000000
0.570000 0.000000 0.000000
0.601500 0.000000 0.000000
0.633000 0.000000 0.000000
0.664500 0.000000 0.000000
0.696000 0.000000 0.000000
0.727500 0.000000 0.000000
0.759000 0.000000 0.000000
0.790500 0.000000 0.000000
0.822000 0.000000 0.000000
0.853500 0.000000 0.000000
0.885000 0.000000 0.000000
0.916500 0.000000 0.000000
0.948000 0.000000 0.000000
0.000000 0.005100 0.000000
0.000000 0.005100 0.000000
0.003000 0.005100 0.000000
0.034500 0.005100 0.000000
0.066000 0.005100 0.000000
0.097500 0.005100 0.000000
0.129000 0.005100 0.000000
0.160500 0.005100 0.000000
0.192000 0.005100 0.000000
0.223500 0.005100 0.000000
0.255000 0.005100 0.000000
0.286500 0.005100 0.000000
0.318000 0.005100 0.000000
0.349500 0.005100 0.000000
0.381000 0.005100 0.000000
0.412500 0.005100 0.000000
0.444000 0.005100 0.000000
0.475500 0.005100 0.000000
0.507000 0.005100 0.000000
0.538500 0.005100 0.000000
0.570000 0.005100 0.000000
0.601500 0.005100 0.000000
0.633000 0.005100 0.000000
0.664500 0.005100 0.000000
0.696000 0.005100 0.000000
0.727500 0.005100 0.000000
0.759000 0.005100 0.000000
0.790500 0.005100 0.000000
0.822000 0.005100 0.000000
0.853500 0.005100 0.000000
0.885000 0.005100 0.000000
0.916500 0.005100 0.000000
0.948000 0.005100 0.000000
0.000000 0.037650 0.000000
0.000000 0.037650 0.000000
0.003000 0.037650 0.000000
0.034500 0.037650 0.000000
0.066000 0.037650 0.000000
0.097500 0.037650 0.000000
0.129000 0.037650 0.000000
0.160500 0.037650 0.000000
0.192000 0.037650 0.000000
0.223500 0.037650 0.000000
0.255000 0.037650 0.000000
0.286500 0.037650 0.000000
0.318000 0.037650 0.000000
0.349500 0.037650 0.000000
0.381000 0.037650 0.000000
0.412500 0.037650 0.000000
0.444000 0.037650 0.000000
0.475500 0.037650 0.000000
0.507000 0.037650 0.000000
0.538500 0.037650 0.000000
0.570000 0.037650 0.000000
0.601500 0.037650 0.000000
0.633000 0.037650 0.000000
0.664500 0.037650 0.000000
0.696000 0.037650 0.000000
0.727500 0.037650 0.000000
0.759000 0.037650 0.000000
0.790500 0.037650 0.000000
0.822000 0.037650 0.000000
0.853500 0.037650 0.000000
0.885000 0.037650 0.000000
0.916500 0.037650 0.000000
0.948000 0.037650 0.000000
0.000000 0.070200 0.000000
0.000000 0.070200 0.000000
0.003000 0.070200 0.000000
0.034500 0.070200 0.000000
0.066000 0.070200 0.000000
0.097500 0.070200 0.000000
0.129000 0.070200 0.000000
0.160500 0.070200 0.000000
0.192000 0.070200 0.000000
0.223500 0.070200 0.000000
0.255000 0.070200 0.000000
0.286500 0.070200 0.000000
0.318000 0.070200 0.000000
0.349500 0.070200 0.000000
0.381000 0.070200 0.000000
0.412500 0.070200 0.000000
0.444000 0.070200 0.000000
0.475500 0.070200 0.000000
0.507000 0.070200 0.000000
0.538500 0.070200 0.000000
0.570000 0.070200 0.000000
0.601500 0.070200 0.000000
0.633000 0.070200 0.000000
0.664500 0.070200 0.000000
0.696000 0.070200 0.000000
0.727500 0.070200 0.000000
0.759000 0.070200 0.000000
0.790500 0.070200 0.000000
0.822000 0.070200 0.000000
0.853500 0.070200 0.000000
0.885000 0.070200 0.000000
0.916500 0.070200 0.000000
0.948000 0.070200 0.000000
0.000000 0.102750 0.000000
0.000000 0.102750 0.000000
0.003000 0.102750 0.000000
0.034500 0.102750 0.000000
0.066000 0.102750 0.000000
0.097500 0.102750 0.000000
0.129000 0.102750 0.000000
0.160500 0.102750 0.000000
0.192000 0.102750 0.000000
0.223500 0.102750 0.000000
0.255000 0.102750 0.000000
0.286500 0.102750 0.000000
0.318000 0.102750 0.000000
0.349500 0.102750 0.000000
0.381000 0.102750 0.000000
0.412500 0.102750 0.000000
0.444000 0.102750 0.000000
0.475500 0.102750 0.000000
0.507000 0.102750 0.000000
0.538500 0.102750 0.000000
0.570000 0.102750 0.000000
0.601500 0.102750 0.000000
0.633000 0.102750 0.000000
0.664500 0.102750 0.000000
0.696000 0.102750 0.000000
0.727500 0.102750 0.000000
0.759000 0.102750 0.000000
0.790500 0.102750 0.000000
0.822000 0.102750 0.000000
0.853500 0.102750 0.000000
0.885000 0.102750 0.000000
0.916500 0.102750 0.000000
0.948000 0.102750 0.000000
0.000000 0.135300 0.000000
0.000000 0.135300 0.000000
0.003000 0.135300 0.000000
0.034500 0.135300 0.000000
0.066000 0.135300 0.000000
0.097500 0.135300 0.000000
0.129000 0.135300 0.000000
0.160500 0.135300 0.000000
0.192000 0.135300 0.000000
0.223500 0.135300 0.000000
0.255000 0.135300 0.000000
0.286500 0.135300 0.000000
0.318000 0.135300 0.000000
0.349500 0.135300 0.000000
0.381000 0.135300 0.000000
0.412500 0.135300 0.000000
0.444000 0.135300 0.000000
0.475500 0.135300 0.000000
0.507000 0.135300 0.000000
0.538500 0.135300 0.000000
0.570000 0.135300 0.000000
0.601500 0.135300 0.000000
0.633000 0.135300 0.000000
0.664500 0.135300 0.000000
0.696000 0.135300 0.000000
0.727500 0.135300 0.000000
0.759000 0.135300 0.000000
0.790500 0.135300 0.000000
0.822000 0.135300 0.000000
0.853500 0.135300 0.000000
0.885000 0.135300 0.000000
0.916500 0.135300 0.000000
0.948000 0.135300 0.000000
0.000000 0.167850 0.000000
0.000000 0.167850 0.000000
0.003000 0.167850 0.000000
0.034500 0.167850 0.000000
0.066000 0.167850 0.000000
0.097500 0.167850 0.000000
0.129000 0.167850 0.000000
0.160500 0.167850 0.000000
0.192000 0.167850 0.000000
0.223500 0.167850 0.000000
0.255000 0.167850 0.000000
0.286500 0.167850 0.000000
0.318000 0.167850 0.000000
0.349500 0.167850 0.000000
0.381000 0.167850 0.000000
0.412500 0.167850 0.000000
0.444000 0.167850 0.000000
0.475500 0.167850 0.000000
0.507000 0.167850 0.000000
0.538500 0.167850 0.000000
0.570000 0.167850 0.000000
0.601500 0.167850 0.000000
0.633000 0.167850 0.000000
0.664500 0.167850 0.000000
0.696000 0.167850 0.000000
0.727500 0.167850 0.000000
0.759000 0.167850 0.000000
0.790500 0.167850 0.000000
0.822000 0.167850 0.000000
0.853500 0.167850 0.000000
0.885000 0.167850 0.000000
0.916500 0.167850 0.000000
0.948000 0.167850 0.000000
0.000000 0.200400 0.000000
0.000000 0.200400 0.000000
0.003000 0.200400 0.000000
0.034500 0.200400 0.000000
0.066000 0.200400 0.000000
0.097500 0.200400 0.000000
0.129000 0.200400 0.000000
0.160500 0.200400 0.000000
0.192000 0.200400 0.000000
0.223500 0.200400 0.000000
0.255000 0.200400 0.000000
0.286500 0.200400 0.000000
0.318000 0.200400 0.000000
0.349500 0.200400 0.000000
0.381000 0.200400 0.000000
0.412500 0.200400 0.000000
0.444000 0.200400 0.000000
0.475500 0.200400 0.000000
0.507000 0.200400 0.000000
0.538500 0.200400 0.000000
0.570000 0.200400 0.000000
0.601500 0.200400 0.000000
0.633000 0.200400 0.000000
0.664500 0.200400 0.000000
0.696000 0.200400 0.000000
0.727500 0.200400 0.000000
0.759000 0.200400 0.000000
0.790500 0.200400 0.000000
0.822000 0.200400 0.000000
0.853500 0.200400 0.000000
0.885000 0.200400 0.000000
0.916500 0.200400 0.000000
0.948000 0.200400 0.000000
0.000000 0.232950 0.000000
0.000000 0.232950 0.000000
0.003000 0.232950 0.000000
0.034500 0.232950 0.000000
0.066000 0.232950 0.000000
0.097500 0.232950 0.000000
0.129000 0.232950 0.000000
0.160500 0.232950 0.000000
0.192000 0.232950 0.000000
0.223500 0.232950 0.000000
0.255000 0.232950 0.000000
0.286500 0.232950 0.000000
0.318000 0.232950 0.000000
0.349500 0.232950 0.000000
0.381000 0.232950 0.000000
0.412500 0.232950 0.000000
0.444000 0.232950 0.000000
0.475500 0.232950 0.000000
0.507000 0.232950 0.000000
0.538500 0.232950 0.000000
0.570000 0.232950 0.000000
0.601500 0.232950 0.000000
0.633000 0.232950 0.000000
0.664500 0.232950 0.000000
0.696000 0.232950 0.000000
0.727500 0.232950 0.000000
0.759000 0.232950 0.000000
0.790500 0.232950 0.000000
0.822000 0.232950 0.000000
0.853500 0.232950 0.000000
0.885000 0.232950 0.000000
0.916500 0.232950 0.000000
0.948000 0.232950 0.000000
0.000000 0.265500 0.000000
0.000000 0.265500 0.000000
0.003000 0.265500 0.000000
0.034500 0.265500 0.000000
0.066000 0.265500 0.000000
0.097500 0.265500 0.000000
0.129000 0.265500 0.000000
0.160500 0.265500 0.000000
0.192000 0.265500 0.000000
0.223500 0.265500 0.000000
0.255000 0.265500 0.000000
0.286500 0.265500 0.000000
0.318000 0.265500 0.000000
0.349500 0.265500 0.000000
0.381000 0.265500 0.000000
0.412500 0.265500 0.000000
0.444000 0.265500 0.000000
0.475500 0.265500 0.000000
0.507000 0.265500 0.000000
0.538500 0.265500 0.000000
0.570000 0.265500 0.000000
0.601500 0.265500 0.000000
0.633000 0.265500 0.000000
0.664500 0.265500 0.000000
0.696000 0.265500 0.000000
0.727500 0.265500 0.000000
0.759000 0.265500 0.000000
0.790500 0.265500 0.000000
0.822000 0.265500 0.000000
0.853500 0.265500 0.000000
0.885000 0.265500 0.000000
0.916500 0.265500 0.000000
0.948000 0.265500 0.000000
0.000000 0.298050 0.000000
0.000000 0.298050 0.000000
0.003000 0.298050 0.000000
0.034500 0.298050 0.000000
0.066000 0.298050 0.000000
0.097500 0.298050 0.000000
0.129000 0.298050 0.000000
0.160500 0.298050 0.000000
0.192000 0.298050 0.000000
0.223500 0.298050 0.000000
0.255000 0.298050 0.000000
0.286500 0.298050 0.000000
0.318000 0.298050 0.000000
0.349500 0.298050 0.000000
0.381000 0.298050 0.000000
0.412500 0.298050 0.000000
0.444000 0.298050 0.000000
0.475500 0.298050 0.000000
0.507000 0.298050 0.000000
0.538500 0.298050 0.000000
0.570000 0.298050 0.000000
0.601500 0.298050 0.000000
0.633000 0.298050 0.000000
0.664500 0.298050 0.000000
0.696000 0.298050 0.000000
0.727500 0.298050 0.000000
0.759000 0.298050 0.000000
0.790500 0.298050 0.000000
0.822000 0.298050 0.000000
0.853500 0.298050 0.000000
0.885000 0.298050 0.000000
0.916500 0.298050 0.000000
0.948000 0.298050 0.000000
0.000000 0.330600 0.000000
0.000000 0.330600 0.000000
0.003000 0.330600 0.000000
0.034500 0.330600 0.000000
0.066000 0.330600 0.000000
0.097500 0.330600 0.000000
0.129000 0.330600 0.000000
0.160500 0.330600 0.000000
0.192000 0.330600 0.000000
0.223500 0.330600 0.000000
0.255000 0.330600 0.000000
0.286500 0.330600 0.000000
0.318000 0.330600 0.000000
0.349500 0.330600 0.000000
0.381000 0.330600 0.000000
0.412500 0.330600 0.000000
0.444000 0.330600 0.000000
0.475500 0.330600 0.000000
0.507000 0.330600 0.000000
0.538500 0.330600 0.000000
0.570000 0.330600 0.000000
0.601500 0.330600 0.000000
0.633000 0.330600 0.000000
0.664500 0.330600 0.000000
0.696000 0.330600 0.000000
0.727500 0.330600 0.000000
0.759000 0.330600 0.000000
0.790500 0.330600 0.000000
0.822000 0.330600 0.000000
0.853500 0.330600 0.000000
0.885000 0.330600 0.000000
0.916500 0.330600 0.000000
0.948000 0.330600 0.000000
0.000000 0.363150 0.000000
0.000000 0.363150 0.000000
0.003000 0.363150 0.000000
0.034500 0.363150 0.000000
0.066000 0.363150 0.000000
0.097500 0.363150 0.000000
0.129000 0.363150 0.000000
0.160500 0.363150 0.000000
0.192000 0.363150 0.000000
0.223500 0.363150 0.000000
0.255000 0.363150 0.000000
0.286500 0.363150 0.000000
0.318000 0.363150 0.000000
0.349500 0.363150 0.000000
0.381000 0.363150 0.000000
0.412500 0.363150 0.000000
0.444000 0.363150 0.000000
0.475500 0.363150 0.000000
0.507000 0.363150 0.000000
0.538500 0.363150 0.000000
0.570000 0.363150 0.000000
0.601500 0.363150 0.000000
0.633000 0.363150 0.000000
0.664500 0.363150 0.000000
0.696000 0.363150 0.000000
0.727500 0.363150 0.000000
0.759000 0.363150 0.000000
0.790500 0.363150 0.000000
0.822000 0.363150 0.000000
0.853500 0.363150 0.000000
0.885000 0.363150 0.000000
0.916500 0.363150 0.000000
0.948000 0.363150 0.000000
0.000000 0.395700 0.000000
0.000000 0.395700 0.000000
0.003000 0.395700 0.000000
0.034500 0.395700 0.000000
0.066000 0.395700 0.000000
0.097500 0.395700 0.000000
0.129000 0.395700 0.000000
0.160500 0.395700 0.000000
0.192000 0.395700 0.000000
0.223500 0.395700 0.000000
0.255000 0.395700 0.000000
0.286500 0.395700 0.000000
0.318000 0.395700 0.000000
0.349500 0.395700 0.000000
0.381000 0.395700 0.000000
0.412500 0.395700 0.000000
0.444000 0.395700 0.000000
0.475500 0.395700 0.000000
0.507000 0.395700 0.000000
0.538500 0.395700 0.000000
0.570000 0.395700 0.000000
0.601500 0.395700 0.000000
0.633000 0.395700 0.000000
0.664500 0.395700 0.000000
0.696000 0.395700 0.000000
0.727500 0.395700 0.000000
0.759000 0.395700 0.000000
0.790500 0.395700 0.000000
0.822000 0.395700 0.000000
0.853500 0.395700 0.000000
0.885000 0.395700 0.000000
0.916500 0.395700 0.000000
0.948000 0.395700 0.000000
0.000000 0.428250 0.000000
0.000000 0.428250 0.000000
0.003000 0.428250 0.000000
0.034500 0.428250 0.000000
0.066000 0.428250 0.000000
0.097500 0.428250 0.000000
0.129000 0.428250 0.000000
0.160500 0.428250 0.000000
0.192000 0.428250 0.000000
0.223500 0.428250 0.000000
0.255000 0.428250 0.000000
0.286500 0.428250 0.000000
0.318000 0.428250 0.000000
0.349500 0.428250 0.000000
0.381000 0.428250 0.000000
0.412500 0.428250 0.000000
0.444000 0.428250 0.000000
0.475500 0.428250 0.000000
0.507000 0.428250 0.000000
0.538500 0.428250 0.000000
0.570000 0.428250 0.000000
0.601500 0.428250 0.000000
0.633000 0.428250 0.000000
0.664500 0.428250 0.000000
0.696000 0.428250 0.000000
0.727500 0.428250 0.000000
0.759000 0.428250 0.000000
0.790500 0.428250 0.000000
0.822000 0.428250 0.000000
0.853500 0.428250 0.000000
0.885000 0.428250 0.000000
0.916500 0.428250 0.000000
0.948000 0.428250 0.000000
0.000000 0.460800 0.000000
0.000000 0.460800 0.000000
0.003000 0.460800 0.000000
0.034500 0.460800 0.000000
0.066000 0.460800 0.000000
0.097500 0.460800 0.000000
0.129000 0.460800 0.000000
0.160500 0.460800 0.000000
0.192000 0.460800 0.000000
0.223500 0.460800 0.000000
0.255000 0.460800 0.000000
0.286500 0.460800 0.000000
0.318000 0.460800 0.000000
0.349500 0.460800 0.000000
0.381000 0.460800 0.000000
0.412500 0.460800 0.000000
0.444000 0.460800 0.000000
0.475500 0.460800 0.000000
0.507000 0.460800 0.000000
0.538500 0.460800 0.000000
0.570000 0.460800 0.000000
0.601500 0.460800 0.000000
0.633000 0.460800 0.000000
0.664500 0.460800 0.000000
0.696000 0.460800 0.000000
0.727500 0.460800 0.000000
0.759000 0.460800 0.000000
0.790500 0.460800 0.000000
0.822000 0.460800 0.000000
0.853500 0.460800 0.000000
0.885000 0.460800 0.000000
0.916500 0.460800 0.000000
0.948000 0.460800 0.000000
0.000000 0.493350 0.000000
0.000000 0.493350 0.000000
0.003000 0.493350 0.000000
0.034500 0.493350 0.000000
0.066000 0.493350 0.000000
0.097500 0.493350 0.000000
0.129000 0.493350 0.000000
0.160500 0.493350 0.000000
0.192000 0.493350 0.000000
0.223500 0.493350 0.000000
0.255000 0.493350 0.000000
0.286500 0.493350 0.000000
0.318000 0.493350 0.000000
0.349500 0.493350 0.000000
0.381000 0.493350 0.000000
0.412500 0.493350 0.000000
0.444000 0.493350 0.000000
0.475500 0.493350 0.000000
0.507000 0.493350 0.000000
0.538500 0.493350 0.000000
0.570000 0.493350 0.000000
0.601500 0.493350 0.000000
0.633000 0.493350 0.000000
0.664500 0.493350 0.000000
0.696000 0.493350 0.000000
0.727500 0.493350 0.000000
0.759000 0.493350 0.000000
0.790500 0.493350 0.000000
0.822000 0.493350 0.000000
0.853500 0.493350 0.000000
0.885000 0.493350 0.000000
0.916500 0.493350 0.000000
0.948000 0.493350 0.000000
0.000000 0.525900 0.000000
0.000000 0.525900 0.000000
0.003000 0.525900 0.000000
0.034500 0.525900 0.000000
0.066000 0.525900 0.000000
0.097500 0.525900 0.000000
0.129000 0.525900 0.000000
0.160500 0.525900 0.000000
0.192000 0.525900 0.000000
0.223500 0.525900 0.000000
0.255000 0.525900 0.000000
0.286500 0.525900 0.000000
0.318000 0.525900 0.000000
0.349500 0.525900 0.000000
0.381000 0.525900 0.000000
0.412500 0.525900 0.000000
0.444000 0.525900 0.000000
0.475500 0.525900 0.000000
0.507000 0.525900 0.000000
0.538500 0.525900 0.000000
0.570000 0.525900 0.000000
0.601500 0.525900 0.000000
0.633000 0.525900 0.000000
0.664500 0.525900 0.000000
0.696000 0.525900 0.000000
0.727500 0.525900 0.000000
0.759000 0.525900 0.000000
0.790500 0.525900 0.000000
0.822000 0.525900 0.000000
0.853500 0.525900 0.000000
0.885000 0.525900 0.000000
0.916500 0.525900 0.000000
0.948000 0.525900 0.000000
0.000000 0.558450 0.000000
0.000000 0.558450 0.000000
0.003000 0.558450 0.000000
0.034500 0.558450 0.000000
0.066000 0.558450 0.000000
0.097500 0.558450 0.000000
0.129000 0.558450 0.000000
0.160500 0.558450 0.000000
0.192000 0.558450 0.000000
0.223500 0.558450 0.000000
0.255000 0.558450 0.000000
0.286500 0.558450 0.000000
0.318000 0.558450 0.000000
0.349500 0.558450 0.000000
0.381000 0.558450 0.000000
0.412500 0.558450 0.000000
0.444000 0.558450 0.000000
0.475500 0.558450 0.000000
0.507000 0.558450 0.000000
0.538500 0.558450 0.000000
0.570000 0.558450 0.000000
0.601500 0.558450 0.000000
0.633000 0.558450 0.000000
0.664500 0.558450 0.000000
0.696000 0.558450 0.000000
0.727500 0.558450 0.000000
0.759000 0.558450 0.000000
0.790500 0.558450 0.000000
0.822000 0.558450 0.000000
0.853500 0.558450 0.000000
0.885000 0.558450 0.000000
0.916500 0.558450 0.000000
0.948000 0.558450 0.000000
0.000000 0.591000 0.000000
0.000000 0.591000 0.000000
0.003000 0.591000 0.000000
0.034500 0.591000 0.000000
0.066000 0.591000 0.000000
0.097500 0.591000 0.000000
0.129000 0.591000 0.000000
0.160500 0.591000 0.000000
0.192000 0.591000 0.000000
0.223500 0.591000 0.000000
0.255000 0.591000 0.000000
0.286500 0.591000 0.000000
0.318000 0.591000 0.000000
0.349500 0.591000 0.000000
0.381000 0.591000 0.000000
0.412500 0.591000 0.000000
0.444000 0.591000 0.000000
0.475500 0.591000 0.000000
0.507000 0.591000 0.000000
0.538500 0.591000 0.000000
0.570000 0.591000 0.000000
0.601500 0.591000 0.000000
0.633000 0.591000 0.000000
0.664500 0.591000 0.000000
0.696000 0.591000 0.000000
0.727500 0.591000 0.000000
0.759000 0.591000 0.000000
0.790500 0.591000 0.000000
0.822000 0.591000 0.000000
0.853500 0.591000 0.000000
0.885000 0.591000 0.000000
0.916500 0.591000 0.000000
0.948000 0.591000 0.000000
0.000000 0.623550 0.000000
0.000000 0.623550 0.000000
0.003000 0.623550 0.000000
0.034500 0.623550 0.000000
0.066000 0.623550 0.000000
0.097500 0.623550 0.000000
0.129000 0.623550 0.000000
0.160500 0.623550 0.000000
0.192000 0.623550 0.000000
0.223500 0.623550 0.000000
0.255000 0.623550 0.000000
0.286500 0.623550 0.000000
0.318000 0.623550 0.000000
0.349500 0.623550 0.000000
0.381000 0.623550 0.000000
0.412500 0.623550 0.000000
0.444000 0.623550 0.000000
0.475500 0.623550 0.000000
0.507000 0.623550 0.000000
0.538500 0.623550 0.000000
0.570000 0.623550 0.000000
0.601500 0.623550 0.000000
0.633000 0.623550 0.000000
0.664500 0.623550 0.000000
0.696000 0.623550 0.000000
0.727500 0.623550 0.000000
0.759000 0.623550 0.000000
0.790500 0.623550 0.000000
0.822000 0.623550 0.000000
0.853500 0.623550 0.000000
0.885000 0.623550 0.000000
0.916500 0.623550 0.000000
0.948000 0.623550 0.000000
0.000000 0.656100 0.000000
0.000000 0.656100 0.000000
0.003000 0.656100 0.000000
0.034500 0.656100 0.000000
0.066000 0.656100 0.000000
0.097500 0.656100 0.000000
0.129000 0.656100 0.000000
0.160500 0.656100 0.000000
0.192000 0.656100 0.000000
0.223500 0.656100 0.000000
0.255000 0.656100 0.000000
0.286500 0.656100 0.000000
0.318000 0.656100 0.000000
0.349500 0.656100 0.000000
0.381000 0.656100 0.000000
0.412500 0.656100 0.000000
0.444000 0.656100 0.000000
0.475500 0.656100 0.000000
0.507000 0.656100 0.000000
0.538500 0.656100 0.000000
0.570000 0.656100 0.000000
0.601500 0.656100 0.000000
0.633000 0.656100 0.000000
0.664500 0.656100 0.000000
0.696000 0.656100 0.000000
0.727500 0.656100 0.000000
0.759000 0.656100 0.000000
0.790500 0.656100 0.000000
0.822000 0.656100 0.000000
0.853500 0.656100 0.000000
0.885000 0.656100 0.000000
0.916500 0.656100 0.000000
0.948000 0.656100 0.000000
0.000000 0.688650 0.000000
0.000000 0.688650 0.000000
0.003000 0.688650 0.000000
0.034500 0.688650 0.000000
0.066000 0.688650 0.000000
0.097500 0.688650 0.000000
0.129000 0.688650 0.000000
0.160500 0.688650 0.000000
0.192000 0.688650 0.000000
0.223500 0.688650 0.000000
0.255000 0.688650 0.000000
0.286500 0.688650 0.000000
0.318000 0.688650 0.000000
0.349500 0.688650 0.000000
0.381000 0.688650 0.000000
0.412500 0.688650 0.000000
0.444000 0.688650 0.000000
0.475500 0.688650 0.000000
0.507000 0.688650 0.000000
0.538500 0.688650 0.000000
0.570000 0.688650 0.000000
0.601500 0.688650 0.000000
0.633000 0.688650 0.000000
0.664500 0.688650 0.000000
0.696000 0.688650 0.000000
0.727500 0.688650 0.000000
0.759000 0.688650 0.000000
0.790500 0.688650 0.000000
0.822000 0.688650 0.000000
0.853500 0.688650 0.000000
0.885000 0.688650 0.000000
0.916500 0.688650 0.000000
0.948000 0.688650 0.000000
0.000000 0.721200 0.000000
0.000000 0.721200 0.000000
0.003000 0.721200 0.000000
0.034500 0.721200 0.000000
0.066000 0.721200 0.000000
0.097500 0.721200 0.000000
0.129000 0.721200 0.000000
0.160500 0.721200 0.000000
0.192000 0.721200 0.000000
0.223500 0.721200 0.000000
0.255000 0.721200 0.000000
0.286500 0.721200 0.000000
0.318000 0.721200 0.000000
0.349500 0.721200 0.000000
0.381000 0.721200 0.000000
0.412500 0.721200 0.000000
0.444000 0.721200 0.000000
0.475500 0.721200 0.000000
0.507000 0.721200 0.000000
0.538500 0.721200 0.000000
0.570000 0.721200 0.000000
0.601500 0.721200 0.000000
0.633000 0.721200 0.000000
0.664500 0.721200 0.000000
0.696000 0.721200 0.000000
0.727500 0.721200 0.000000
0.759000 0.721200 0.000000
0.790500 0.721200 0.000000
0.822000 0.721200 0.000000
0.853500 0.721200 0.000000
0.885000 0.721200 0.000000
0.916500 0.721200 0.000000
0.948000 0.721200 0.000000
0.000000 0.753750 0.000000
0.000000 0.753750 0.000000
0.003000 0.753750 0.000000
0.034500 0.753750 0.000000
0.066000 0.753750 0.000000
0.097500 0.753750 0.000000
0.129000 0.753750 0.000000
0.160500 0.753750 0.000000
0.192000 0.753750 0.000000
0.223500 0.753750 0.000000
0.255000 0.753750 0.000000
0.286500 0.753750 0.000000
0.318000 0.753750 0.000000
0.349500 0.753750 0.000000
0.381000 0.753750 0.000000
0.412500 0.753750 0.000000
0.444000 0.753750 0.000000
0.475500 0.753750 0.000000
0.507000 0.753750 0.000000
0.538500 0.753750 0.000000
0.570000 0.753750 0.000000
0.601500 0.753750 0.000000
0.633000 0.753750 0.000000
0.664500 0.753750 0.000000
0.696000 0.753750 0.000000
0.727500 0.753750 0.000000
0.759000 0.753750 0.000000
0.790500 0.753750 0.000000
0.822000 0.753750 0.000000
0.853500 0.753750 0.000000
0.885000 0.753750 0.000000
0.916500 0.753750 0.000000
0.948000 0.753750 0.000000
0.000000 0.786300 0.000000
0.000000 0.786300 0.000000
0.003000 0.786300 0.000000
0.034500 0.786300 0.000000
0.066000 0.786300 0.000000
0.097500 0.786300 0.000000
0.129000 0.786300 0.000000
0.160500 0.786300 0.000000
0.192000 0.786300 0.000000
0.223500 0.786300 0.000000
0.255000 0.786300 0.000000
0.286500 0.786300 0.000000
0.318000 0.786300 0.000000
0.349500 0.786300 0.000000
0.381000 0.786300 0.000000
0.412500 0.786300 0.000000
0.444000 0.786300 0.000000
0.475500 0.786300 0.000000
0.507000 0.786300 0.000000
0.538500 0.786300 0.000000
0.570000 0.786300 0.000000
0.601500 0.786300 0.000000
0.633000 0.786300 0.000000
