presentation/src/main/res/raw/high_contrast.cube
# © 2026 luttie. All rights reserved.
# This LUT is licensed for use within the luttie platform only.
# Unauthorized redistribution or resale is prohibited.
TITLE "High Contrast"
LUT_3D_SIZE 33
0.000001 0.000000 0.000000
0.012208 0.000000 0.000000
0.026954 0.000000 0.000000
0.044240 0.000000 0.000000
0.064064 0.000000 0.000000
0.086427 0.000000 0.000000
0.111330 0.000000 0.000000
0.138772 0.000000 0.000000
0.168753 0.000000 0.000000
0.201273 0.000000 0.000000
0.236332 0.000000 0.000000
0.273930 0.000000 0.000000
0.314068 0.000000 0.000000
0.356745 0.000000 0.000000
0.401962 0.000000 0.000000
0.449718 0.000000 0.000000
0.500014 0.000000 0.000000
0.550310 0.000000 0.000000
0.598068 0.000000 0.000000
0.643288 0.000000 0.000000
0.685969 0.000000 0.000000
0.726112 0.000000 0.000000
0.763717 0.000000 0.000000
0.798783 0.000000 0.000000
0.831310 0.000000 0.000000
0.861298 0.000000 0.000000
0.888748 0.000000 0.000000
0.913659 0.000000 0.000000
0.936030 0.000000 0.000000
0.955862 0.000000 0.000000
0.973155 0.000000 0.000000
0.987907 0.000000 0.000000
1.000000 0.000000 0.000000
0.000001 0.012207 0.000000
0.012208 0.012207 0.000000
0.026955 0.012207 0.000000
0.044240 0.012207 0.000000
0.064064 0.012207 0.000000
0.086428 0.012207 0.000000
0.111331 0.012207 0.000000
0.138772 0.012207 0.000000
0.168753 0.012207 0.000000
0.201273 0.012207 0.000000
0.236333 0.012207 0.000000
0.273931 0.012207 0.000000
0.314069 0.012207 0.000000
0.356747 0.012207 0.000000
0.401963 0.012207 0.000000
0.449720 0.012207 0.000000
0.500016 0.012207 0.000000
0.550314 0.012207 0.000000
0.598073 0.012207 0.000000
0.643293 0.012207 0.000000
0.685976 0.012207 0.000000
0.726120 0.012207 0.000000
0.763725 0.012207 0.000000
0.798793 0.012207 0.000000
0.831321 0.012207 0.000000
0.861311 0.012207 0.000000
0.888762 0.012207 0.000000
0.913674 0.012207 0.000000
0.936047 0.012207 0.000000
0.955880 0.012207 0.000000
0.973174 0.012207 0.000000
0.987928 0.012207 0.000000
1.000000 0.012207 0.000000
0.000002 0.026953 0.000000
0.012209 0.026953 0.000000
0.026955 0.026953 0.000000
0.044240 0.026953 0.000000
0.064065 0.026953 0.000000
0.086429 0.026953 0.000000
0.111331 0.026953 0.000000
0.138773 0.026953 0.000000
0.168754 0.026953 0.000000
0.201274 0.026953 0.000000
0.236334 0.026953 0.000000
0.273933 0.026953 0.000000
0.314071 0.026953 0.000000
0.356749 0.026953 0.000000
0.401966 0.026953 0.000000
0.449723 0.026953 0.000000
0.500021 0.026953 0.000000
0.550319 0.026953 0.000000
0.598079 0.026953 0.000000
0.643301 0.026953 0.000000
0.685985 0.026953 0.000000
0.726131 0.026953 0.000000
0.763738 0.026953 0.000000
0.798807 0.026953 0.000000
0.831338 0.026953 0.000000
0.861329 0.026953 0.000000
0.888782 0.026953 0.000000
0.913696 0.026953 0.000000
0.936071 0.026953 0.000000
0.955906 0.026953 0.000000
0.973201 0.026953 0.000000
0.987957 0.026953 0.000000
1.000000 0.026953 0.000000
0.000002 0.044238 0.000000
0.012210 0.044238 0.000000
0.026956 0.044238 0.000000
0.044241 0.044238 0.000000
0.064066 0.044238 0.000000
0.086429 0.044238 0.000000
0.111332 0.044238 0.000000
0.138774 0.044238 0.000000
0.168756 0.044238 0.000000
0.201276 0.044238 0.000000
0.236336 0.044238 0.000000
0.273935 0.044238 0.000000
0.314074 0.044238 0.000000
0.356752 0.044238 0.000000
0.401970 0.044238 0.000000
0.449729 0.044238 0.000000
0.500027 0.044238 0.000000
0.550327 0.044238 0.000000
0.598089 0.044238 0.000000
0.643312 0.044238 0.000000
0.685998 0.044238 0.000000
0.726146 0.044238 0.000000
0.763756 0.044238 0.000000
0.798828 0.044238 0.000000
0.831361 0.044238 0.000000
0.861355 0.044238 0.000000
0.888811 0.044238 0.000000
0.913728 0.044238 0.000000
0.936105 0.044238 0.000000
0.955943 0.044238 0.000000
0.973240 0.044238 0.000000
0.987998 0.044238 0.000000
1.000000 0.044238 0.000000
0.000003 0.064062 0.000000
0.012211 0.064062 0.000000
0.026957 0.064062 0.000000
0.044242 0.064062 0.000000
0.064067 0.064062 0.000000
0.086431 0.064062 0.000000
0.111334 0.064062 0.000000
0.138776 0.064062 0.000000
0.168758 0.064062 0.000000
0.201279 0.064062 0.000000
0.236339 0.064062 0.000000
0.273939 0.064062 0.000000
0.314078 0.064062 0.000000
0.356757 0.064062 0.000000
0.401977 0.064062 0.000000
0.449736 0.064062 0.000000
0.500036 0.064062 0.000000
0.550338 0.064062 0.000000
0.598102 0.064062 0.000000
0.643329 0.064062 0.000000
0.686018 0.064062 0.000000
0.726169 0.064062 0.000000
0.763782 0.064062 0.000000
0.798858 0.064062 0.000000
0.831395 0.064062 0.000000
0.861393 0.064062 0.000000
0.888853 0.064062 0.000000
0.913773 0.064062 0.000000
0.936154 0.064062 0.000000
0.955995 0.064062 0.000000
0.973296 0.064062 0.000000
0.988056 0.064062 0.000000
1.000000 0.064062 0.000000
0.000005 0.086426 0.000000
0.012212 0.086426 0.000000
0.026959 0.086426 0.000000
0.044244 0.086426 0.000000
0.064069 0.086426 0.000000
0.086433 0.086426 0.000000
0.111337 0.086426 0.000000
0.138779 0.086426 0.000000
0.168761 0.086426 0.000000
0.201283 0.086426 0.000000
0.236344 0.086426 0.000000
0.273944 0.086426 0.000000
0.314085 0.086426 0.000000
0.356765 0.086426 0.000000
0.401986 0.086426 0.000000
0.449748 0.086426 0.000000
0.500050 0.086426 0.000000
0.550355 0.086426 0.000000
0.598123 0.086426 0.000000
0.643354 0.086426 0.000000
0.686047 0.086426 0.000000
0.726203 0.086426 0.000000
0.763821 0.086426 0.000000
0.798901 0.086426 0.000000
0.831443 0.086426 0.000000
0.861447 0.086426 0.000000
0.888912 0.086426 0.000000
0.913838 0.086426 0.000000
0.936224 0.086426 0.000000
0.956070 0.086426 0.000000
0.973375 0.086426 0.000000
0.988139 0.086426 0.000000
1.000000 0.086426 0.000000
0.000007 0.111328 0.000000
0.012215 0.111328 0.000000
0.026962 0.111328 0.000000
0.044247 0.111328 0.000000
0.064073 0.111328 0.000000
0.086437 0.111328 0.000000
0.111341 0.111328 0.000000
0.138784 0.111328 0.000000
0.168767 0.111328 0.000000
0.201289 0.111328 0.000000
0.236351 0.111328 0.000000
0.273953 0.111328 0.000000
0.314095 0.111328 0.000000
0.356777 0.111328 0.000000
0.402001 0.111328 0.000000
0.449765 0.111328 0.000000
0.500072 0.111328 0.000000
0.550382 0.111328 0.000000
0.598154 0.111328 0.000000
0.643391 0.111328 0.000000
0.686090 0.111328 0.000000
0.726252 0.111328 0.000000
0.763878 0.111328 0.000000
0.798965 0.111328 0.000000
0.831515 0.111328 0.000000
0.861526 0.111328 0.000000
0.888999 0.111328 0.000000
0.913932 0.111328 0.000000
0.936325 0.111328 0.000000
0.956177 0.111328 0.000000
0.973488 0.111328 0.000000
0.988258 0.111328 0.000000
1.000000 0.111328 0.000000
0.000012 0.138770 0.000000
0.012219 0.138770 0.000000
0.026966 0.138770 0.000000
0.044253 0.138770 0.000000
0.064078 0.138770 0.000000
0.086443 0.138770 0.000000
0.111348 0.138770 0.000000
0.138792 0.138770 0.000000
0.168775 0.138770 0.000000
0.201299 0.138770 0.000000
0.236363 0.138770 0.000000
0.273966 0.138770 0.000000
0.314111 0.138770 0.000000
0.356796 0.138770 0.000000
0.402023 0.138770 0.000000
0.449793 0.138770 0.000000
0.500105 0.138770 0.000000
0.550422 0.138770 0.000000
0.598202 0.138770 0.000000
0.643447 0.138770 0.000000
0.686155 0.138770 0.000000
0.726327 0.138770 0.000000
0.763962 0.138770 0.000000
0.799060 0.138770 0.000000
0.831621 0.138770 0.000000
0.861643 0.138770 0.000000
0.889126 0.138770 0.000000
0.914069 0.138770 0.000000
0.936472 0.138770 0.000000
0.956333 0.138770 0.000000
0.973652 0.138770 0.000000
0.988429 0.138770 0.000000
1.000000 0.138770 0.000000
0.000019 0.168750 0.000000
0.012227 0.168750 0.000000
0.026974 0.168750 0.000000
0.044261 0.168750 0.000000
0.064087 0.168750 0.000000
0.086453 0.168750 0.000000
0.111359 0.168750 0.000000
0.138804 0.168750 0.000000
0.168790 0.168750 0.000000
0.201315 0.168750 0.000000
0.236382 0.168750 0.000000
0.273988 0.168750 0.000000
0.314137 0.168750 0.000000
0.356827 0.168750 0.000000
0.402059 0.168750 0.000000
0.449836 0.168750 0.000000
0.500157 0.168750 0.000000
0.550483 0.168750 0.000000
0.598275 0.168750 0.000000
0.643532 0.168750 0.000000
0.686253 0.168750 0.000000
0.726439 0.168750 0.000000
0.764089 0.168750 0.000000
0.799202 0.168750 0.000000
0.831777 0.168750 0.000000
0.861814 0.168750 0.000000
0.889312 0.168750 0.000000
0.914269 0.168750 0.000000
0.936686 0.168750 0.000000
0.956560 0.168750 0.000000
0.973891 0.168750 0.000000
0.988677 0.168750 0.000000
1.000000 0.168750 0.000000
0.000031 0.201270 0.000000
0.012239 0.201270 0.000000
0.026988 0.201270 0.000000
0.044276 0.201270 0.000000
0.064103 0.201270 0.000000
0.086471 0.201270 0.000000
0.111378 0.201270 0.000000
0.138826 0.201270 0.000000
0.168814 0.201270 0.000000
0.201343 0.201270 0.000000
0.236413 0.201270 0.000000
0.274024 0.201270 0.000000
0.314178 0.201270 0.000000
0.356876 0.201270 0.000000
0.402117 0.201270 0.000000
0.449904 0.201270 0.000000
0.500238 0.201270 0.000000
0.550580 0.201270 0.000000
0.598388 0.201270 0.000000
0.643663 0.201270 0.000000
0.686403 0.201270 0.000000
0.726609 0.201270 0.000000
0.764279 0.201270 0.000000
0.799413 0.201270 0.000000
0.832010 0.201270 0.000000
0.862068 0.201270 0.000000
0.889586 0.201270 0.000000
0.914563 0.201270 0.000000
0.936998 0.201270 0.000000
0.956889 0.201270 0.000000
0.974236 0.201270 0.000000
0.989036 0.201270 0.000000
1.000000 0.201270 0.000000
0.000051 0.236328 0.000000
0.012261 0.236328 0.000000
0.027011 0.236328 0.000000
0.044300 0.236328 0.000000
0.064130 0.236328 0.000000
0.086500 0.236328 0.000000
0.111410 0.236328 0.000000
0.138861 0.236328 0.000000
0.168854 0.236328 0.000000
0.201388 0.236328 0.000000
0.236464 0.236328 0.000000
0.274083 0.236328 0.000000
0.314247 0.236328 0.000000
0.356955 0.236328 0.000000
0.402210 0.236328 0.000000
0.450013 0.236328 0.000000
0.500367 0.236328 0.000000
0.550731 0.236328 0.000000
0.598564 0.236328 0.000000
0.643864 0.236328 0.000000
0.686632 0.236328 0.000000
0.726866 0.236328 0.000000
0.764565 0.236328 0.000000
0.799729 0.236328 0.000000
0.832355 0.236328 0.000000
0.862442 0.236328 0.000000
0.889988 0.236328 0.000000
0.914992 0.236328 0.000000
0.937452 0.236328 0.000000
0.957367 0.236328 0.000000
0.974734 0.236328 0.000000
0.989554 0.236328 0.000000
1.000000 0.236328 0.000000
0.000087 0.273926 0.000000
0.012299 0.273926 0.000000
0.027051 0.273926 0.000000
0.044343 0.273926 0.000000
0.064176 0.273926 0.000000
0.086550 0.273926 0.000000
0.111465 0.273926 0.000000
0.138922 0.273926 0.000000
0.168921 0.273926 0.000000
0.201464 0.273926 0.000000
0.236550 0.273926 0.000000
0.274181 0.273926 0.000000
0.314358 0.273926 0.000000
0.357084 0.273926 0.000000
0.402359 0.273926 0.000000
0.450186 0.273926 0.000000
0.500569 0.273926 0.000000
0.550967 0.273926 0.000000
0.598835 0.273926 0.000000
0.644173 0.273926 0.000000
0.686980 0.273926 0.000000
0.727254 0.273926 0.000000
0.764994 0.273926 0.000000
0.800198 0.273926 0.000000
0.832864 0.273926 0.000000
0.862991 0.273926 0.000000
0.890575 0.273926 0.000000
0.915615 0.273926 0.000000
0.938109 0.273926 0.000000
0.958054 0.273926 0.000000
0.975450 0.273926 0.000000
0.990293 0.273926 0.000000
1.000000 0.273926 0.000000
0.000150 0.314063 0.000000
0.012365 0.314063 0.000000
0.027120 0.314063 0.000000
0.044417 0.314063 0.000000
0.064255 0.314063 0.000000
0.086635 0.314063 0.000000
0.111558 0.314063 0.000000
0.139025 0.314063 0.000000
0.169035 0.314063 0.000000
0.201590 0.314063 0.000000
0.236692 0.314063 0.000000
0.274341 0.314063 0.000000
0.314541 0.314063 0.000000
0.357292 0.314063 0.000000
0.402598 0.314063 0.000000
0.450461 0.314063 0.000000
0.500887 0.314063 0.000000
0.551333 0.314063 0.000000
0.599252 0.314063 0.000000
0.644643 0.314063 0.000000
0.687504 0.314063 0.000000
0.727834 0.314063 0.000000
0.765630 0.314063 0.000000
0.800889 0.314063 0.000000
0.833609 0.314063 0.000000
0.863788 0.314063 0.000000
0.891422 0.314063 0.000000
0.916509 0.314063 0.000000
0.939047 0.314063 0.000000
0.959032 0.314063 0.000000
0.976463 0.314063 0.000000
0.991337 0.314063 0.000000
1.000000 0.314063 0.000000
0.000260 0.356738 0.000000
0.012479 0.356738 0.000000
0.027240 0.356738 0.000000
0.044544 0.356738 0.000000
0.064391 0.356738 0.000000
0.086781 0.356738 0.000000
0.111717 0.356738 0.000000
0.139198 0.356738 0.000000
0.169225 0.356738 0.000000
0.201801 0.356738 0.000000
0.236927 0.356738 0.000000
0.274604 0.356738 0.000000
0.314837 0.356738 0.000000
0.357627 0.356738 0.000000
0.402978 0.356738 0.000000
0.450895 0.356738 0.000000
0.501382 0.356738 0.000000
0.551896 0.356738 0.000000
0.599886 0.356738 0.000000
0.645350 0.356738 0.000000
0.688286 0.356738 0.000000
0.728690 0.356738 0.000000
0.766559 0.356738 0.000000
0.801891 0.356738 0.000000
0.834681 0.356738 0.000000
0.864926 0.356738 0.000000
0.892624 0.356738 0.000000
0.917770 0.356738 0.000000
0.940362 0.356738 0.000000
0.960396 0.356738 0.000000
0.977870 0.356738 0.000000
0.992781 0.356738 0.000000
1.000000 0.356738 0.000000
0.000449 0.401953 0.000000
0.012675 0.401953 0.000000
0.027446 0.401953 0.000000
0.044761 0.401953 0.000000
0.064622 0.401953 0.000000
0.087029 0.401953 0.000000
0.111984 0.401953 0.000000
0.139487 0.401953 0.000000
0.169541 0.401953 0.000000
0.202148 0.401953 0.000000
0.237310 0.401953 0.000000
0.275030 0.401953 0.000000
0.315311 0.401953 0.000000
0.358158 0.401953 0.000000
0.403574 0.401953 0.000000
0.451566 0.401953 0.000000
0.502140 0.401953 0.000000
0.552748 0.401953 0.000000
0.600834 0.401953 0.000000
0.646395 0.401953 0.000000
0.689427 0.401953 0.000000
0.729927 0.401953 0.000000
0.767890 0.401953 0.000000
0.803312 0.401953 0.000000
0.836188 0.401953 0.000000
0.866515 0.401953 0.000000
0.894289 0.401953 0.000000
0.919505 0.401953 0.000000
0.942160 0.401953 0.000000
0.962252 0.401953 0.000000
0.979776 0.401953 0.000000
0.994730 0.401953 0.000000
1.000000 0.401953 0.000000
0.000771 0.449707 0.000000
0.013009 0.449707 0.000000
0.027794 0.449707 0.000000
0.045127 0.449707 0.000000
0.065009 0.449707 0.000000
0.087442 0.449707 0.000000
0.112426 0.449707 0.000000
0.139964 0.449707 0.000000
0.170058 0.449707 0.000000
0.202711 0.449707 0.000000
0.237926 0.449707 0.000000
0.275706 0.449707 0.000000
0.316057 0.449707 0.000000
0.358983 0.449707 0.000000
0.404490 0.449707 0.000000
0.452585 0.449707 0.000000
0.503275 0.449707 0.000000
0.554005 0.449707 0.000000
0.602215 0.449707 0.000000
0.647898 0.449707 0.000000
0.691051 0.449707 0.000000
0.731667 0.449707 0.000000
0.769742 0.449707 0.000000
0.805270 0.449707 0.000000
0.838246 0.449707 0.000000
0.868666 0.449707 0.000000
0.896524 0.449707 0.000000
0.921817 0.449707 0.000000
0.944542 0.449707 0.000000
0.964694 0.449707 0.000000
0.982271 0.449707 0.000000
0.997270 0.449707 0.000000
1.000000 0.449707 0.000000
0.001310 0.500000 0.000000
0.013565 0.500000 0.000000
0.028373 0.500000 0.000000
0.045732 0.500000 0.000000
0.065646 0.500000 0.000000
0.088115 0.500000 0.000000
0.113143 0.500000 0.000000
0.140731 0.500000 0.000000
0.170882 0.500000 0.000000
0.203600 0.500000 0.000000
0.238890 0.500000 0.000000
0.276755 0.500000 0.000000
0.317201 0.500000 0.000000
0.360233 0.500000 0.000000
0.405860 0.500000 0.000000
0.454087 0.500000 0.000000
0.504922 0.500000 0.000000
0.555805 0.500000 0.000000
0.604164 0.500000 0.000000
0.649991 0.500000 0.000000
0.693282 0.500000 0.000000
0.734029 0.500000 0.000000
0.772226 0.500000 0.000000
0.807867 0.500000 0.000000
0.840947 0.500000 0.000000
0.871461 0.500000 0.000000
0.899404 0.500000 0.000000
0.924772 0.500000 0.000000
0.947562 0.500000 0.000000
0.967771 0.500000 0.000000
0.985396 0.500000 0.000000
1.000000 0.500000 0.000000
1.000000 0.500000 0.000000
0.002134 0.550293 0.000000
0.014415 0.550293 0.000000
0.029252 0.550293 0.000000
0.046647 0.550293 0.000000
0.066603 0.550293 0.000000
0.089122 0.550293 0.000000
0.114206 0.550293 0.000000
0.141859 0.550293 0.000000
0.172084 0.550293 0.000000
0.204886 0.550293 0.000000
0.240269 0.550293 0.000000
0.278238 0.550293 0.000000
0.318799 0.550293 0.000000
0.361959 0.550293 0.000000
0.407724 0.550293 0.000000
0.456101 0.550293 0.000000
0.507099 0.550293 0.000000
0.558145 0.550293 0.000000
0.606659 0.550293 0.000000
0.652633 0.550293 0.000000
0.696058 0.550293 0.000000
0.736929 0.550293 0.000000
0.775238 0.550293 0.000000
0.810979 0.550293 0.000000
0.844146 0.550293 0.000000
0.874737 0.550293 0.000000
0.902746 0.550293 0.000000
0.928170 0.550293 0.000000
0.951006 0.550293 0.000000
0.971254 0.550293 0.000000
0.988910 0.550293 0.000000
1.000000 0.550293 0.000000
1.000000 0.550293 0.000000
0.003267 0.598047 0.000000
0.015576 0.598047 0.000000
0.030449 0.598047 0.000000
0.047887 0.598047 0.000000
0.067893 0.598047 0.000000
0.090470 0.598047 0.000000
0.115620 0.598047 0.000000
0.143348 0.598047 0.000000
0.173656 0.598047 0.000000
0.206551 0.598047 0.000000
0.242036 0.598047 0.000000
0.280118 0.598047 0.000000
0.320801 0.598047 0.000000
0.364092 0.598047 0.000000
0.409997 0.598047 0.000000
0.458522 0.598047 0.000000
0.509673 0.598047 0.000000
0.560868 0.598047 0.000000
0.609517 0.598047 0.000000
0.655612 0.598047 0.000000
0.699145 0.598047 0.000000
0.740107 0.598047 0.000000
0.778494 0.598047 0.000000
0.814300 0.598047 0.000000
0.847520 0.598047 0.000000
0.878152 0.598047 0.000000
0.906192 0.598047 0.000000
0.931639 0.598047 0.000000
0.954492 0.598047 0.000000
0.974749 0.598047 0.000000
0.992411 0.598047 0.000000
1.000000 0.598047 0.000000
1.000000 0.598047 0.000000
0.004722 0.643262 0.000000
0.017064 0.643262 0.000000
0.031976 0.643262 0.000000
0.049462 0.643262 0.000000
0.069522 0.643262 0.000000
0.092162 0.643262 0.000000
0.117382 0.643262 0.000000
0.145189 0.643262 0.000000
0.175584 0.643262 0.000000
0.208574 0.643262 0.000000
0.244162 0.643262 0.000000
0.282353 0.643262 0.000000
0.323153 0.643262 0.000000
0.366566 0.643262 0.000000
0.412597 0.643262 0.000000
0.461249 0.643262 0.000000
0.512526 0.643262 0.000000
0.563837 0.643262 0.000000
0.612584 0.643262 0.000000
0.658759 0.643262 0.000000
0.702355 0.643262 0.000000
0.743365 0.643262 0.000000
0.781785 0.643262 0.000000
0.817610 0.643262 0.000000
0.850839 0.643262 0.000000
0.881469 0.643262 0.000000
0.909501 0.643262 0.000000
0.934933 0.643262 0.000000
0.957768 0.643262 0.000000
0.978004 0.643262 0.000000
0.995645 0.643262 0.000000
1.000000 0.643262 0.000000
1.000000 0.643262 0.000000
0.006484 0.685938 0.000000
0.018859 0.685938 0.000000
0.033812 0.685938 0.000000
0.051345 0.685938 0.000000
0.071461 0.685938 0.000000
0.094162 0.685938 0.000000
0.119452 0.685938 0.000000
0.147333 0.685938 0.000000
0.177811 0.685938 0.000000
0.210889 0.685938 0.000000
0.246570 0.685938 0.000000
0.284858 0.685938 0.000000
0.325757 0.685938 0.000000
0.369270 0.685938 0.000000
0.415399 0.685938 0.000000
0.464144 0.685938 0.000000
0.515504 0.685938 0.000000
0.566882 0.685938 0.000000
0.615677 0.685938 0.000000
0.661881 0.685938 0.000000
0.705488 0.685938 0.000000
0.746495 0.685938 0.000000
0.784897 0.685938 0.000000
0.820693 0.685938 0.000000
0.853884 0.685938 0.000000
0.884471 0.685938 0.000000
0.912454 0.685938 0.000000
0.937836 0.685938 0.000000
0.960619 0.685938 0.000000
0.980807 0.685938 0.000000
0.998401 0.685938 0.000000
1.000000 0.685938 0.000000
1.000000 0.685938 0.000000
0.008503 0.726074 0.000000
0.020910 0.726074 0.000000
0.035901 0.726074 0.000000
0.053478 0.726074 0.000000
0.073644 0.726074 0.000000
0.096401 0.726074 0.000000
0.121752 0.726074 0.000000
0.149699 0.726074 0.000000
0.180247 0.726074 0.000000
0.213397 0.726074 0.000000
0.249152 0.726074 0.000000
0.287515 0.726074 0.000000
0.328486 0.726074 0.000000
0.372066 0.726074 0.000000
0.418254 0.726074 0.000000
0.467046 0.726074 0.000000
0.518439 0.726074 0.000000
0.569830 0.726074 0.000000
0.618618 0.726074 0.000000
0.664796 0.726074 0.000000
0.708361 0.726074 0.000000
0.749312 0.726074 0.000000
0.787648 0.726074 0.000000
0.823371 0.726074 0.000000
0.856484 0.726074 0.000000
0.886988 0.726074 0.000000
0.914889 0.726074 0.000000
0.940190 0.726074 0.000000
0.962896 0.726074 0.000000
0.983012 0.726074 0.000000
1.000000 0.726074 0.000000
1.000000 0.726074 0.000000
1.000000 0.726074 0.000000
0.010702 0.763672 0.000000
0.023135 0.763672 0.000000
0.038159 0.763672 0.000000
0.055773 0.763672 0.000000
0.075980 0.763672 0.000000
0.098783 0.763672 0.000000
0.124182 0.763672 0.000000
0.152181 0.763672 0.000000
0.182780 0.763672 0.000000
0.215981 0.763672 0.000000
0.251786 0.763672 0.000000
0.290193 0.763672 0.000000
0.331202 0.763672 0.000000
0.374810 0.763672 0.000000
0.421014 0.763672 0.000000
0.469806 0.763672 0.000000
0.521179 0.763672 0.000000
0.572527 0.763672 0.000000
0.621254 0.763672 0.000000
0.667355 0.763672 0.000000
0.710831 0.763672 0.000000
0.751683 0.763672 0.000000
0.789913 0.763672 0.000000
0.825527 0.763672 0.000000
0.858528 0.763672 0.000000
0.888923 0.763672 0.000000
0.916717 0.763672 0.000000
0.941917 0.763672 0.000000
0.964528 0.763672 0.000000
0.984556 0.763672 0.000000
1.000000 0.763672 0.000000
1.000000 0.763672 0.000000
1.000000 0.763672 0.000000
0.012987 0.798730 0.000000
0.025442 0.798730 0.000000
0.040490 0.798730 0.000000
0.058132 0.798730 0.000000
0.078369 0.798730 0.000000
0.101203 0.798730 0.000000
0.126635 0.798730 0.000000
0.154665 0.798730 0.000000
0.185294 0.798730 0.000000
0.218521 0.798730 0.000000
0.254346 0.798730 0.000000
0.292766 0.798730 0.000000
0.333778 0.798730 0.000000
0.377376 0.798730 0.000000
0.423553 0.798730 0.000000
0.472299 0.798730 0.000000
0.523601 0.798730 0.000000
0.574859 0.798730 0.000000
0.623479 0.798730 0.000000
0.669463 0.798730 0.000000
0.712812 0.798730 0.000000
0.753533 0.798730 0.000000
0.791629 0.798730 0.000000
0.827109 0.798730 0.000000
0.859979 0.798730 0.000000
0.890247 0.798730 0.000000
0.917920 0.798730 0.000000
0.943008 0.798730 0.000000
0.965515 0.798730 0.000000
0.985450 0.798730 0.000000
1.000000 0.798730 0.000000
1.000000 0.798730 0.000000
1.000000 0.798730 0.000000
0.015265 0.831250 0.000000
0.027733 0.831250 0.000000
0.042796 0.831250 0.000000
0.060454 0.831250 0.000000
0.080708 0.831250 0.000000
0.103559 0.831250 0.000000
0.129005 0.831250 0.000000
0.157047 0.831250 0.000000
0.187683 0.831250 0.000000
0.220911 0.831250 0.000000
0.256729 0.831250 0.000000
0.295131 0.831250 0.000000
0.336112 0.831250 0.000000
0.379664 0.831250 0.000000
0.425776 0.831250 0.000000
0.474437 0.831250 0.000000
0.525630 0.831250 0.000000
0.576760 0.831250 0.000000
0.625241 0.831250 0.000000
0.671078 0.831250 0.000000
0.714277 0.831250 0.000000
0.754845 0.831250 0.000000
0.792792 0.831250 0.000000
0.828126 0.831250 0.000000
0.860855 0.831250 0.000000
0.890991 0.831250 0.000000
0.918541 0.831250 0.000000
0.943513 0.831250 0.000000
0.965917 0.831250 0.000000
0.985759 0.831250 0.000000
1.000000 0.831250 0.000000
1.000000 0.831250 0.000000
1.000000 0.831250 0.000000
0.017448 0.861230 0.000000
0.029922 0.861230 0.000000
0.044990 0.861230 0.000000
0.062654 0.861230 0.000000
0.082912 0.861230 0.000000
0.105763 0.861230 0.000000
0.131207 0.861230 0.000000
0.159241 0.861230 0.000000
0.189864 0.861230 0.000000
0.223070 0.861230 0.000000
0.258856 0.861230 0.000000
0.297214 0.861230 0.000000
0.338136 0.861230 0.000000
0.381613 0.861230 0.000000
0.427632 0.861230 0.000000
0.476178 0.861230 0.000000
0.527234 0.861230 0.000000
0.578210 0.861230 0.000000
0.626532 0.861230 0.000000
0.672207 0.861230 0.000000
0.715245 0.861230 0.000000
0.755654 0.861230 0.000000
0.793447 0.861230 0.000000
0.828633 0.861230 0.000000
0.861224 0.861230 0.000000
0.891230 0.861230 0.000000
0.918660 0.861230 0.000000
0.943525 0.861230 0.000000
0.965831 0.861230 0.000000
0.985586 0.861230 0.000000
1.000000 0.861230 0.000000
1.000000 0.861230 0.000000
1.000000 0.861230 0.000000
0.019466 0.888672 0.000000
0.031938 0.888672 0.000000
0.047004 0.888672 0.000000
0.064662 0.888672 0.000000
0.084912 0.888672 0.000000
0.107752 0.888672 0.000000
0.133178 0.888672 0.000000
0.161189 0.888672 0.000000
0.191780 0.888672 0.000000
0.224946 0.888672 0.000000
0.260680 0.888672 0.000000
0.298974 0.888672 0.000000
0.339817 0.888672 0.000000
0.383199 0.888672 0.000000
0.429104 0.888672 0.000000
0.477518 0.888672 0.000000
0.528422 0.888672 0.000000
0.579232 0.888672 0.000000
0.627387 0.888672 0.000000
0.672897 0.888672 0.000000
0.715772 0.888672 0.000000
0.756026 0.888672 0.000000
0.793670 0.888672 0.000000
