presentation/src/main/res/raw/high_contrast.cube
# © 2026 luttie. All rights reserved.
# This LUT is licensed for use within the luttie platform only.
# Unauthorized redistribution or resale is prohibited.
TITLE "High Contrast"
LUT_3D_SIZE 9
0.000001 0.000000 0.000000
0.064064 0.000000 0.000000
0.168753 0.000000 0.000000
0.314068 0.000000 0.000000
0.500014 0.000000 0.000000
0.685969 0.000000 0.000000
0.831310 0.000000 0.000000
0.936030 0.000000 0.000000
1.000000 0.000000 0.000000
0.000003 0.064062 0.000000
0.064067 0.064062 0.000000
0.168758 0.064062 0.000000
0.314078 0.064062 0.000000
0.500036 0.064062 0.000000
0.686018 0.064062 0.000000
0.831395 0.064062 0.000000
0.936154 0.064062 0.000000
1.000000 0.064062 0.000000
0.000019 0.168750 0.000000
0.064087 0.168750 0.000000
0.168790 0.168750 0.000000
0.314137 0.168750 0.000000
0.500157 0.168750 0.000000
0.686253 0.168750 0.000000
0.831777 0.168750 0.000000
0.936686 0.168750 0.000000
1.000000 0.168750 0.000000
0.000150 0.314063 0.000000
0.064255 0.314063 0.000000
0.169035 0.314063 0.000000
0.314541 0.314063 0.000000
0.500887 0.314063 0.000000
0.687504 0.314063 0.000000
0.833609 0.314063 0.000000
0.939047 0.314063 0.000000
1.000000 0.314063 0.000000
0.001310 0.500000 0.000000
0.065646 0.500000 0.000000
0.170882 0.500000 0.000000
0.317201 0.500000 0.000000
0.504922 0.500000 0.000000
0.693282 0.500000 0.000000
0.840947 0.500000 0.000000
0.947562 0.500000 0.000000
1.000000 0.500000 0.000000
0.006484 0.685938 0.000000
0.071461 0.685938 0.000000
0.177811 0.685938 0.000000
0.325757 0.685938 0.000000
0.515504 0.685938 0.000000
0.705488 0.685938 0.000000
0.853884 0.685938 0.000000
0.960619 0.685938 0.000000
1.000000 0.685938 0.000000
0.015265 0.831250 0.000000
0.080708 0.831250 0.000000
0.187683 0.831250 0.000000
0.336112 0.831250 0.000000
0.525630 0.831250 0.000000
0.714277 0.831250 0.000000
0.860855 0.831250 0.000000
0.965917 0.831250 0.000000
1.000000 0.831250 0.000000
0.022833 0.935938 0.000000
0.088162 0.935938 0.000000
0.194737 0.935938 0.000000
0.342168 0.935938 0.000000
0.529717 0.935938 0.000000
0.715827 0.935938 0.000000
0.860247 0.935938 0.000000
0.963776 0.935938 0.000000
1.000000 0.935938 0.000000
0.026739 1.000000 0.000000
0.091726 1.000000 0.000000
0.197623 1.000000 0.000000
0.343907 1.000000 0.000000
0.529779 1.000000 0.000000
0.714202 1.000000 0.000000
0.857456 1.000000 0.000000
0.960289 1.000000 0.000000
1.000000 1.000000 0.000000
0.000001 0.000000 0.064062
0.064064 0.000000 0.064061
0.168753 0.000000 0.064061
0.314069 0.000000 0.064058
0.500015 0.000000 0.064052
0.685973 0.000000 0.064039
0.831316 0.000000 0.064019
0.936039 0.000000 0.063995
1.000000 0.000000 0.063975
0.000004 0.064062 0.064060
0.064068 0.064062 0.064059
0.168759 0.064062 0.064057
0.314080 0.064062 0.064051
0.500040 0.064062 0.064036
0.686025 0.064062 0.064004
0.831407 0.064062 0.063958
0.936172 0.064062 0.063906
1.000000 0.064062 0.063864
0.000021 0.168750 0.064049
0.064090 0.168750 0.064044
0.168794 0.168750 0.064033
0.314144 0.168750 0.064008
0.500171 0.168750 0.063949
0.686279 0.168750 0.063835
0.831818 0.168750 0.063684
0.936740 0.168750 0.063527
1.000000 0.168750 0.063406
0.000163 0.314063 0.063954
0.064272 0.314063 0.063923
0.169058 0.314063 0.063857
0.314578 0.314063 0.063719
0.500951 0.314063 0.063429
0.687606 0.314063 0.062950
0.833752 0.314063 0.062395
0.939224 0.314063 0.061872
1.000000 0.314063 0.061494
0.001398 0.500000 0.063131
0.065749 0.500000 0.062938
0.171013 0.500000 0.062554
0.317379 0.500000 0.061852
0.505172 0.500000 0.060615
0.693609 0.500000 0.058948
0.841333 0.500000 0.057341
0.947985 0.500000 0.056031
1.000000 0.500000 0.055177
0.006786 0.685938 0.059539
0.071789 0.685938 0.058911
0.178182 0.685938 0.057774
0.326181 0.685938 0.055984
0.515972 0.685938 0.053415
0.705961 0.685938 0.050714
0.854326 0.685938 0.048679
0.961017 0.685938 0.047343
1.000000 0.685938 0.046605
0.015731 0.831250 0.053575
0.081182 0.831250 0.052649
0.188157 0.831250 0.051124
0.336562 0.831250 0.049063
0.526001 0.831250 0.046729
0.714518 0.831250 0.045009
0.860972 0.831250 0.044248
0.965936 0.831250 0.044064
1.000000 0.831250 0.044107
0.023271 0.935938 0.048548
0.088574 0.935938 0.047721
0.195095 0.935938 0.046499
0.342425 0.935938 0.045154
0.529814 0.935938 0.044186
0.715749 0.935938 0.044188
0.860040 0.935938 0.044869
0.963486 0.935938 0.045697
1.000000 0.935938 0.046324
0.027068 1.000000 0.046017
0.092010 1.000000 0.045431
0.197823 1.000000 0.044681
0.343976 1.000000 0.044120
0.529674 1.000000 0.044280
0.713938 1.000000 0.045395
0.857093 1.000000 0.046834
0.959873 1.000000 0.048106
1.000000 1.000000 0.048956
0.000001 0.000000 0.168749
0.064065 0.000000 0.168749
0.168754 0.000000 0.168748
0.314070 0.000000 0.168745
0.500018 0.000000 0.168738
0.685979 0.000000 0.168723
0.831326 0.000000 0.168699
0.936054 0.000000 0.168672
1.000000 0.000000 0.168650
0.000004 0.064062 0.168747
0.064069 0.064062 0.168746
0.168760 0.064062 0.168743
0.314083 0.064062 0.168736
0.500047 0.064062 0.168719
0.686039 0.064062 0.168682
0.831431 0.064062 0.168630
0.936206 0.064062 0.168571
1.000000 0.064062 0.168524
0.000024 0.168750 0.168734
0.064095 0.168750 0.168728
0.168801 0.168750 0.168716
0.314156 0.168750 0.168687
0.500196 0.168750 0.168620
0.686325 0.168750 0.168491
0.831890 0.168750 0.168324
0.936837 0.168750 0.168150
1.000000 0.168750 0.168016
0.000188 0.314063 0.168625
0.064301 0.314063 0.168591
0.169101 0.314063 0.168516
0.314644 0.314063 0.168362
0.501063 0.314063 0.168041
0.687785 0.314063 0.167518
0.833999 0.314063 0.166917
0.939530 0.314063 0.166355
1.000000 0.314063 0.165952
0.001552 0.500000 0.167715
0.065930 0.500000 0.167505
0.171242 0.500000 0.167089
0.317687 0.500000 0.166334
0.505598 0.500000 0.165018
0.694163 0.500000 0.163267
0.841980 0.500000 0.161597
0.948689 0.500000 0.160249
1.000000 0.500000 0.159375
0.007298 0.685938 0.163885
0.072346 0.685938 0.163228
0.178807 0.685938 0.162045
0.326887 0.685938 0.160200
0.516742 0.685938 0.157589
0.706727 0.685938 0.154891
0.855030 0.685938 0.152897
0.961644 0.685938 0.151612
1.000000 0.685938 0.150916
0.016499 0.831250 0.157750
0.081959 0.831250 0.156819
0.188929 0.831250 0.155297
0.337282 0.831250 0.153270
0.526578 0.831250 0.151031
0.714875 0.831250 0.149458
0.861118 0.831250 0.148838
0.965922 0.831250 0.148760
1.000000 0.831250 0.148869
0.023969 0.935938 0.152770
0.089227 0.935938 0.151974
0.195651 0.935938 0.150816
0.342808 0.935938 0.149586
0.529929 0.935938 0.148797
0.715579 0.935938 0.148989
0.859663 0.935938 0.149808
0.962980 0.935938 0.150722
1.000000 0.935938 0.151395
0.027573 1.000000 0.150368
0.092437 1.000000 0.149833
0.198109 1.000000 0.149177
0.344046 1.000000 0.148761
0.529460 1.000000 0.149110
0.713472 1.000000 0.150394
0.856474 1.000000 0.151934
0.959174 1.000000 0.153259
1.000000 1.000000 0.154133
0.000002 0.000000 0.314061
0.064065 0.000000 0.314061
0.168755 0.000000 0.314059
0.314072 0.000000 0.314056
0.500022 0.000000 0.314048
0.685988 0.000000 0.314029
0.831343 0.000000 0.314000
0.936080 0.000000 0.313968
1.000000 0.000000 0.313941
0.000006 0.064062 0.314059
0.064070 0.064062 0.314057
0.168763 0.064062 0.314054
0.314088 0.064062 0.314045
0.500058 0.064062 0.314024
0.686062 0.064062 0.313980
0.831468 0.064062 0.313917
0.936259 0.064062 0.313848
1.000000 0.064062 0.313793
0.000030 0.168750 0.314042
0.064103 0.168750 0.314036
0.168813 0.168750 0.314020
0.314177 0.168750 0.313986
0.500236 0.168750 0.313905
0.686399 0.168750 0.313755
0.832003 0.168750 0.313561
0.936989 0.168750 0.313362
1.000000 0.168750 0.313209
0.000226 0.314063 0.313912
0.064349 0.314063 0.313871
0.169168 0.314063 0.313784
0.314748 0.314063 0.313605
0.501237 0.314063 0.313238
0.688060 0.314063 0.312648
0.834375 0.314063 0.311979
0.939990 0.314063 0.311361
1.000000 0.314063 0.310920
0.001791 0.500000 0.312869
0.066206 0.500000 0.312633
0.171590 0.500000 0.312169
0.318150 0.500000 0.311337
0.506230 0.500000 0.309909
0.694971 0.500000 0.308040
0.842913 0.500000 0.306287
0.949695 0.500000 0.304891
1.000000 0.500000 0.303995
0.008050 0.685938 0.308696
0.073157 0.685938 0.308000
0.179710 0.685938 0.306756
0.327895 0.685938 0.304841
0.517819 0.685938 0.302183
0.707772 0.685938 0.299506
0.855968 0.685938 0.297584
0.962459 0.685938 0.296381
1.000000 0.685938 0.295746
0.017575 0.831250 0.302346
0.083038 0.831250 0.301412
0.189987 0.831250 0.299905
0.338248 0.831250 0.297939
0.527317 0.831250 0.295851
0.715288 0.831250 0.294495
0.861232 0.831250 0.294074
0.965812 0.831250 0.294146
1.000000 0.831250 0.294344
0.024898 0.935938 0.297464
0.090082 0.935938 0.296716
0.196358 0.935938 0.295657
0.343260 0.935938 0.294598
0.529999 0.935938 0.294063
0.715256 0.935938 0.294517
0.859063 0.935938 0.295521
0.962212 0.935938 0.296546
1.000000 0.935938 0.297278
0.028203 1.000000 0.295260
0.092954 1.000000 0.294801
0.198421 1.000000 0.294282
0.344052 1.000000 0.294069
0.529078 1.000000 0.294677
0.712756 1.000000 0.296184
0.855564 1.000000 0.297853
0.958169 1.000000 0.299241
1.000000 1.000000 0.300141
0.000003 0.000000 0.499998
0.064066 0.000000 0.499998
0.168756 0.000000 0.499996
0.314075 0.000000 0.499992
0.500030 0.000000 0.499980
0.686004 0.000000 0.499956
0.831371 0.000000 0.499920
0.936119 0.000000 0.499879
1.000000 0.000000 0.499845
0.000008 0.064062 0.499995
0.064073 0.064062 0.499993
0.168768 0.064062 0.499988
0.314096 0.064062 0.499977
0.500075 0.064062 0.499950
0.686097 0.064062 0.499894
0.831526 0.064062 0.499816
0.936340 0.064062 0.499732
1.000000 0.064062 0.499665
0.000040 0.168750 0.499973
0.064115 0.168750 0.499965
0.168832 0.168750 0.499945
0.314210 0.168750 0.499902
0.500298 0.168750 0.499801
0.686510 0.168750 0.499618
0.832173 0.168750 0.499385
0.937214 0.168750 0.499149
1.000000 0.168750 0.498971
0.000286 0.314063 0.499809
0.064423 0.314063 0.499760
0.169270 0.314063 0.499653
0.314905 0.314063 0.499438
0.501494 0.314063 0.499004
0.688458 0.314063 0.498320
0.834912 0.314063 0.497559
0.940641 0.314063 0.496864
1.000000 0.314063 0.496374
0.002138 0.500000 0.498575
0.066607 0.500000 0.498304
0.172089 0.500000 0.497774
0.318806 0.500000 0.496838
0.507108 0.500000 0.495261
0.696069 0.500000 0.493245
0.844159 0.500000 0.491394
0.951019 0.500000 0.489945
1.000000 0.500000 0.489027
0.009079 0.685938 0.493947
0.074260 0.685938 0.493202
0.180922 0.685938 0.491885
0.329222 0.685938 0.489894
0.519199 0.685938 0.487200
0.709068 0.685938 0.484580
0.857090 0.685938 0.482774
0.963399 0.685938 0.481692
1.000000 0.685938 0.481146
0.018956 0.831250 0.487363
0.084410 0.831250 0.486435
0.191306 0.831250 0.484963
0.339411 0.831250 0.483101
0.528149 0.831250 0.481234
0.715672 0.831250 0.480177
0.861224 0.831250 0.480017
0.965520 0.831250 0.480278
1.000000 0.831250 0.480589
0.026004 0.935938 0.482664
0.091080 0.935938 0.481988
0.197144 0.935938 0.481071
0.343695 0.935938 0.480245
0.529933 0.935938 0.480044
0.714700 0.935938 0.480825
0.858175 0.935938 0.482050
0.961131 0.935938 0.483204
1.000000 0.935938 0.483999
0.028883 1.000000 0.480745
0.093478 1.000000 0.480390
0.198671 1.000000 0.480053
0.343906 1.000000 0.480104
0.528449 1.000000 0.481034
0.711734 1.000000 0.482802
0.854330 1.000000 0.484613
0.956840 1.000000 0.486065
1.000000 1.000000 0.486987
0.000004 0.000000 0.685935
0.064068 0.000000 0.685934
0.168758 0.000000 0.685932
0.314079 0.000000 0.685926
0.500039 0.000000 0.685911
0.686024 0.000000 0.685880
0.831405 0.000000 0.685834
0.936169 0.000000 0.685783
1.000000 0.000000 0.685742
0.000011 0.064062 0.685930
0.064077 0.064062 0.685928
0.168773 0.064062 0.685922
0.314107 0.064062 0.685908
0.500098 0.064062 0.685872
0.686140 0.064062 0.685802
0.831597 0.064062 0.685706
0.936439 0.064062 0.685603
1.000000 0.064062 0.685522
0.000053 0.168750 0.685902
0.064132 0.168750 0.685891
0.168856 0.168750 0.685867
0.314251 0.168750 0.685812
0.500374 0.168750 0.685688
0.686645 0.168750 0.685466
0.832374 0.168750 0.685188
0.937477 0.168750 0.684911
1.000000 0.168750 0.684703
0.000359 0.314063 0.685698
0.064513 0.314063 0.685637
0.169394 0.314063 0.685508
0.315092 0.314063 0.685251
0.501795 0.314063 0.684741
0.688913 0.314063 0.683954
0.835517 0.314063 0.683093
0.941366 0.314063 0.682319
1.000000 0.314063 0.681777
0.002539 0.500000 0.684245
0.067066 0.500000 0.683935
0.172654 0.500000 0.683335
0.319535 0.500000 0.682289
0.508062 0.500000 0.680563
0.697236 0.500000 0.678405
0.845456 0.500000 0.676467
0.952377 0.500000 0.674978
1.000000 0.500000 0.674047
0.010181 0.685938 0.679150
0.075430 0.685938 0.678359
0.182190 0.685938 0.676977
0.330581 0.685938 0.674925
0.520568 0.685938 0.672225
0.710300 0.685938 0.669696
0.858107 0.685938 0.668033
0.964208 0.685938 0.667090
1.000000 0.685938 0.666641
0.020328 0.831250 0.672386
0.085756 0.831250 0.671475
0.192568 0.831250 0.670059
0.340477 0.831250 0.668328
0.528839 0.831250 0.666711
0.715888 0.831250 0.665970
0.861044 0.831250 0.666075
0.965062 0.831250 0.666521
1.000000 0.831250 0.666938
0.027004 0.935938 0.667935
0.091955 0.935938 0.667343
0.197785 0.935938 0.666581
0.343964 0.935938 0.666003
0.529697 0.935938 0.666140
0.713992 0.935938 0.667235
0.857166 0.935938 0.668660
0.959956 0.935938 0.669925
1.000000 0.935938 0.670772
0.029409 1.000000 0.666332
0.093838 1.000000 0.666087
0.198750 1.000000 0.665938
0.343590 1.000000 0.666252
0.527674 1.000000 0.667488
0.710609 1.000000 0.669490
0.853032 1.000000 0.671416
0.955476 1.000000 0.672912
1.000000 1.000000 0.673844
0.000005 0.000000 0.831247
0.064069 0.000000 0.831246
0.168761 0.000000 0.831243
0.314084 0.000000 0.831236
0.500049 0.000000 0.831218
0.686043 0.000000 0.831180
0.831437 0.000000 0.831125
0.936215 0.000000 0.831065
1.000000 0.000000 0.831016
0.000013 0.064062 0.831241
0.064081 0.064062 0.831238
0.168779 0.064062 0.831231
0.314118 0.064062 0.831213
0.500119 0.064062 0.831171
0.686182 0.064062 0.831087
0.831664 0.064062 0.830974
0.936531 0.064062 0.830855
1.000000 0.064062 0.830761
0.000065 0.168750 0.831207
0.064147 0.168750 0.831194
0.168879 0.168750 0.831164
0.314289 0.168750 0.831099
0.500445 0.168750 0.830953
0.686768 0.168750 0.830696
0.832556 0.168750 0.830379
0.937714 0.168750 0.830066
1.000000 0.168750 0.829832
0.000428 0.314063 0.830965
0.064597 0.314063 0.830894
0.169508 0.314063 0.830745
0.315261 0.314063 0.830451
0.502062 0.314063 0.829875
0.689312 0.314063 0.829000
0.836039 0.314063 0.828057
0.941985 0.314063 0.827219
1.000000 0.314063 0.826636
0.002891 0.500000 0.829322
0.067468 0.500000 0.828980
0.173143 0.500000 0.828321
0.320157 0.500000 0.827187
0.508861 0.500000 0.825343
0.698192 0.500000 0.823080
0.846498 0.500000 0.821085
0.953452 0.500000 0.819574
1.000000 0.500000 0.818640
0.011089 0.685938 0.823857
0.076388 0.685938 0.823033
0.183215 0.685938 0.821607
0.331656 0.685938 0.819521
0.521619 0.685938 0.816838
0.711206 0.685938 0.814404
0.858819 0.685938 0.812871
0.964742 0.685938 0.812047
1.000000 0.685938 0.811679
0.021383 0.831250 0.816995
0.086778 0.831250 0.816107
0.193505 0.831250 0.814747
0.341232 0.831250 0.813137
0.529272 0.831250 0.811735
0.715937 0.831250 0.811250
0.860785 0.831250 0.811560
0.964594 0.831250 0.812145
1.000000 0.831250 0.812641
0.027700 0.935938 0.812783
0.092544 0.935938 0.812262
0.198177 0.935938 0.811632
0.344055 0.935938 0.811255
0.529394 0.935938 0.811654
0.713340 0.935938 0.812981
0.856303 0.935938 0.814548
0.958984 0.935938 0.815886
1.000000 0.935938 0.816765
0.029707 1.000000 0.811446
0.094003 1.000000 0.811290
0.198691 1.000000 0.811289
0.343228 1.000000 0.811806
0.526974 1.000000 0.813267
0.709668 1.000000 0.815430
0.851985 1.000000 0.817427
0.954399 1.000000 0.818942
1.000000 1.000000 0.819876
0.000006 0.000000 0.935934
0.064070 0.000000 0.935932
0.168763 0.000000 0.935929
0.314088 0.000000 0.935921
0.500057 0.000000 0.935900
0.686059 0.000000 0.935856
0.831464 0.000000 0.935795
0.936254 0.000000 0.935727
1.000000 0.000000 0.935672
0.000016 0.064062 0.935927
0.064084 0.064062 0.935923
0.168784 0.064062 0.935915
0.314127 0.064062 0.935895
0.500137 0.064062 0.935846
0.686216 0.064062 0.935752
0.831718 0.064062 0.935625
0.936606 0.064062 0.935492
1.000000 0.064062 0.935388
0.000075 0.168750 0.935887
0.064161 0.168750 0.935872
0.168899 0.168750 0.935838
0.314322 0.168750 0.935765
0.500503 0.168750 0.935602
0.686868 0.168750 0.935317
0.832703 0.168750 0.934969
0.937902 0.168750 0.934628
1.000000 0.168750 0.934374
0.000484 0.314063 0.935615
0.064665 0.314063 0.935536
0.169600 0.314063 0.935371
0.315398 0.314063 0.935047
0.502275 0.314063 0.934421
0.689624 0.314063 0.933480
0.836443 0.314063 0.932475
0.942460 0.314063 0.931589
1.000000 0.314063 0.930978
0.003169 0.500000 0.933825
0.067782 0.500000 0.933458
0.173523 0.500000 0.932755
0.320635 0.500000 0.931556
0.509464 0.500000 0.929628
0.698902 0.500000 0.927295
0.847261 0.500000 0.925263
0.954229 0.500000 0.923743
1.000000 0.500000 0.922811
0.011768 0.685938 0.928092
0.077100 0.685938 0.927246
0.183967 0.685938 0.925793
0.332434 0.685938 0.923690
0.522359 0.685938 0.921031
0.711824 0.685938 0.918680
0.859282 0.685938 0.917249
0.965068 0.685938 0.916517
1.000000 0.685938 0.916209
0.022129 0.831250 0.921185
0.087492 0.831250 0.920318
0.194146 0.831250 0.919007
0.341729 0.831250 0.917493
0.529524 0.831250 0.916255
0.715907 0.831250 0.915958
0.860536 0.831250 0.916414
0.964200 0.831250 0.917096
1.000000 0.831250 0.917645
0.028152 0.935938 0.917170
0.092913 0.935938 0.916704
0.198398 0.935938 0.916172
0.344056 0.935938 0.915942
0.529115 0.935938 0.916527
0.712822 0.935938 0.918015
0.855646 0.935938 0.919673
0.958259 0.935938 0.921057
1.000000 0.935938 0.921954
0.029858 1.000000 0.916032
0.094056 1.000000 0.915942
0.198583 1.000000 0.916049
0.342907 1.000000 0.916708
0.526423 1.000000 0.918322
0.708962 1.000000 0.920588
0.851219 1.000000 0.922625
0.953621 1.000000 0.924148
1.000000 1.000000 0.925079
0.000006 0.000000 0.999996
0.064071 0.000000 0.999994
0.168764 0.000000 0.999991
0.314090 0.000000 0.999982
0.500062 0.000000 0.999959
0.686070 0.000000 0.999911
0.831483 0.000000 0.999845
0.936279 0.000000 0.999772
1.000000 0.000000 0.999714
0.000018 0.064062 0.999988
0.064086 0.064062 0.999984
0.168788 0.064062 0.999975
0.314133 0.064062 0.999953
0.500149 0.064062 0.999900
0.686239 0.064062 0.999799
0.831755 0.064062 0.999663
0.936655 0.064062 0.999521
1.000000 0.064062 0.999411
0.000082 0.168750 0.999945
0.064170 0.168750 0.999929
0.168912 0.168750 0.999892
0.314343 0.168750 0.999813
0.500542 0.168750 0.999638
0.686934 0.168750 0.999336
0.832799 0.168750 0.998967
0.938025 0.168750 0.998608
1.000000 0.168750 0.998342
0.000522 0.314063 0.999652
0.064711 0.314063 0.999568
0.169661 0.314063 0.999392
0.315487 0.314063 0.999050
0.502413 0.314063 0.998391
0.689826 0.314063 0.997408
0.836702 0.314063 0.996365
0.942762 0.314063 0.995450
1.000000 0.314063 0.994820
0.003348 0.500000 0.997768
0.067985 0.500000 0.997385
0.173767 0.500000 0.996655
0.320939 0.500000 0.995416
0.509844 0.500000 0.993437
0.699344 0.500000 0.991062
0.847732 0.500000 0.989012
0.954705 0.500000 0.987488
1.000000 0.500000 0.986559
0.012193 0.685938 0.991871
0.077543 0.685938 0.991013
0.184433 0.685938 0.989545
0.332910 0.685938 0.987435
0.522805 0.685938 0.984797
0.712185 0.685938 0.982502
0.859544 0.685938 0.981137
0.965244 0.685938 0.980462
1.000000 0.685938 0.980193
0.022577 0.831250 0.984949
0.087919 0.831250 0.984096
0.194524 0.831250 0.982817
0.342012 0.831250 0.981367
0.529652 0.831250 0.980232
0.715862 0.831250 0.980050
0.860358 0.831250 0.980595
0.963936 0.831250 0.981334
1.000000 0.831250 0.981915
0.028406 0.935938 0.981063
0.093115 0.935938 0.980632
0.198507 0.935938 0.980162
0.344029 0.935938 0.980022
0.528919 0.935938 0.980720
0.712485 0.935938 0.982302
0.855231 0.935938 0.984013
0.957807 0.935938 0.985421
1.000000 0.935938 0.986328
0.029924 1.000000 0.980051
0.094062 1.000000 0.980000
0.198491 1.000000 0.980173
0.342687 1.000000 0.980917
0.526068 1.000000 0.982621
0.708520 1.000000 0.984945
0.850746 1.000000 0.987003
0.953146 1.000000 0.988528
1.000000 1.000000 0.989454
