presentation/src/main/res/raw/high_contrast.cube
# © 2026 luttie. All rights reserved.
# This LUT is licensed for use within the luttie platform only.
# Unauthorized redistribution or resale is prohibited.
TITLE "High Contrast"
LUT_3D_SIZE 5
0.000001 0.000000 0.000000
0.168753 0.000000 0.000000
0.500014 0.000000 0.000000
0.831310 0.000000 0.000000
1.000000 0.000000 0.000000
0.000019 0.168750 0.000000
0.168790 0.168750 0.000000
0.500157 0.168750 0.000000
0.831777 0.168750 0.000000
1.000000 0.168750 0.000000
0.001310 0.500000 0.000000
0.170882 0.500000 0.000000
0.504922 0.500000 0.000000
0.840947 0.500000 0.000000
1.000000 0.500000 0.000000
0.015265 0.831250 0.000000
0.187683 0.831250 0.000000
0.525630 0.831250 0.000000
0.860855 0.831250 0.000000
1.000000 0.831250 0.000000
0.026739 1.000000 0.000000
0.197623 1.000000 0.000000
0.529779 1.000000 0.000000
0.857456 1.000000 0.000000
1.000000 1.000000 0.000000
0.000001 0.000000 0.168749
0.168754 0.000000 0.168748
0.500018 0.000000 0.168738
0.831326 0.000000 0.168699
1.000000 0.000000 0.168650
0.000024 0.168750 0.168734
0.168801 0.168750 0.168716
0.500196 0.168750 0.168620
0.831890 0.168750 0.168324
1.000000 0.168750 0.168016
0.001552 0.500000 0.167715
0.171242 0.500000 0.167089
0.505598 0.500000 0.165018
0.841980 0.500000 0.161597
1.000000 0.500000 0.159375
0.016499 0.831250 0.157750
0.188929 0.831250 0.155297
0.526578 0.831250 0.151031
0.861118 0.831250 0.148838
1.000000 0.831250 0.148869
0.027573 1.000000 0.150368
0.198109 1.000000 0.149177
0.529460 1.000000 0.149110
0.856474 1.000000 0.151934
1.000000 1.000000 0.154133
0.000003 0.000000 0.499998
0.168756 0.000000 0.499996
0.500030 0.000000 0.499980
0.831371 0.000000 0.499920
1.000000 0.000000 0.499845
0.000040 0.168750 0.499973
0.168832 0.168750 0.499945
0.500298 0.168750 0.499801
0.832173 0.168750 0.499385
1.000000 0.168750 0.498971
0.002138 0.500000 0.498575
0.172089 0.500000 0.497774
0.507108 0.500000 0.495261
0.844159 0.500000 0.491394
1.000000 0.500000 0.489027
0.018956 0.831250 0.487363
0.191306 0.831250 0.484963
0.528149 0.831250 0.481234
0.861224 0.831250 0.480017
1.000000 0.831250 0.480589
0.028883 1.000000 0.480745
0.198671 1.000000 0.480053
0.528449 1.000000 0.481034
0.854330 1.000000 0.484613
1.000000 1.000000 0.486987
0.000005 0.000000 0.831247
0.168761 0.000000 0.831243
0.500049 0.000000 0.831218
0.831437 0.000000 0.831125
1.000000 0.000000 0.831016
0.000065 0.168750 0.831207
0.168879 0.168750 0.831164
0.500445 0.168750 0.830953
0.832556 0.168750 0.830379
1.000000 0.168750 0.829832
0.002891 0.500000 0.829322
0.173143 0.500000 0.828321
0.508861 0.500000 0.825343
0.846498 0.500000 0.821085
1.000000 0.500000 0.818640
0.021383 0.831250 0.816995
0.193505 0.831250 0.814747
0.529272 0.831250 0.811735
0.860785 0.831250 0.811560
1.000000 0.831250 0.812641
0.029707 1.000000 0.811446
0.198691 1.000000 0.811289
0.526974 1.000000 0.813267
0.851985 1.000000 0.817427
1.000000 1.000000 0.819876
0.000006 0.000000 0.999996
0.168764 0.000000 0.999991
0.500062 0.000000 0.999959
0.831483 0.000000 0.999845
1.000000 0.000000 0.999714
0.000082 0.168750 0.999945
0.168912 0.168750 0.999892
0.500542 0.168750 0.999638
0.832799 0.168750 0.998967
1.000000 0.168750 0.998342
0.003348 0.500000 0.997768
0.173767 0.500000 0.996655
0.509844 0.500000 0.993437
0.847732 0.500000 0.989012
1.000000 0.500000 0.986559
0.022577 0.831250 0.984949
0.194524 0.831250 0.982817
0.529652 0.831250 0.980232
0.860358 0.831250 0.980595
1.000000 0.831250 0.981915
0.029924 1.000000 0.980051
0.198491 1.000000 0.980173
0.526068 1.000000 0.982621
0.850746 1.000000 0.987003
1.000000 1.000000 0.989454
