presentation/src/main/res/raw/true_cinematic.cube
LUT_3D_SIZE 33
0.000946 0.000916 0.000977
0.004430 0.001145 0.000947
0.027480 0.002698 0.000823
0.056102 0.005548 0.000834
0.083317 0.011793 0.000865
0.118890 0.020994 0.000707
0.157506 0.032426 0.000265
0.206355 0.042603 0.000201
0.258179 0.051049 0.000381
0.314325 0.058704 0.000731
0.371552 0.067313 0.001177
0.431301 0.075954 0.001847
0.494442 0.083497 0.002730
0.558604 0.093443 0.003998
0.624449 0.101409 0.005684
0.688716 0.117674 0.007906
0.754713 0.129223 0.010650
0.819435 0.143475 0.014152
0.882709 0.155723 0.018623
0.937887 0.164652 0.024017
0.963501 0.176070 0.029499
0.977555 0.188586 0.038530
0.978944 0.189824 0.039443
0.980327 0.190915 0.040281
0.981724 0.192016 0.041127
0.983107 0.193107 0.041964
0.984503 0.194209 0.042810
0.985886 0.195300 0.043648
0.987269 0.196390 0.044485
0.988666 0.197492 0.045331
0.990049 0.198583 0.046169
0.991445 0.199684 0.047014
0.992828 0.200775 0.047852
0.002317 0.002642 0.002551
0.003238 0.003077 0.002640
0.021471 0.004274 0.002483
0.051029 0.006542 0.000945
0.079869 0.011912 0.000782
0.113470 0.020673 0.000721
0.151938 0.031732 0.000365
0.199279 0.042501 0.000177
0.250648 0.050768 0.000344
0.306903 0.058511 0.000678
0.363812 0.066920 0.001099
0.423884 0.075572 0.001751
0.486715 0.083060 0.002598
0.551026 0.093620 0.003841
0.616620 0.101601 0.005476
0.681590 0.117167 0.007636
0.747452 0.129132 0.010326
0.813209 0.142764 0.013782
0.876398 0.156095 0.018129
0.934858 0.164832 0.023494
0.962268 0.176744 0.029206
0.976860 0.189088 0.037698
0.979226 0.191174 0.039220
0.980676 0.192134 0.039914
0.982073 0.193235 0.040760
0.983456 0.194326 0.041598
0.984852 0.195428 0.042444
0.986235 0.196519 0.043281
0.987618 0.197609 0.044119
0.989014 0.198711 0.044964
0.990397 0.199802 0.045802
0.991794 0.200903 0.046648
0.993177 0.201994 0.047485
0.012462 0.015410 0.014195
0.012217 0.014379 0.012947
0.016255 0.015349 0.012085
0.046658 0.016271 0.004033
0.080225 0.016237 0.000726
0.109964 0.022569 0.000664
0.146094 0.030996 0.000461
0.192428 0.042289 0.000159
0.243092 0.050491 0.000307
0.299126 0.058505 0.000613
0.356328 0.066573 0.001024
0.416222 0.075055 0.001646
0.478619 0.083245 0.002483
0.542848 0.093741 0.003672
0.609096 0.101789 0.005273
0.674865 0.115698 0.007371
0.740393 0.129094 0.010022
0.806367 0.141894 0.013377
0.869880 0.156449 0.017618
0.931549 0.165332 0.022966
0.961021 0.177424 0.028910
0.975903 0.189362 0.036688
0.979494 0.192571 0.039030
0.980961 0.193498 0.039689
0.982425 0.194466 0.040390
0.983808 0.195557 0.041227
0.985204 0.196659 0.042073
0.986587 0.197750 0.042911
0.987970 0.198840 0.043748
0.989367 0.199942 0.044594
0.990750 0.201033 0.045432
0.992146 0.202134 0.046278
0.993529 0.203225 0.047115
0.027346 0.033935 0.031189
0.027050 0.033152 0.030415
0.027949 0.033045 0.030158
0.037915 0.036373 0.028566
0.074211 0.036887 0.012743
0.115762 0.037147 0.000338
0.149086 0.043109 0.000182
0.190653 0.050772 0.000115
0.238098 0.055981 0.000239
0.290713 0.061712 0.000515
0.345851 0.067656 0.000898
0.404801 0.074146 0.001509
0.466108 0.083029 0.002306
0.530866 0.092322 0.003403
0.596645 0.101245 0.004943
0.663692 0.112382 0.006953
0.728259 0.128175 0.009496
0.795005 0.140384 0.012722
0.858672 0.155509 0.016770
0.921861 0.165624 0.022012
0.957546 0.176939 0.028067
0.974512 0.189227 0.035390
0.979759 0.193954 0.038843
0.981226 0.194881 0.039501
0.982707 0.195817 0.040166
0.984156 0.196776 0.040861
0.985553 0.197878 0.041707
0.986936 0.198969 0.042544
0.988319 0.200059 0.043382
0.989715 0.201161 0.044228
0.991098 0.202252 0.045065
0.992495 0.203353 0.045911
0.993878 0.204444 0.046749
0.046836 0.056722 0.052881
0.046264 0.055657 0.051907
0.045700 0.054598 0.050938
0.050163 0.056330 0.052416
0.062589 0.060524 0.049341
0.101908 0.062513 0.020520
0.149675 0.061908 0.000860
0.191079 0.065639 0.000122
0.236754 0.069115 0.000171
0.287377 0.073414 0.000403
0.340688 0.077869 0.000767
0.399202 0.082334 0.001380
0.457607 0.089522 0.002132
0.521680 0.093910 0.003203
0.584669 0.103991 0.004658
0.651726 0.109922 0.006527
0.716513 0.125823 0.008960
0.782899 0.139617 0.012096
0.847363 0.154238 0.015995
0.910898 0.165795 0.021038
0.953145 0.175759 0.026915
0.972470 0.188506 0.033652
0.980027 0.195350 0.038653
0.981494 0.196277 0.039312
0.982975 0.197213 0.039977
0.984441 0.198140 0.040636
0.985905 0.199109 0.041336
0.987288 0.200200 0.042174
0.988671 0.201290 0.043012
0.990068 0.202392 0.043857
0.991450 0.203483 0.044695
0.992847 0.204584 0.045541
0.994230 0.205675 0.046378
0.070147 0.082449 0.077951
0.069445 0.081418 0.076989
0.068536 0.080172 0.075810
0.069035 0.079449 0.075300
0.075114 0.082085 0.077179
0.089311 0.086677 0.072441
0.132751 0.089695 0.026845
0.187006 0.087330 0.005252
0.235606 0.086819 0.000439
0.285635 0.088276 0.000270
0.337427 0.091044 0.000618
0.393651 0.095387 0.001227
0.451957 0.100510 0.001994
0.514015 0.106315 0.003042
0.577887 0.112894 0.004465
0.642361 0.124402 0.006302
0.707182 0.135275 0.008619
0.772224 0.147831 0.011548
0.836348 0.159357 0.015191
0.899606 0.169610 0.019909
0.947484 0.175954 0.025360
0.970255 0.187760 0.032289
0.980293 0.196733 0.038465
0.981759 0.197660 0.039124
0.983240 0.198596 0.039789
0.984706 0.199523 0.040448
0.986187 0.200459 0.041113
0.987637 0.201419 0.041807
0.989020 0.202509 0.042645
0.990416 0.203611 0.043491
0.991799 0.204702 0.044328
0.993196 0.205803 0.045174
0.994579 0.206894 0.046012
0.093883 0.110250 0.104224
0.092951 0.108890 0.103003
0.092208 0.107788 0.102016
0.090574 0.105663 0.100044
0.094332 0.107111 0.101627
0.101934 0.110163 0.102766
0.120382 0.115030 0.092566
0.163440 0.119335 0.052835
0.224492 0.115442 0.016827
0.282533 0.111178 0.001559
0.335813 0.109964 0.000464
0.391314 0.111450 0.001069
0.447907 0.115332 0.001843
0.508058 0.121474 0.002893
0.570894 0.127363 0.004306
0.634638 0.137407 0.006080
0.697855 0.150089 0.008287
0.764101 0.160801 0.011062
0.828695 0.171602 0.014564
0.890507 0.185701 0.019100
0.943474 0.191514 0.024466
0.970225 0.201135 0.031122
0.983523 0.210305 0.036356
0.984112 0.208631 0.037410
0.984769 0.206500 0.038657
0.985985 0.206188 0.039543
0.987232 0.205907 0.040373
0.988500 0.205797 0.041173
0.989751 0.205604 0.041984
0.990932 0.205415 0.042948
0.992148 0.205921 0.043962
0.993544 0.207022 0.044807
0.994927 0.208113 0.045645
0.119145 0.140254 0.131984
0.118445 0.139269 0.131086
0.117508 0.138009 0.129931
0.115646 0.135643 0.127739
0.115972 0.134516 0.126856
0.121661 0.136308 0.128216
0.131694 0.139954 0.128097
0.156082 0.145457 0.109546
0.197814 0.150852 0.077497
0.264451 0.146740 0.031365
0.327810 0.140648 0.006825
0.387972 0.136209 0.000904
0.445533 0.136737 0.001700
0.505100 0.140347 0.002777
0.566099 0.146519 0.004152
0.629491 0.154314 0.005846
0.691419 0.166583 0.008007
0.756893 0.176007 0.010638
0.819798 0.189480 0.013956
0.882305 0.203542 0.018265
0.938909 0.211981 0.023542
0.969951 0.222328 0.030699
0.986405 0.231888 0.035519
0.987443 0.228476 0.036289
0.988481 0.224893 0.037064
0.989671 0.222661 0.037460
0.990991 0.221707 0.037716
0.992163 0.221223 0.038250
0.993171 0.220971 0.039055
0.994185 0.220704 0.039869
0.995312 0.220224 0.040816
0.996776 0.221080 0.041499
0.998228 0.221939 0.042173
0.146796 0.171773 0.161597
0.146013 0.170743 0.160637
0.145256 0.169743 0.159703
0.143246 0.167325 0.157434
0.141110 0.164708 0.155001
0.144521 0.165288 0.155794
0.151578 0.167522 0.155877
0.164494 0.171821 0.154136
0.194469 0.178029 0.126737
0.237482 0.184496 0.096349
0.305073 0.180729 0.051919
0.374952 0.173715 0.016116
0.439463 0.167824 0.003087
0.501943 0.166517 0.002564
0.563337 0.169475 0.003956
0.625765 0.175789 0.005636
0.687460 0.185718 0.007716
0.752076 0.194074 0.010231
0.813619 0.207390 0.013363
0.875495 0.222049 0.017523
0.932998 0.231501 0.022568
0.967771 0.242459 0.029013
0.988773 0.257077 0.037498
0.989485 0.253531 0.037986
0.990211 0.250316 0.039060
0.990976 0.247602 0.040151
0.991980 0.246753 0.041270
0.993313 0.245916 0.041567
0.994645 0.245059 0.041858
0.995990 0.243999 0.042093
0.997322 0.243103 0.042373
0.998668 0.243944 0.043181
1.000000 0.244814 0.043992
0.176133 0.205130 0.193000
0.175321 0.204068 0.192025
0.174487 0.202981 0.191028
0.172567 0.200657 0.188866
0.170327 0.197965 0.186359
0.170805 0.196877 0.185365
0.174848 0.197661 0.185479
0.183834 0.200384 0.184793
0.199831 0.206008 0.181824
0.235519 0.213182 0.145619
0.276235 0.221404 0.122686
0.347299 0.218217 0.077797
0.420168 0.211501 0.032694
0.490377 0.205716 0.012880
0.556470 0.202741 0.005207
0.621530 0.204562 0.005254
0.683256 0.211660 0.007322
0.746623 0.219627 0.009798
0.810072 0.228681 0.012828
0.871008 0.242748 0.016764
0.931486 0.252588 0.021643
0.966855 0.266875 0.029492
0.989320 0.282781 0.042416
0.991976 0.281878 0.045326
0.992582 0.278381 0.045575
0.993140 0.275048 0.045934
0.993858 0.274032 0.046982
0.994579 0.273130 0.048047
0.995412 0.272041 0.048922
0.996564 0.271143 0.049539
0.997706 0.270193 0.050128
0.998859 0.271102 0.051412
1.000000 0.272021 0.052690
0.206512 0.239521 0.225378
0.205664 0.238454 0.224383
0.204808 0.237369 0.223385
0.202813 0.234999 0.221179
0.200702 0.232497 0.218848
0.198952 0.229980 0.216587
0.201392 0.230074 0.216544
0.207203 0.231508 0.216140
0.218117 0.235446 0.215867
0.237740 0.242261 0.211428
0.277882 0.250331 0.167635
0.317979 0.259918 0.148923
0.389819 0.257636 0.107351
0.467212 0.251793 0.054612
0.538859 0.247146 0.029560
0.610372 0.243399 0.011522
0.677821 0.243637 0.006938
0.743181 0.247601 0.009171
0.805839 0.255692 0.012131
0.868289 0.266329 0.015956
0.927002 0.279389 0.020694
0.964768 0.291888 0.029132
0.990037 0.308717 0.045534
0.994800 0.310972 0.055215
0.994811 0.307354 0.055505
0.995160 0.303375 0.054974
0.995855 0.302262 0.055508
0.996473 0.301295 0.056311
0.996931 0.300359 0.057579
0.997415 0.299597 0.058907
0.998143 0.298749 0.059968
0.999076 0.299657 0.061492
1.000000 0.300576 0.063009
0.238367 0.275520 0.259603
0.237466 0.274400 0.258557
0.236591 0.273310 0.257539
0.234761 0.271146 0.255493
0.232722 0.268750 0.253220
0.229963 0.265542 0.250174
0.230405 0.264501 0.249341
0.234004 0.265006 0.249215
0.241191 0.267186 0.248859
0.254802 0.272461 0.249033
0.277605 0.280323 0.242831
0.321861 0.289535 0.193600
0.365131 0.299399 0.164444
0.433014 0.299594 0.142020
0.513193 0.294561 0.082504
0.588660 0.290594 0.050698
0.661340 0.287877 0.027186
0.732168 0.287212 0.013939
0.799719 0.289785 0.012199
0.863469 0.297407 0.014948
0.921761 0.309267 0.020789
0.961288 0.322883 0.033387
0.989847 0.337508 0.051038
0.996692 0.344020 0.071082
0.996932 0.340609 0.071593
0.996989 0.336286 0.070839
0.997192 0.334715 0.071599
0.997651 0.333642 0.072581
0.998119 0.332598 0.073576
0.998592 0.331372 0.074488
0.999060 0.330328 0.075483
0.999532 0.331331 0.077625
1.000000 0.332346 0.079758
0.270554 0.311924 0.294237
0.269631 0.310815 0.293188
0.268540 0.309516 0.291956
0.266696 0.307369 0.289917
0.264853 0.305224 0.287878
0.262380 0.302316 0.285126
0.260907 0.299911 0.282948
0.262646 0.299580 0.282787
0.267793 0.300987 0.282837
0.277549 0.304426 0.282962
0.293037 0.310834 0.283601
0.320066 0.320020 0.274816
0.366970 0.330060 0.221886
0.412012 0.340789 0.187464
0.475071 0.343019 0.178985
0.560251 0.338761 0.112497
0.637454 0.335643 0.076695
0.711845 0.334033 0.053411
0.783152 0.334204 0.033951
0.851196 0.338457 0.024663
0.912144 0.347640 0.032504
0.952557 0.361482 0.054722
0.981957 0.374291 0.077399
0.996088 0.380802 0.094655
0.997870 0.377855 0.096514
0.998049 0.373108 0.094680
0.998216 0.370413 0.093969
0.998415 0.368980 0.094156
0.998634 0.367562 0.094404
0.998977 0.366030 0.094905
0.999317 0.364704 0.095526
0.999660 0.365637 0.097632
1.000000 0.366614 0.099752
0.303632 0.349220 0.329751
0.302697 0.348087 0.328688
0.301788 0.346982 0.327651
0.300180 0.345091 0.325866
0.298165 0.342739 0.323643
0.295717 0.339900 0.320956
0.293219 0.336930 0.318151
0.293478 0.335725 0.317186
0.296434 0.336069 0.317360
0.303680 0.338493 0.317529
0.315309 0.342927 0.318099
0.333470 0.350812 0.319185
0.363508 0.360665 0.307472
0.412758 0.371555 0.251383
0.460597 0.382856 0.201701
0.517836 0.387844 0.216925
0.604289 0.384851 0.150326
0.685471 0.382411 0.104736
0.759993 0.382530 0.085042
0.830768 0.385108 0.071624
0.894941 0.392244 0.070161
0.940803 0.404135 0.088310
0.970523 0.416494 0.111349
0.992061 0.421723 0.122485
0.996565 0.419850 0.124725
0.997612 0.414265 0.121548
0.997955 0.411172 0.120905
0.998294 0.409251 0.120869
0.998663 0.407479 0.120689
0.999073 0.405584 0.120147
0.999467 0.403721 0.119688
0.999735 0.404622 0.121589
1.000000 0.405567 0.123503
0.336389 0.386041 0.364905
0.335434 0.384895 0.363821
0.334338 0.383592 0.362587
0.332773 0.381766 0.360851
0.331234 0.379970 0.359141
0.328844 0.377220 0.356519
0.326056 0.374014 0.353467
0.324809 0.371809 0.351478
0.326654 0.371650 0.351539
0.331250 0.372799 0.351766
0.340344 0.376237 0.352338
0.354919 0.382388 0.353594
0.374830 0.391351 0.354952
0.408564 0.402119 0.339603
0.458532 0.413467 0.282184
0.510759 0.425461 0.208304
0.558119 0.433791 0.259060
0.647692 0.432006 0.192852
0.731681 0.430145 0.135384
0.806039 0.431972 0.118446
0.874058 0.437156 0.112718
0.927015 0.446844 0.122395
0.957936 0.457478 0.141049
0.985830 0.463771 0.151982
0.993455 0.461093 0.151421
0.995591 0.455686 0.147988
0.996595 0.451326 0.145177
0.997322 0.449096 0.144087
0.997855 0.447125 0.143577
0.998394 0.444995 0.142990
0.998928 0.443078 0.142508
0.999466 0.443495 0.143232
1.000000 0.443934 0.143962
0.369389 0.423054 0.400257
0.368471 0.421962 0.399221
0.367576 0.420896 0.398211
0.366263 0.419361 0.396753
0.364695 0.417541 0.395021
0.362224 0.414699 0.392317
0.359686 0.411773 0.389535
0.356919 0.408586 0.386505
0.357804 0.407742 0.385906
0.360995 0.408351 0.386475
0.367603 0.410675 0.386928
0.378902 0.415184 0.387940
0.395237 0.422572 0.389843
0.417245 0.432726 0.391330
0.453948 0.443878 0.371844
0.504140 0.455619 0.313881
0.558905 0.468515 0.216153
0.597902 0.480138 0.302604
0.687508 0.479824 0.239166
0.773914 0.479145 0.178563
0.848184 0.482522 0.155102
0.912232 0.489933 0.155719
0.944032 0.499738 0.171998
0.975145 0.506046 0.182845
0.988821 0.504480 0.182712
0.993547 0.499461 0.178878
0.994622 0.494535 0.175281
0.995746 0.491772 0.173213
0.996849 0.489313 0.171365
0.997856 0.486918 0.169601
0.998568 0.484607 0.168001
0.999288 0.484825 0.168183
1.000000 0.485011 0.168341
0.401886 0.459509 0.435067
0.400977 0.458415 0.434032
0.400087 0.457352 0.433025
0.398743 0.455776 0.431527
0.397303 0.454092 0.429927
0.394968 0.451404 0.427367
0.392519 0.448587 0.424684
0.389620 0.445274 0.421529
0.388925 0.443436 0.419893
0.390966 0.443391 0.420144
0.395811 0.444827 0.420724
0.404900 0.448426 0.421673
0.417812 0.454093 0.423240
0.436363 0.462821 0.425650
0.459198 0.473774 0.427606
0.498695 0.484952 0.403119
0.549104 0.497544 0.346401
0.604334 0.511704 0.250610
0.638097 0.525938 0.342224
0.726545 0.527759 0.286526
0.811849 0.529080 0.229186
0.886230 0.533292 0.196458
0.929087 0.541378 0.203257
0.960449 0.547637 0.213723
0.982419 0.547010 0.214033
0.991239 0.542753 0.210399
0.992985 0.537160 0.206116
0.994150 0.534716 0.204251
0.995316 0.532272 0.202384
0.996493 0.529859 0.200539
0.997735 0.527240 0.198532
0.998921 0.527348 0.198492
1.000000 0.527442 0.198467
0.434174 0.495696 0.469575
0.433300 0.494647 0.468586
0.432427 0.493600 0.467598
0.431309 0.492279 0.466349
0.429885 0.490609 0.464765
0.427776 0.488166 0.462440
0.425489 0.485525 0.459926
0.422750 0.482374 0.456927
0.420689 0.479659 0.454387
0.421883 0.478994 0.454026
0.425095 0.479670 0.454851
0.432230 0.482292 0.455523
0.442801 0.486777 0.456824
0.458250 0.494078 0.459219
0.477517 0.503328 0.461692
0.501073 0.514825 0.463881
0.542731 0.526106 0.435456
0.593638 0.539426 0.379655
0.648864 0.554347 0.287243
0.686230 0.569913 0.360292
0.762116 0.576230 0.337320
0.846384 0.579211 0.284010
0.908481 0.583934 0.255135
0.943271 0.589477 0.251946
0.970318 0.589398 0.247293
0.986939 0.585880 0.242513
0.989264 0.580100 0.237879
0.991208 0.577308 0.235503
0.993083 0.574786 0.233347
0.994710 0.572274 0.231326
0.996314 0.569876 0.229389
0.997766 0.569913 0.229225
0.999201 0.569978 0.229082
0.466098 0.531394 0.503616
0.465244 0.530361 0.502641
0.464392 0.529330 0.501668
0.463231 0.527954 0.500366
0.462005 0.526504 0.498994
0.459923 0.524098 0.496709
0.457812 0.521665 0.494399
0.455074 0.518541 0.491429
0.452445 0.515539 0.488576
0.452499 0.514074 0.487367
0.454745 0.514090 0.487700
0.459908 0.515795 0.488643
0.468803 0.519353 0.489643
0.481451 0.525166 0.491611
0.498048 0.533137 0.494166
0.518458 0.543310 0.497046
0.543265 0.554958 0.497471
0.586658 0.566941 0.467131
0.637197 0.580687 0.413245
0.694735 0.596956 0.320103
0.734942 0.613237 0.372320
0.795334 0.624365 0.389861
0.873415 0.628256 0.342681
0.917953 0.632434 0.323897
0.951625 0.632866 0.306386
0.976987 0.628871 0.286401
0.980624 0.623000 0.277128
0.983323 0.619646 0.272034
0.985851 0.616845 0.267688
0.988068 0.614354 0.264753
0.990199 0.611925 0.262126
0.991844 0.611909 0.261748
0.993450 0.611936 0.261492
0.498299 0.567371 0.537936
0.497428 0.566323 0.536945
0.496535 0.565251 0.535931
0.495435 0.563945 0.534694
0.494154 0.562432 0.533260
0.492281 0.560261 0.531197
0.490235 0.557893 0.528948
0.487610 0.554870 0.526074
0.485065 0.551942 0.523293
0.483727 0.549635 0.521212
0.485079 0.549004 0.520908
0.488938 0.550039 0.521938
0.496025 0.552691 0.522713
0.506741 0.557483 0.524436
0.520889 0.564182 0.526804
0.538727 0.573045 0.529777
0.559486 0.583574 0.532770
0.586367 0.595719 0.531169
0.629927 0.608011 0.500243
0.681394 0.622877 0.448318
0.737904 0.639679 0.363233
0.784156 0.656817 0.377852
0.825988 0.671491 0.440489
0.887021 0.675728 0.408455
0.924835 0.676836 0.387404
0.957197 0.673497 0.361757
0.963954 0.667571 0.348706
0.967471 0.663515 0.340528
0.970444 0.660633 0.334434
0.973297 0.658027 0.328829
0.976132 0.655420 0.323235
0.977964 0.655336 0.321893
0.979779 0.655251 0.320563
0.530618 0.603349 0.572307
0.529809 0.602361 0.571376
0.528981 0.601349 0.570423
0.527891 0.600048 0.569193
0.526652 0.598578 0.567802
0.524804 0.596432 0.565765
0.522936 0.594279 0.563714
0.520474 0.591466 0.561031
0.517769 0.588385 0.558092
0.515120 0.585275 0.555136
0.515634 0.584010 0.554207
0.518828 0.584684 0.555142
0.524104 0.586334 0.555855
0.533250 0.590203 0.557177
0.545322 0.595841 0.559346
0.560946 0.603475 0.562111
0.579371 0.612932 0.565345
0.600551 0.623836 0.568465
0.628953 0.636158 0.564484
0.673430 0.649132 0.533359
0.724500 0.664450 0.483723
0.781559 0.682325 0.405107
0.832805 0.699241 0.374737
0.862442 0.714795 0.468871
0.892943 0.719334 0.472015
0.930812 0.717252 0.444248
0.943696 0.711655 0.426670
0.947756 0.707277 0.417323
0.951004 0.704415 0.410836
0.954119 0.701806 0.404837
0.957169 0.699258 0.398990
0.959055 0.699156 0.397554
0.960937 0.699025 0.396079
0.562643 0.639312 0.606716
0.561824 0.638305 0.605764
0.560987 0.637275 0.604791
0.559929 0.635991 0.603575
0.558851 0.634684 0.602337
0.557118 0.632639 0.600394
0.555329 0.630541 0.598394
0.553033 0.627871 0.595848
0.550443 0.624871 0.592990
0.547772 0.621779 0.590047
0.546801 0.619692 0.588170
0.548982 0.619534 0.588350
0.553339 0.620858 0.589603
0.560585 0.623517 0.590315
0.570813 0.628091 0.591990
0.584149 0.634509 0.594422
0.600314 0.642708 0.597513
0.619347 0.652535 0.600838
0.640930 0.664032 0.604370
0.671005 0.676684 0.598509
0.715872 0.690521 0.568563
0.767895 0.706846 0.520895
0.824128 0.724907 0.448250
0.876702 0.741597 0.387090
0.896495 0.753074 0.466747
0.907799 0.758376 0.509659
0.922429 0.755325 0.504555
0.926519 0.750780 0.495686
0.929576 0.748206 0.489892
0.932734 0.745485 0.483795
0.935761 0.743015 0.478141
0.937747 0.742890 0.476504
0.939715 0.742765 0.474881
0.594481 0.675290 0.641051
0.593509 0.674100 0.639928
0.592706 0.673103 0.638987
0.591671 0.671843 0.637795
0.590595 0.670535 0.636559
0.589031 0.668676 0.634796
0.587306 0.666636 0.632860
0.585074 0.664022 0.630377
0.582630 0.661168 0.627665
0.579892 0.657980 0.624633
0.577263 0.654927 0.621728
0.578765 0.654242 0.621354
0.581903 0.654882 0.622318
0.587748 0.657021 0.623625
0.596371 0.660519 0.624677
0.607910 0.665895 0.626744
0.622063 0.672847 0.629407
0.639261 0.681801 0.632854
0.658657 0.692060 0.636411
0.681121 0.704303 0.640413
0.712587 0.717551 0.633695
0.758690 0.732047 0.603450
0.810729 0.749046 0.558331
0.865960 0.766750 0.490003
0.917670 0.781992 0.407743
0.935363 0.787981 0.430417
0.938950 0.789352 0.481763
0.936276 0.786413 0.496979
0.934813 0.784827 0.502516
0.933347 0.783228 0.508009
0.932868 0.781531 0.511053
0.934631 0.781508 0.509995
0.936358 0.781439 0.508957
0.626891 0.712114 0.676156
0.626071 0.711101 0.675196
0.625255 0.710089 0.674239
0.624056 0.708639 0.672867
0.622966 0.707312 0.671613
0.621582 0.705651 0.670041
0.619995 0.703761 0.668251
0.617691 0.701056 0.665684
0.615318 0.698270 0.663040
0.612691 0.695191 0.660117
0.609914 0.691942 0.657031
0.609609 0.690191 0.655536
0.611951 0.690191 0.655878
0.616079 0.691416 0.657314
0.622892 0.693981 0.658263
0.632906 0.698447 0.659936
0.645315 0.704392 0.662188
0.660715 0.712278 0.665390
0.678383 0.721503 0.668849
0.698881 0.732696 0.673037
0.721708 0.745320 0.677239
0.754999 0.759370 0.669734
0.801359 0.774377 0.640365
0.853655 0.791687 0.596601
0.906360 0.808108 0.533125
0.945664 0.819623 0.461358
0.965890 0.822214 0.414604
0.968216 0.819447 0.425817
0.967213 0.817512 0.432315
0.966190 0.815819 0.438565
0.965162 0.814124 0.444786
0.965628 0.814356 0.447820
0.966055 0.814540 0.450900
0.659945 0.749736 0.711996
0.659083 0.748675 0.710999
0.658224 0.747616 0.710003
0.657144 0.746306 0.708769
0.655980 0.744899 0.707443
0.654423 0.743045 0.705690
0.652979 0.741315 0.704050
0.650755 0.738693 0.701562
0.648246 0.735747 0.698766
0.645565 0.732604 0.695782
0.642855 0.729435 0.692770
0.640634 0.726454 0.689985
0.642240 0.725963 0.689793
0.645559 0.726673 0.690837
0.650901 0.728768 0.692811
0.659154 0.732128 0.694002
0.669992 0.737195 0.695979
0.683760 0.744051 0.698725
0.700120 0.752673 0.702257
0.718688 0.762642 0.706164
0.739723 0.774336 0.710623
0.763623 0.787753 0.715295
0.797794 0.802016 0.706968
0.845001 0.817557 0.677712
0.896161 0.834187 0.634987
0.945284 0.848693 0.575100
0.970636 0.855152 0.532299
0.979296 0.854108 0.500929
0.981626 0.852161 0.483639
0.982519 0.850514 0.472444
0.983248 0.848816 0.462842
0.984128 0.849015 0.463487
0.984999 0.849212 0.464123
0.696272 0.788974 0.750105
0.695277 0.787926 0.749064
0.694258 0.786852 0.747999
0.692742 0.785252 0.746417
0.691429 0.783859 0.745040
0.689971 0.782314 0.743514
0.688399 0.780565 0.741815
0.685877 0.777787 0.739116
0.683343 0.774978 0.736395
0.680576 0.771885 0.733410
0.677554 0.768514 0.730156
0.674516 0.765137 0.726887
0.674479 0.763699 0.725639
0.676918 0.763894 0.726111
0.680691 0.764955 0.727498
0.687355 0.767866 0.729695
0.696589 0.771899 0.731294
0.708879 0.777954 0.733963
0.723468 0.785466 0.737159
0.740880 0.794784 0.740990
0.760256 0.805376 0.745052
0.782242 0.817754 0.749792
0.806429 0.831406 0.754633
0.842025 0.846123 0.745439
0.888806 0.861307 0.716062
0.939022 0.876980 0.672896
0.975264 0.887349 0.630306
0.987226 0.888428 0.604709
0.991694 0.887245 0.589506
0.992351 0.885520 0.582255
0.992961 0.883655 0.574668
0.994116 0.883909 0.572542
0.995258 0.884158 0.570431
0.699781 0.792570 0.753659
0.699896 0.792660 0.753744
0.700038 0.792778 0.753855
0.700178 0.792894 0.753966
0.700320 0.793011 0.754077
0.700465 0.793122 0.754185
0.700585 0.793206 0.754266
0.700481 0.793059 0.754118
0.699822 0.792340 0.753407
0.698986 0.791439 0.752516
0.698402 0.790798 0.751881
0.696773 0.789085 0.750185
0.697089 0.788963 0.750022
0.699887 0.790725 0.751700
0.704405 0.793522 0.754495
0.711036 0.797458 0.758601
0.720391 0.802714 0.762289
0.732550 0.809564 0.766311
0.747096 0.817806 0.770896
0.764152 0.827615 0.776118
0.783006 0.838561 0.781495
0.803344 0.849836 0.785899
0.825724 0.862357 0.790301
0.850671 0.876367 0.794967
0.886867 0.891024 0.784627
0.933566 0.905771 0.754369
0.979158 0.918994 0.713198
0.993643 0.922978 0.691192
0.997628 0.922989 0.675256
0.997784 0.921358 0.669313
