presentation/src/main/res/raw/true_cinematic.cube
LUT_3D_SIZE 9
0.000946 0.000916 0.000977
0.083317 0.011793 0.000865
0.258179 0.051049 0.000381
0.494442 0.083497 0.002730
0.754713 0.129223 0.010650
0.963501 0.176070 0.029499
0.981724 0.192016 0.041127
0.987269 0.196390 0.044485
0.992828 0.200775 0.047852
0.046836 0.056722 0.052881
0.062589 0.060524 0.049341
0.236754 0.069115 0.000171
0.457607 0.089522 0.002132
0.716513 0.125823 0.008960
0.953145 0.175759 0.026915
0.982975 0.197213 0.039977
0.988671 0.201290 0.043012
0.994230 0.205675 0.046378
0.146796 0.171773 0.161597
0.141110 0.164708 0.155001
0.194469 0.178029 0.126737
0.439463 0.167824 0.003087
0.687460 0.185718 0.007716
0.932998 0.231501 0.022568
0.990211 0.250316 0.039060
0.994645 0.245059 0.041858
1.000000 0.244814 0.043992
0.270554 0.311924 0.294237
0.264853 0.305224 0.287878
0.267793 0.300987 0.282837
0.366970 0.330060 0.221886
0.637454 0.335643 0.076695
0.912144 0.347640 0.032504
0.997870 0.377855 0.096514
0.998634 0.367562 0.094404
1.000000 0.366614 0.099752
0.401886 0.459509 0.435067
0.397303 0.454092 0.429927
0.388925 0.443436 0.419893
0.417812 0.454093 0.423240
0.549104 0.497544 0.346401
0.811849 0.529080 0.229186
0.982419 0.547010 0.214033
0.995316 0.532272 0.202384
1.000000 0.527442 0.198467
0.530618 0.603349 0.572307
0.526652 0.598578 0.567802
0.517769 0.588385 0.558092
0.524104 0.586334 0.555855
0.579371 0.612932 0.565345
0.724500 0.664450 0.483723
0.892943 0.719334 0.472015
0.951004 0.704415 0.410836
0.960937 0.699025 0.396079
0.659945 0.749736 0.711996
0.655980 0.744899 0.707443
0.648246 0.735747 0.698766
0.642240 0.725963 0.689793
0.669992 0.737195 0.695979
0.739723 0.774336 0.710623
0.896161 0.834187 0.634987
0.981626 0.852161 0.483639
0.984999 0.849212 0.464123
0.705032 0.797951 0.758978
0.705595 0.798418 0.759421
0.706168 0.798873 0.759858
0.706782 0.799355 0.760321
0.730176 0.817700 0.777948
0.794775 0.860554 0.807154
0.893934 0.925801 0.843832
0.999976 0.963121 0.806704
1.000000 0.962497 0.800091
0.715179 0.808350 0.769257
0.715742 0.808817 0.769700
0.716304 0.809283 0.770142
0.716905 0.809777 0.770612
0.735553 0.825269 0.785288
0.795567 0.865848 0.814258
0.891148 0.929062 0.851339
1.000000 0.966072 0.801511
1.000000 0.969818 0.829407
0.018419 0.013248 0.024528
0.056379 0.038858 0.048282
0.234408 0.068036 0.061331
0.501744 0.053991 0.016343
0.762280 0.106197 0.015555
0.962523 0.175678 0.035395
0.981684 0.192171 0.050640
0.987138 0.196750 0.055364
0.992696 0.201135 0.058730
0.023816 0.068957 0.075237
0.064931 0.064874 0.064581
0.244452 0.056963 0.012679
0.462979 0.073929 0.004331
0.715723 0.120170 0.010135
0.952056 0.174152 0.031304
0.982843 0.197553 0.050459
0.988324 0.202105 0.055172
0.993882 0.206490 0.058538
0.144147 0.168766 0.158959
0.138864 0.162061 0.152698
0.190797 0.175441 0.127458
0.437537 0.163812 0.005476
0.685900 0.180275 0.008725
0.930637 0.229072 0.026595
0.989812 0.249854 0.052512
0.994546 0.244677 0.055271
0.999806 0.244923 0.057864
0.267977 0.309001 0.291579
0.262697 0.302734 0.285652
0.264772 0.298171 0.280790
0.363578 0.327593 0.222218
0.635709 0.332694 0.079458
0.910712 0.344358 0.040134
0.997795 0.376431 0.105123
0.998634 0.366052 0.102509
1.000000 0.365188 0.107967
0.399917 0.457293 0.433025
0.395425 0.451974 0.428013
0.386987 0.441349 0.417987
0.415199 0.451772 0.421579
0.546107 0.495207 0.346130
0.811246 0.526044 0.226957
0.982578 0.544683 0.217636
0.995316 0.529913 0.206452
1.000000 0.525045 0.202596
0.528775 0.601336 0.570476
0.524778 0.596529 0.565925
0.515984 0.586438 0.556302
0.521932 0.584254 0.554245
0.576794 0.610573 0.563665
0.721907 0.662369 0.483340
0.893494 0.717082 0.469576
0.952948 0.702060 0.408126
0.962860 0.696644 0.393380
0.658281 0.747797 0.710263
0.654211 0.742833 0.705591
0.646542 0.733777 0.696994
0.640651 0.724196 0.688206
0.667812 0.735066 0.694389
0.737439 0.772134 0.709099
0.893497 0.831939 0.634277
0.981126 0.850703 0.478942
0.984257 0.847690 0.461980
0.704840 0.797927 0.758990
0.705427 0.798406 0.759445
0.706000 0.798861 0.759882
0.706646 0.799380 0.760378
0.729525 0.817217 0.777681
0.793750 0.859871 0.807041
0.892684 0.925016 0.843798
0.999975 0.962968 0.804233
1.000000 0.961767 0.795106
0.714987 0.808326 0.769269
0.715575 0.808805 0.769724
0.716137 0.809271 0.770166
0.716770 0.809803 0.770669
0.735157 0.824989 0.785098
0.794617 0.865222 0.814180
0.889792 0.928204 0.851239
0.999981 0.965892 0.798946
1.000000 0.969998 0.828065
0.088935 0.067474 0.092046
0.113645 0.090364 0.113309
0.178920 0.110334 0.165523
0.351091 0.175538 0.210489
0.709845 0.148854 0.174724
0.937388 0.197870 0.204402
0.962480 0.205340 0.194903
0.970064 0.209151 0.189811
0.976732 0.214270 0.189698
0.093850 0.092907 0.119716
0.106106 0.096481 0.119266
0.165032 0.112136 0.153983
0.343790 0.160160 0.181883
0.689495 0.125251 0.140284
0.932419 0.182433 0.165485
0.967558 0.212942 0.176105
0.975055 0.217929 0.171936
0.981542 0.221550 0.171613
0.123757 0.187120 0.190643
0.118869 0.179482 0.183046
0.179658 0.182097 0.182394
0.428797 0.169822 0.128941
0.682373 0.170106 0.096400
0.922350 0.227241 0.118394
0.981239 0.259862 0.143891
0.987747 0.252975 0.133526
0.993822 0.252482 0.131215
0.264491 0.303803 0.289029
0.258053 0.296463 0.281900
0.257967 0.292168 0.278029
0.351609 0.323146 0.240162
0.637155 0.324373 0.107352
0.908814 0.335722 0.069366
0.997367 0.372351 0.116116
0.998467 0.362343 0.110685
1.000000 0.361580 0.115099
0.394538 0.451201 0.427717
0.390464 0.446397 0.423106
0.382033 0.436014 0.413151
0.409651 0.446683 0.417567
0.540503 0.490457 0.344004
0.808653 0.520234 0.222590
0.982548 0.540091 0.219788
0.995625 0.525316 0.208986
1.000000 0.520724 0.205373
0.525015 0.597182 0.566592
0.521244 0.592622 0.562270
0.512632 0.582749 0.552839
0.517866 0.580257 0.550786
0.572202 0.606349 0.560368
0.717433 0.658478 0.481370
0.893739 0.713047 0.464925
0.955567 0.698263 0.402795
0.965495 0.692714 0.388161
0.655224 0.744287 0.707022
0.651264 0.739463 0.702470
0.643778 0.730615 0.694078
0.637624 0.720867 0.685115
0.664292 0.731538 0.691492
0.733743 0.768490 0.706283
0.889953 0.828827 0.632817
0.980492 0.848457 0.470890
0.983210 0.845262 0.458189
0.704638 0.797876 0.758974
0.705226 0.798355 0.759430
0.705827 0.798827 0.759884
0.706474 0.799346 0.760380
0.728789 0.816662 0.777274
0.792283 0.858896 0.806738
0.890906 0.923896 0.843612
0.999883 0.961976 0.800471
1.000000 0.960835 0.791236
0.714796 0.808302 0.769281
0.715384 0.808781 0.769736
0.715969 0.809259 0.770190
0.716603 0.809791 0.770693
0.734576 0.824573 0.784768
0.793237 0.864301 0.813902
0.888245 0.927209 0.851050
0.999817 0.965796 0.796954
1.000000 0.970177 0.826727
0.153429 0.127610 0.183641
0.168250 0.137030 0.191524
0.218028 0.175584 0.216401
0.349611 0.165586 0.323830
0.490221 0.256589 0.369747
0.778199 0.325716 0.418848
0.826283 0.334558 0.413489
0.842775 0.332202 0.403510
0.853691 0.332128 0.400088
0.153675 0.142917 0.200143
0.160362 0.142236 0.196286
0.206837 0.171446 0.215426
0.321192 0.161398 0.298003
0.464747 0.251318 0.346666
0.786443 0.307477 0.379602
0.853319 0.323177 0.382440
0.869285 0.319588 0.372441
0.879749 0.318897 0.369227
0.132991 0.224282 0.315348
0.135038 0.215563 0.303398
0.199929 0.221760 0.291835
0.335661 0.218312 0.316258
0.481192 0.264723 0.316238
0.815740 0.288384 0.312288
0.911235 0.312839 0.329798
0.924612 0.303245 0.318931
0.933805 0.299944 0.315184
0.249643 0.338559 0.339893
0.244908 0.331199 0.332485
0.247303 0.319368 0.319763
0.330519 0.331307 0.331638
0.624741 0.331989 0.280265
0.876996 0.357121 0.274742
0.973224 0.383200 0.296624
0.980014 0.369519 0.280006
0.986127 0.366587 0.275611
0.407979 0.460153 0.442642
0.402493 0.454142 0.436659
0.390205 0.440675 0.423275
0.401683 0.444198 0.427197
0.520878 0.486483 0.391558
0.827039 0.508309 0.270571
0.989608 0.529245 0.296499
0.998052 0.516785 0.283768
1.000000 0.513374 0.280892
0.513010 0.583319 0.555716
0.509148 0.578873 0.551372
0.501260 0.569958 0.542658
0.503325 0.566981 0.540229
0.557905 0.596102 0.558264
0.705953 0.652911 0.493746
0.899920 0.705380 0.462393
0.964115 0.690735 0.398569
0.973312 0.685519 0.384248
0.650776 0.738431 0.702809
0.646687 0.733573 0.698108
0.639268 0.724972 0.689742
0.632423 0.715062 0.680298
0.657887 0.725507 0.687519
0.727637 0.762608 0.702010
0.883864 0.823191 0.629157
0.979717 0.844329 0.455681
0.981641 0.841217 0.450956
0.704509 0.798105 0.759321
0.705041 0.798522 0.759670
0.705661 0.798877 0.759972
0.706310 0.799324 0.760394
0.727755 0.815886 0.776635
0.789956 0.857348 0.806093
0.888014 0.922046 0.843079
0.999778 0.960657 0.796493
1.000000 0.959676 0.786587
0.714680 0.808357 0.769367
0.715251 0.808822 0.769807
0.715837 0.809300 0.770261
0.716446 0.809795 0.770733
0.733555 0.823807 0.784107
0.790993 0.862806 0.813275
0.885510 0.925444 0.850501
0.999556 0.965643 0.796035
1.000000 0.970357 0.826054
0.215941 0.193608 0.302120
0.228305 0.198162 0.303548
0.277975 0.234761 0.341685
0.345544 0.287391 0.321432
0.563614 0.207439 0.521291
0.719841 0.305575 0.552105
0.755627 0.337993 0.559385
0.762208 0.347088 0.558489
0.770581 0.354750 0.560837
0.212345 0.205029 0.313743
0.217279 0.201063 0.304704
0.261127 0.225487 0.327080
0.328530 0.272633 0.309099
0.529599 0.205212 0.489856
0.688161 0.303829 0.524630
0.749639 0.349150 0.546502
0.756358 0.357793 0.546339
0.763370 0.364326 0.548925
0.198452 0.268094 0.396244
0.201005 0.260461 0.383974
0.245380 0.266127 0.384281
0.344442 0.305846 0.377101
0.503387 0.239610 0.467880
0.645647 0.325458 0.489368
0.757273 0.385318 0.532435
0.764776 0.386168 0.528414
0.772411 0.387291 0.527816
0.129422 0.395029 0.509543
0.134258 0.387177 0.501519
0.174302 0.376227 0.492210
0.281318 0.385242 0.513563
0.548561 0.368231 0.520639
0.675779 0.427972 0.514863
0.816459 0.480855 0.545302
0.828081 0.474888 0.533613
0.837237 0.478025 0.533723
0.385795 0.500895 0.500414
0.381812 0.495158 0.494724
0.371797 0.481645 0.481355
0.393903 0.478754 0.476092
0.490978 0.490262 0.490668
0.792345 0.511814 0.466196
0.959443 0.549406 0.489809
0.977464 0.537605 0.473946
0.983310 0.534399 0.469370
0.545015 0.608155 0.589314
0.540520 0.603059 0.584292
0.531065 0.592422 0.573784
0.525349 0.583565 0.564930
0.547370 0.589185 0.572867
0.678772 0.644080 0.551846
0.937699 0.689290 0.481241
0.993920 0.675278 0.454868
0.999533 0.669816 0.447302
0.649156 0.732018 0.702216
0.643882 0.726239 0.696463
0.634640 0.716192 0.686433
0.621395 0.701144 0.671433
0.635213 0.706060 0.676963
0.707333 0.747943 0.706137
0.864905 0.818169 0.664451
0.972152 0.841552 0.513916
0.973264 0.838156 0.514548
0.703134 0.795210 0.760186
0.703675 0.795747 0.760556
0.704198 0.796341 0.760889
0.704812 0.797135 0.761252
0.723495 0.811019 0.774967
0.780975 0.851190 0.809779
0.881489 0.918218 0.848450
0.998328 0.960440 0.799031
1.000000 0.959367 0.790213
0.713077 0.806819 0.770775
0.713591 0.807326 0.771108
0.714155 0.807929 0.771465
0.714847 0.808783 0.771922
0.730683 0.820538 0.783465
0.783564 0.857720 0.816264
0.879859 0.921878 0.853973
0.999108 0.966132 0.802544
1.000000 0.971855 0.827357
0.262649 0.253353 0.418179
0.277989 0.259673 0.424220
0.324952 0.287301 0.449507
0.404664 0.338886 0.467163
0.508887 0.391607 0.503216
0.823719 0.269422 0.773403
0.856018 0.291986 0.753444
0.858397 0.297565 0.741930
0.863518 0.303055 0.737222
0.262255 0.269731 0.441657
0.269438 0.267421 0.436041
0.312915 0.282960 0.445209
0.382427 0.326253 0.469121
0.481687 0.389435 0.464672
0.794418 0.265475 0.743477
0.845712 0.299853 0.726777
0.848008 0.306172 0.716352
0.853202 0.311853 0.712655
0.245130 0.328488 0.524182
0.248263 0.321769 0.512586
0.290880 0.323780 0.506228
0.368289 0.360973 0.538941
0.473124 0.410686 0.446646
0.751905 0.289964 0.702097
0.832795 0.334594 0.688426
0.830275 0.333896 0.674565
0.833335 0.336425 0.670578
0.159968 0.428581 0.651947
0.167028 0.421450 0.642501
0.207208 0.409932 0.624918
0.306522 0.422570 0.627130
0.491715 0.449662 0.515719
0.756859 0.390129 0.715177
0.850971 0.448441 0.687389
0.848595 0.451266 0.675916
0.854519 0.460825 0.678250
0.029371 0.571709 0.691857
0.034854 0.565387 0.686280
0.054723 0.550664 0.672584
0.209901 0.545645 0.673391
0.383742 0.540528 0.677322
0.708476 0.531221 0.687087
0.848749 0.586333 0.697916
0.854572 0.592279 0.692142
0.856679 0.594524 0.691156
0.515766 0.651574 0.648179
0.511695 0.646568 0.643216
0.503187 0.636448 0.633220
0.500983 0.624425 0.620596
0.537224 0.621257 0.614385
0.641801 0.640261 0.640671
0.912136 0.685690 0.654770
0.966542 0.690479 0.653882
0.972656 0.687521 0.649954
0.675560 0.756947 0.735118
0.670926 0.751421 0.729731
0.663013 0.742115 0.720652
0.652062 0.728285 0.707244
0.658535 0.722517 0.703198
0.698792 0.736408 0.721739
0.829874 0.804740 0.730677
0.947248 0.841000 0.706047
0.953697 0.836641 0.699243
0.729532 0.813094 0.786703
0.728773 0.812590 0.785906
0.727292 0.811545 0.784407
0.724591 0.809600 0.781711
0.733273 0.815683 0.787240
0.771819 0.842052 0.814257
0.865618 0.906870 0.866950
0.990826 0.963876 0.843138
0.999413 0.962236 0.822274
0.734793 0.820721 0.792862
0.733760 0.819944 0.791768
0.732135 0.818690 0.790086
0.730146 0.817369 0.788086
0.737567 0.822651 0.792747
0.773094 0.847486 0.817882
0.864250 0.910984 0.870162
0.990495 0.970524 0.850984
0.999958 0.977376 0.871058
0.266087 0.258087 0.427725
0.280464 0.264351 0.434550
0.327656 0.291584 0.460430
0.405267 0.341172 0.480545
0.503394 0.413572 0.482514
0.831013 0.277405 0.835149
0.884837 0.288081 0.837560
0.891900 0.291284 0.837416
0.898980 0.294494 0.837273
0.267259 0.273817 0.451659
0.273226 0.271439 0.446730
0.317895 0.288291 0.459161
0.386248 0.331884 0.487683
0.486861 0.413370 0.455802
0.794052 0.293433 0.818118
0.885827 0.293393 0.838679
0.892750 0.296483 0.838487
0.899830 0.299693 0.838344
0.256833 0.340002 0.551749
0.261406 0.335712 0.545035
0.304345 0.340015 0.544245
0.380235 0.373683 0.572971
0.491848 0.424700 0.480634
0.716626 0.370577 0.758207
0.891908 0.320716 0.845793
0.896096 0.314498 0.842635
0.902240 0.314388 0.841580
0.190897 0.445056 0.703811
0.200134 0.439886 0.696369
0.240835 0.431864 0.681441
0.336359 0.444963 0.687531
0.480639 0.470052 0.654413
0.635008 0.503074 0.654345
0.915687 0.419820 0.875716
0.919497 0.415026 0.866891
0.925089 0.418041 0.864665
0.109500 0.595940 0.817057
0.116742 0.589993 0.813781
0.126224 0.576571 0.805747
0.225611 0.568915 0.806471
0.343804 0.579397 0.836256
0.625682 0.584045 0.617327
0.914506 0.540426 0.886351
0.935099 0.541003 0.863931
0.938761 0.543088 0.857232
0.022083 0.732039 0.836165
0.025756 0.727224 0.832451
0.029913 0.717895 0.825504
0.076609 0.707781 0.820459
0.218462 0.707901 0.831531
0.524747 0.671405 0.815499
0.833060 0.676235 0.820080
0.909206 0.690945 0.821216
0.912917 0.691393 0.817288
0.615341 0.804605 0.804901
0.612959 0.798799 0.798780
0.608558 0.789060 0.788512
0.603120 0.774733 0.773382
0.618784 0.763556 0.760104
0.654258 0.761184 0.760183
0.791109 0.790188 0.790798
0.958351 0.827679 0.812109
0.964059 0.825468 0.808849
0.747619 0.848707 0.825377
0.747385 0.847469 0.824231
0.746967 0.845635 0.822537
0.746188 0.842739 0.819715
0.757277 0.845684 0.823682
0.792029 0.859136 0.840350
0.862398 0.898950 0.884766
0.979780 0.972318 0.922690
0.988987 0.971070 0.907130
0.754941 0.853824 0.830408
0.754800 0.852653 0.829300
0.754437 0.850982 0.827653
0.753947 0.848557 0.825204
0.764026 0.851508 0.828902
0.796105 0.864130 0.844231
0.862908 0.905596 0.889041
0.974746 0.980065 0.938452
0.994054 0.984091 0.923119
0.268752 0.261851 0.435350
0.282115 0.267301 0.441026
0.329223 0.294045 0.466502
0.404462 0.341298 0.485182
0.501063 0.417888 0.475675
0.824016 0.286073 0.838716
0.887334 0.287926 0.849093
0.895210 0.290674 0.848424
0.902291 0.293885 0.848280
0.269866 0.276037 0.456979
0.274949 0.273384 0.451732
0.319612 0.290989 0.465459
0.387345 0.333467 0.492619
0.487189 0.415499 0.454509
0.781784 0.306964 0.813114
0.888400 0.293486 0.850250
0.896109 0.296029 0.849430
0.903189 0.299240 0.849286
0.259839 0.341555 0.556421
0.264080 0.337206 0.549459
0.305709 0.340872 0.547808
0.380618 0.373601 0.575222
0.491203 0.422872 0.485237
0.699960 0.383799 0.742451
0.893969 0.318676 0.856516
0.899236 0.311906 0.853083
0.905280 0.311229 0.851959
0.196649 0.444248 0.705191
0.205827 0.438994 0.697538
0.244109 0.431127 0.682810
0.337759 0.443091 0.687460
0.477283 0.468128 0.657498
0.622020 0.508089 0.633620
0.916272 0.418734 0.888232
0.924109 0.412387 0.884672
0.930094 0.414869 0.884357
0.110592 0.592791 0.822053
0.117905 0.586851 0.818755
0.127881 0.573215 0.810912
0.225289 0.566135 0.813895
0.347416 0.577267 0.845376
0.622969 0.579503 0.629782
0.898369 0.539983 0.910681
0.945238 0.532034 0.917101
0.950468 0.531484 0.914855
0.026054 0.734288 0.855461
0.030811 0.729940 0.854565
0.036586 0.721644 0.853033
0.094413 0.713132 0.857450
0.279370 0.711840 0.876718
0.478674 0.685954 0.885856
0.776146 0.696549 0.793148
0.930387 0.671243 0.914000
0.937186 0.669127 0.913634
0.400541 0.839934 0.879678
0.379807 0.837113 0.880322
0.343617 0.832335 0.881474
0.288378 0.825295 0.883749
0.253794 0.824987 0.896680
0.303577 0.829442 0.922967
0.764275 0.800413 0.888652
0.919427 0.815823 0.910651
0.926966 0.813450 0.912356
0.647686 0.894235 0.899992
0.648321 0.894391 0.900135
0.648955 0.894541 0.900273
0.649713 0.894690 0.900405
0.667598 0.899933 0.905414
0.715767 0.913996 0.918708
0.805747 0.933222 0.938668
0.961260 0.962032 0.962211
0.990538 0.967805 0.964910
0.670509 0.901615 0.904089
0.671144 0.901770 0.904233
0.671745 0.901958 0.904414
0.672464 0.902153 0.904598
0.697098 0.904477 0.904701
0.758961 0.913995 0.910325
0.853299 0.934250 0.928127
0.971983 0.980711 0.977359
0.996818 0.996708 0.987477
0.271423 0.265625 0.442993
0.284081 0.270291 0.447372
0.331405 0.296941 0.472999
0.405137 0.342451 0.489913
0.501688 0.420995 0.474163
0.817566 0.295703 0.840681
0.889838 0.287770 0.860654
0.897714 0.290519 0.859985
0.905609 0.293274 0.859314
0.272518 0.279019 0.463427
0.277084 0.276138 0.457904
0.321719 0.293802 0.471715
0.388413 0.334935 0.497216
0.488812 0.417151 0.456363
0.772413 0.319770 0.809347
0.890904 0.293330 0.861811
0.898613 0.295874 0.860991
0.906508 0.298629 0.860320
0.262502 0.344135 0.562607
0.266706 0.340041 0.556028
0.307626 0.343099 0.553303
0.381670 0.374523 0.578509
0.492064 0.422886 0.490337
0.688380 0.396356 0.729951
0.896470 0.318464 0.867784
0.901669 0.311104 0.864441
0.908453 0.309694 0.862544
0.200646 0.445413 0.709231
0.209744 0.440218 0.701660
0.246940 0.432478 0.686950
0.339541 0.443991 0.691192
0.476617 0.468106 0.661072
0.616620 0.512464 0.622611
0.918084 0.419973 0.898593
0.926441 0.414030 0.895217
0.932866 0.414279 0.894483
0.111003 0.592703 0.828525
0.118585 0.586473 0.824929
0.128445 0.573118 0.817232
0.225967 0.566533 0.821451
0.349507 0.576870 0.849657
0.621923 0.578159 0.635385
0.889026 0.542669 0.911860
0.944845 0.531197 0.925430
0.952498 0.529797 0.924775
0.027480 0.735054 0.863413
0.032310 0.730692 0.862533
0.039162 0.722483 0.861500
0.102124 0.713929 0.866728
0.280387 0.711111 0.883064
0.478546 0.684792 0.891851
0.769073 0.698262 0.782504
0.928129 0.670062 0.919879
0.938702 0.667444 0.922250
0.352105 0.844900 0.893468
0.330476 0.841952 0.894134
0.292956 0.837093 0.895123
0.236107 0.829662 0.896774
0.192302 0.828534 0.908654
0.263350 0.831434 0.933083
0.760643 0.799560 0.895229
0.917578 0.814978 0.914083
0.928205 0.811782 0.918889
0.625426 0.899207 0.908941
0.626061 0.899362 0.909085
0.626792 0.899512 0.909223
0.627670 0.899662 0.909355
0.646220 0.904919 0.914490
0.692766 0.918702 0.927989
0.766252 0.941869 0.958210
0.962184 0.963251 0.969248
0.974504 0.964771 0.971775
0.649902 0.906647 0.913422
0.650537 0.906802 0.913566
0.651171 0.906958 0.913709
0.651930 0.907113 0.913847
0.667542 0.912061 0.918744
0.716137 0.925897 0.932030
0.803368 0.950604 0.957484
0.952025 0.992309 0.995448
0.999695 0.999908 0.999878
