presentation/src/main/res/raw/true_cinematic.cube
LUT_3D_SIZE 5
0.000946 0.000916 0.000977
0.258179 0.051049 0.000381
0.754713 0.129223 0.010650
0.981724 0.192016 0.041127
0.992828 0.200775 0.047852
0.146796 0.171773 0.161597
0.194469 0.178029 0.126737
0.687460 0.185718 0.007716
0.990211 0.250316 0.039060
1.000000 0.244814 0.043992
0.401886 0.459509 0.435067
0.388925 0.443436 0.419893
0.549104 0.497544 0.346401
0.982419 0.547010 0.214033
1.000000 0.527442 0.198467
0.659945 0.749736 0.711996
0.648246 0.735747 0.698766
0.669992 0.737195 0.695979
0.896161 0.834187 0.634987
0.984999 0.849212 0.464123
0.715179 0.808350 0.769257
0.716304 0.809283 0.770142
0.735553 0.825269 0.785288
0.891148 0.929062 0.851339
1.000000 0.969818 0.829407
0.088935 0.067474 0.092046
0.178920 0.110334 0.165523
0.709845 0.148854 0.174724
0.962480 0.205340 0.194903
0.976732 0.214270 0.189698
0.123757 0.187120 0.190643
0.179658 0.182097 0.182394
0.682373 0.170106 0.096400
0.981239 0.259862 0.143891
0.993822 0.252482 0.131215
0.394538 0.451201 0.427717
0.382033 0.436014 0.413151
0.540503 0.490457 0.344004
0.982548 0.540091 0.219788
1.000000 0.520724 0.205373
0.655224 0.744287 0.707022
0.643778 0.730615 0.694078
0.664292 0.731538 0.691492
0.889953 0.828827 0.632817
0.983210 0.845262 0.458189
0.714796 0.808302 0.769281
0.715969 0.809259 0.770190
0.734576 0.824573 0.784768
0.888245 0.927209 0.851050
1.000000 0.970177 0.826727
0.215941 0.193608 0.302120
0.277975 0.234761 0.341685
0.563614 0.207439 0.521291
0.755627 0.337993 0.559385
0.770581 0.354750 0.560837
0.198452 0.268094 0.396244
0.245380 0.266127 0.384281
0.503387 0.239610 0.467880
0.757273 0.385318 0.532435
0.772411 0.387291 0.527816
0.385795 0.500895 0.500414
0.371797 0.481645 0.481355
0.490978 0.490262 0.490668
0.959443 0.549406 0.489809
0.983310 0.534399 0.469370
0.649156 0.732018 0.702216
0.634640 0.716192 0.686433
0.635213 0.706060 0.676963
0.864905 0.818169 0.664451
0.973264 0.838156 0.514548
0.713077 0.806819 0.770775
0.714155 0.807929 0.771465
0.730683 0.820538 0.783465
0.879859 0.921878 0.853973
1.000000 0.971855 0.827357
0.266087 0.258087 0.427725
0.327656 0.291584 0.460430
0.503394 0.413572 0.482514
0.884837 0.288081 0.837560
0.898980 0.294494 0.837273
0.256833 0.340002 0.551749
0.304345 0.340015 0.544245
0.491848 0.424700 0.480634
0.891908 0.320716 0.845793
0.902240 0.314388 0.841580
0.109500 0.595940 0.817057
0.126224 0.576571 0.805747
0.343804 0.579397 0.836256
0.914506 0.540426 0.886351
0.938761 0.543088 0.857232
0.615341 0.804605 0.804901
0.608558 0.789060 0.788512
0.618784 0.763556 0.760104
0.791109 0.790188 0.790798
0.964059 0.825468 0.808849
0.754941 0.853824 0.830408
0.754437 0.850982 0.827653
0.764026 0.851508 0.828902
0.862908 0.905596 0.889041
0.994054 0.984091 0.923119
0.271423 0.265625 0.442993
0.331405 0.296941 0.472999
0.501688 0.420995 0.474163
0.889838 0.287770 0.860654
0.905609 0.293274 0.859314
0.262502 0.344135 0.562607
0.307626 0.343099 0.553303
0.492064 0.422886 0.490337
0.896470 0.318464 0.867784
0.908453 0.309694 0.862544
0.111003 0.592703 0.828525
0.128445 0.573118 0.817232
0.349507 0.576870 0.849657
0.889026 0.542669 0.911860
0.952498 0.529797 0.924775
0.352105 0.844900 0.893468
0.292956 0.837093 0.895123
0.192302 0.828534 0.908654
0.760643 0.799560 0.895229
0.928205 0.811782 0.918889
0.649902 0.906647 0.913422
0.651171 0.906958 0.913709
0.667542 0.912061 0.918744
0.803368 0.950604 0.957484
0.999695 0.999908 0.999878
